<?xml version="1.0" encoding="UTF-8"?>
<map version="1.10" tiledversion="1.12.2" orientation="orthogonal" renderorder="left-down" width="40" height="40" tilewidth="32" tileheight="32" infinite="0" nextlayerid="8" nextobjectid="1">
 <tileset firstgid="1" name="Premade_houses" tilewidth="32" tileheight="32" tilecount="4096" columns="64">
  <image source="tiled/ERW - The Village/buildings/Premade_houses.png" width="2048" height="2048"/>
  <tile id="0" type="above"/>
  <tile id="1" type="above"/>
  <tile id="2" type="above"/>
  <tile id="3" type="above"/>
  <tile id="4" type="above"/>
  <tile id="5" type="above"/>
  <tile id="6" type="above"/>
  <tile id="7" type="above"/>
  <tile id="8" type="above"/>
  <tile id="9" type="above"/>
  <tile id="10" type="above"/>
  <tile id="11" type="above"/>
  <tile id="12" type="above"/>
  <tile id="13" type="above"/>
  <tile id="15" type="above"/>
  <tile id="16" type="above"/>
  <tile id="17" type="above"/>
  <tile id="18" type="above"/>
  <tile id="19" type="above"/>
  <tile id="20" type="above"/>
  <tile id="21" type="above"/>
  <tile id="22" type="above"/>
  <tile id="23" type="above"/>
  <tile id="24" type="above"/>
  <tile id="25" type="above"/>
  <tile id="26" type="above"/>
  <tile id="27" type="above"/>
  <tile id="28" type="above"/>
  <tile id="29" type="above"/>
  <tile id="30" type="above"/>
  <tile id="31" type="above"/>
  <tile id="32" type="above"/>
  <tile id="33" type="above"/>
  <tile id="34" type="above"/>
  <tile id="35" type="above"/>
  <tile id="36" type="above"/>
  <tile id="37" type="above"/>
  <tile id="38" type="above"/>
  <tile id="39" type="above"/>
  <tile id="40" type="above"/>
  <tile id="64" type="above"/>
  <tile id="65" type="above"/>
  <tile id="66" type="above"/>
  <tile id="67" type="above"/>
  <tile id="68" type="above"/>
  <tile id="69" type="above"/>
  <tile id="70" type="above"/>
  <tile id="71" type="above"/>
  <tile id="72" type="above"/>
  <tile id="73" type="above"/>
  <tile id="74" type="above"/>
  <tile id="75" type="above"/>
  <tile id="76" type="above"/>
  <tile id="77" type="above"/>
  <tile id="79" type="above"/>
  <tile id="80" type="above"/>
  <tile id="81" type="above"/>
  <tile id="82" type="above"/>
  <tile id="83" type="above"/>
  <tile id="84" type="above"/>
  <tile id="85" type="above"/>
  <tile id="86" type="above"/>
  <tile id="87" type="above"/>
  <tile id="88" type="above"/>
  <tile id="89" type="above"/>
  <tile id="90" type="above"/>
  <tile id="91" type="above"/>
  <tile id="92" type="above"/>
  <tile id="93" type="above"/>
  <tile id="94" type="above"/>
  <tile id="95" type="above"/>
  <tile id="96" type="above"/>
  <tile id="97" type="above"/>
  <tile id="98" type="above"/>
  <tile id="99" type="above"/>
  <tile id="100" type="above"/>
  <tile id="101" type="above"/>
  <tile id="102" type="above"/>
  <tile id="103" type="above"/>
  <tile id="104" type="above"/>
  <tile id="105" type="above"/>
  <tile id="106" type="above"/>
  <tile id="107" type="above"/>
  <tile id="108" type="above"/>
  <tile id="109" type="above"/>
  <tile id="110" type="above"/>
  <tile id="111" type="above"/>
  <tile id="112" type="above"/>
  <tile id="113" type="above"/>
  <tile id="114" type="above"/>
  <tile id="115" type="above"/>
  <tile id="116" type="above"/>
  <tile id="117" type="above"/>
  <tile id="128" type="above"/>
  <tile id="129" type="above"/>
  <tile id="130" type="above"/>
  <tile id="131" type="above"/>
  <tile id="132" type="above"/>
  <tile id="133" type="above"/>
  <tile id="134" type="above"/>
  <tile id="135" type="above"/>
  <tile id="136" type="above"/>
  <tile id="137" type="above"/>
  <tile id="138" type="above"/>
  <tile id="139" type="above"/>
  <tile id="140" type="above"/>
  <tile id="141" type="above"/>
  <tile id="143" type="above"/>
  <tile id="144" type="above"/>
  <tile id="145" type="above"/>
  <tile id="146" type="above"/>
  <tile id="147" type="above"/>
  <tile id="148" type="above"/>
  <tile id="149" type="above"/>
  <tile id="150" type="above"/>
  <tile id="151" type="above"/>
  <tile id="152" type="above"/>
  <tile id="153" type="above"/>
  <tile id="154" type="above"/>
  <tile id="155" type="above"/>
  <tile id="156" type="above"/>
  <tile id="157" type="above"/>
  <tile id="158" type="above"/>
  <tile id="159" type="above"/>
  <tile id="160" type="above"/>
  <tile id="161" type="above"/>
  <tile id="162" type="above"/>
  <tile id="163" type="above"/>
  <tile id="164" type="above"/>
  <tile id="165" type="above"/>
  <tile id="166" type="above"/>
  <tile id="167" type="above"/>
  <tile id="168" type="above"/>
  <tile id="169" type="above"/>
  <tile id="170" type="above"/>
  <tile id="171" type="above"/>
  <tile id="172" type="above"/>
  <tile id="173" type="above"/>
  <tile id="174" type="above"/>
  <tile id="175" type="above"/>
  <tile id="176" type="above"/>
  <tile id="177" type="above"/>
  <tile id="178" type="above"/>
  <tile id="179" type="above"/>
  <tile id="180" type="above"/>
  <tile id="181" type="above"/>
  <tile id="192" type="above"/>
  <tile id="193" type="above"/>
  <tile id="194" type="above"/>
  <tile id="195" type="above"/>
  <tile id="196" type="above"/>
  <tile id="197" type="above"/>
  <tile id="198" type="above"/>
  <tile id="199" type="above"/>
  <tile id="200" type="above"/>
  <tile id="201" type="above"/>
  <tile id="202" type="above"/>
  <tile id="203" type="above"/>
  <tile id="204" type="above"/>
  <tile id="205" type="above"/>
  <tile id="207" type="above"/>
  <tile id="208" type="above"/>
  <tile id="209" type="above"/>
  <tile id="210" type="above"/>
  <tile id="211" type="above"/>
  <tile id="212" type="above"/>
  <tile id="213" type="above"/>
  <tile id="214" type="above"/>
  <tile id="215" type="above"/>
  <tile id="216" type="above"/>
  <tile id="217" type="above"/>
  <tile id="218" type="above"/>
  <tile id="219" type="above"/>
  <tile id="220" type="above"/>
  <tile id="221" type="above"/>
  <tile id="222" type="above"/>
  <tile id="223" type="above"/>
  <tile id="224" type="above"/>
  <tile id="225" type="above"/>
  <tile id="226" type="above"/>
  <tile id="227" type="above"/>
  <tile id="228" type="above"/>
  <tile id="229" type="above"/>
  <tile id="230" type="above"/>
  <tile id="231" type="above"/>
  <tile id="232" type="above"/>
  <tile id="233" type="above"/>
  <tile id="234" type="above"/>
  <tile id="235" type="above"/>
  <tile id="236" type="above"/>
  <tile id="237" type="above"/>
  <tile id="238" type="above"/>
  <tile id="239" type="above"/>
  <tile id="240" type="above"/>
  <tile id="241" type="above"/>
  <tile id="242" type="above"/>
  <tile id="243" type="above"/>
  <tile id="244" type="above"/>
  <tile id="245" type="above"/>
  <tile id="248" type="above"/>
  <tile id="249" type="above"/>
  <tile id="250" type="above"/>
  <tile id="251" type="above"/>
  <tile id="252" type="above"/>
  <tile id="253" type="above"/>
  <tile id="256" type="above"/>
  <tile id="257" type="above"/>
  <tile id="258" type="above"/>
  <tile id="259" type="above"/>
  <tile id="260" type="above"/>
  <tile id="261" type="above"/>
  <tile id="262" type="above"/>
  <tile id="263" type="above"/>
  <tile id="264" type="above"/>
  <tile id="265" type="above"/>
  <tile id="266" type="above"/>
  <tile id="267" type="above"/>
  <tile id="268" type="above"/>
  <tile id="269" type="above"/>
  <tile id="271" type="above"/>
  <tile id="272" type="above"/>
  <tile id="273" type="above"/>
  <tile id="274" type="above"/>
  <tile id="275" type="above"/>
  <tile id="276" type="above"/>
  <tile id="277" type="above"/>
  <tile id="278" type="above"/>
  <tile id="279" type="above"/>
  <tile id="280" type="above"/>
  <tile id="281" type="above"/>
  <tile id="282" type="above"/>
  <tile id="283" type="above"/>
  <tile id="284" type="above"/>
  <tile id="285" type="above"/>
  <tile id="286" type="above"/>
  <tile id="287" type="above"/>
  <tile id="288" type="above"/>
  <tile id="289" type="above"/>
  <tile id="290" type="above"/>
  <tile id="291" type="above"/>
  <tile id="292" type="above"/>
  <tile id="293" type="above"/>
  <tile id="294" type="above"/>
  <tile id="295" type="above"/>
  <tile id="296" type="above"/>
  <tile id="297" type="above"/>
  <tile id="298" type="above"/>
  <tile id="299" type="above"/>
  <tile id="300" type="above"/>
  <tile id="301" type="above"/>
  <tile id="302" type="above"/>
  <tile id="303" type="above"/>
  <tile id="304" type="above"/>
  <tile id="305" type="above"/>
  <tile id="306" type="above"/>
  <tile id="307" type="above"/>
  <tile id="308" type="above"/>
  <tile id="309" type="above"/>
  <tile id="312" type="above"/>
  <tile id="313" type="above"/>
  <tile id="314" type="above"/>
  <tile id="315" type="above"/>
  <tile id="316" type="above"/>
  <tile id="317" type="above"/>
  <tile id="320" type="above"/>
  <tile id="321" type="above"/>
  <tile id="322" type="above"/>
  <tile id="323" type="above"/>
  <tile id="324" type="above"/>
  <tile id="325" type="above"/>
  <tile id="326" type="above"/>
  <tile id="327" type="above"/>
  <tile id="328" type="above"/>
  <tile id="329" type="above"/>
  <tile id="330" type="above"/>
  <tile id="331" type="above"/>
  <tile id="332" type="above"/>
  <tile id="333" type="above"/>
  <tile id="335" type="above"/>
  <tile id="336" type="above"/>
  <tile id="337" type="above"/>
  <tile id="338" type="above"/>
  <tile id="339" type="above"/>
  <tile id="340" type="above"/>
  <tile id="341" type="above"/>
  <tile id="342" type="above"/>
  <tile id="343" type="above"/>
  <tile id="344" type="above"/>
  <tile id="345" type="above"/>
  <tile id="346" type="above"/>
  <tile id="347" type="above"/>
  <tile id="348" type="above"/>
  <tile id="349" type="above"/>
  <tile id="350" type="above"/>
  <tile id="351" type="above"/>
  <tile id="352" type="above"/>
  <tile id="353" type="above"/>
  <tile id="354" type="above"/>
  <tile id="355" type="above"/>
  <tile id="356" type="above"/>
  <tile id="357" type="above"/>
  <tile id="358" type="above"/>
  <tile id="359" type="above"/>
  <tile id="360" type="above"/>
  <tile id="361" type="above"/>
  <tile id="362" type="above"/>
  <tile id="363" type="above"/>
  <tile id="364" type="above"/>
  <tile id="365" type="above"/>
  <tile id="366" type="above"/>
  <tile id="367" type="above"/>
  <tile id="368" type="above"/>
  <tile id="369" type="above"/>
  <tile id="370" type="above"/>
  <tile id="371" type="above"/>
  <tile id="372" type="above"/>
  <tile id="373" type="above"/>
  <tile id="376" type="above"/>
  <tile id="377" type="above"/>
  <tile id="378" type="above"/>
  <tile id="379" type="above"/>
  <tile id="380" type="above"/>
  <tile id="381" type="above"/>
  <tile id="384" type="above"/>
  <tile id="385" type="above"/>
  <tile id="386" type="above"/>
  <tile id="387" type="above"/>
  <tile id="388" type="above"/>
  <tile id="389" type="above"/>
  <tile id="390" type="above"/>
  <tile id="391" type="above"/>
  <tile id="392" type="above"/>
  <tile id="393" type="above"/>
  <tile id="394" type="above"/>
  <tile id="395" type="above"/>
  <tile id="396" type="above"/>
  <tile id="397" type="above"/>
  <tile id="399" type="above"/>
  <tile id="400" type="above"/>
  <tile id="401" type="above"/>
  <tile id="402" type="above"/>
  <tile id="403" type="above"/>
  <tile id="404" type="above"/>
  <tile id="405" type="above"/>
  <tile id="406" type="above"/>
  <tile id="407" type="above"/>
  <tile id="408" type="above"/>
  <tile id="409" type="above"/>
  <tile id="410" type="above"/>
  <tile id="411" type="above"/>
  <tile id="412" type="above"/>
  <tile id="413" type="above"/>
  <tile id="414" type="above"/>
  <tile id="415" type="above"/>
  <tile id="416" type="above"/>
  <tile id="417" type="above"/>
  <tile id="418" type="above"/>
  <tile id="419" type="above"/>
  <tile id="420" type="above"/>
  <tile id="421" type="above"/>
  <tile id="422" type="above"/>
  <tile id="423" type="above"/>
  <tile id="424" type="above"/>
  <tile id="425" type="above"/>
  <tile id="426" type="above"/>
  <tile id="427" type="above"/>
  <tile id="428" type="above"/>
  <tile id="429" type="above"/>
  <tile id="430" type="above"/>
  <tile id="431" type="above"/>
  <tile id="432" type="above"/>
  <tile id="433" type="above"/>
  <tile id="434" type="above"/>
  <tile id="435" type="above"/>
  <tile id="436" type="above"/>
  <tile id="437" type="above"/>
  <tile id="440" type="above"/>
  <tile id="441" type="above"/>
  <tile id="442" type="above"/>
  <tile id="443" type="above"/>
  <tile id="444" type="above"/>
  <tile id="445" type="above"/>
  <tile id="448" type="above"/>
  <tile id="449" type="above"/>
  <tile id="450" type="above"/>
  <tile id="451" type="above"/>
  <tile id="452" type="above"/>
  <tile id="453" type="above"/>
  <tile id="454" type="above"/>
  <tile id="455" type="above"/>
  <tile id="456" type="above"/>
  <tile id="457" type="above"/>
  <tile id="458" type="above"/>
  <tile id="459" type="above"/>
  <tile id="460" type="above"/>
  <tile id="461" type="above"/>
  <tile id="463" type="above"/>
  <tile id="464" type="above"/>
  <tile id="465" type="above"/>
  <tile id="466" type="above"/>
  <tile id="467" type="above"/>
  <tile id="468" type="above"/>
  <tile id="469" type="above"/>
  <tile id="470" type="above"/>
  <tile id="471" type="above"/>
  <tile id="472" type="above"/>
  <tile id="473" type="above"/>
  <tile id="474" type="above"/>
  <tile id="475" type="above"/>
  <tile id="476" type="above"/>
  <tile id="477" type="above"/>
  <tile id="478" type="above"/>
  <tile id="479" type="above"/>
  <tile id="480" type="above"/>
  <tile id="481" type="above"/>
  <tile id="482" type="above"/>
  <tile id="483" type="above"/>
  <tile id="484" type="above"/>
  <tile id="485" type="above"/>
  <tile id="486" type="above"/>
  <tile id="487" type="above"/>
  <tile id="488" type="above"/>
  <tile id="489" type="above"/>
  <tile id="490" type="above"/>
  <tile id="491" type="above"/>
  <tile id="492" type="above"/>
  <tile id="493" type="above"/>
  <tile id="494" type="above"/>
  <tile id="495" type="above"/>
  <tile id="496" type="above"/>
  <tile id="497" type="above"/>
  <tile id="498" type="above"/>
  <tile id="499" type="above"/>
  <tile id="500" type="above"/>
  <tile id="501" type="above"/>
  <tile id="504" type="above"/>
  <tile id="505" type="above"/>
  <tile id="506" type="above"/>
  <tile id="507" type="above"/>
  <tile id="508" type="above"/>
  <tile id="509" type="above"/>
  <tile id="512" type="above"/>
  <tile id="513" type="above"/>
  <tile id="514" type="above"/>
  <tile id="515" type="above"/>
  <tile id="516" type="above"/>
  <tile id="517" type="above"/>
  <tile id="518" type="above"/>
  <tile id="519" type="above"/>
  <tile id="520" type="above"/>
  <tile id="521" type="above"/>
  <tile id="522" type="above"/>
  <tile id="523" type="above"/>
  <tile id="524" type="above"/>
  <tile id="525" type="above"/>
  <tile id="527" type="above"/>
  <tile id="528" type="above"/>
  <tile id="529" type="above"/>
  <tile id="530" type="above"/>
  <tile id="531" type="above"/>
  <tile id="532" type="above"/>
  <tile id="533" type="above"/>
  <tile id="534" type="above"/>
  <tile id="535" type="above"/>
  <tile id="536" type="above"/>
  <tile id="537" type="above"/>
  <tile id="538" type="above"/>
  <tile id="539" type="above"/>
  <tile id="540" type="above"/>
  <tile id="541" type="above"/>
  <tile id="542" type="above"/>
  <tile id="543" type="above"/>
  <tile id="544" type="above"/>
  <tile id="545" type="above"/>
  <tile id="546" type="above"/>
  <tile id="547" type="above"/>
  <tile id="548" type="above"/>
  <tile id="549" type="above"/>
  <tile id="550" type="above"/>
  <tile id="551" type="above"/>
  <tile id="552" type="above"/>
  <tile id="553" type="above"/>
  <tile id="554" type="above"/>
  <tile id="555" type="above"/>
  <tile id="556" type="above"/>
  <tile id="557" type="above"/>
  <tile id="558" type="above"/>
  <tile id="559" type="above"/>
  <tile id="560" type="above"/>
  <tile id="561" type="above"/>
  <tile id="562" type="above"/>
  <tile id="563" type="above"/>
  <tile id="564" type="above"/>
  <tile id="565" type="above"/>
  <tile id="568" type="above"/>
  <tile id="569" type="above"/>
  <tile id="570" type="above"/>
  <tile id="571" type="above"/>
  <tile id="572" type="above"/>
  <tile id="573" type="above"/>
  <tile id="576" type="above"/>
  <tile id="577" type="above"/>
  <tile id="578" type="above"/>
  <tile id="579" type="above"/>
  <tile id="580" type="above"/>
  <tile id="581" type="above"/>
  <tile id="582" type="above"/>
  <tile id="583" type="above"/>
  <tile id="584" type="above"/>
  <tile id="585" type="above"/>
  <tile id="586" type="above"/>
  <tile id="587" type="above"/>
  <tile id="588" type="above"/>
  <tile id="589" type="above"/>
  <tile id="591" type="above"/>
  <tile id="592" type="above"/>
  <tile id="593" type="above"/>
  <tile id="594" type="above"/>
  <tile id="595" type="above"/>
  <tile id="596" type="above"/>
  <tile id="597" type="above"/>
  <tile id="598" type="above"/>
  <tile id="599" type="above"/>
  <tile id="600" type="above"/>
  <tile id="601" type="above"/>
  <tile id="602" type="above"/>
  <tile id="603" type="above"/>
  <tile id="604" type="above"/>
  <tile id="605" type="above"/>
  <tile id="606" type="above"/>
  <tile id="607" type="above"/>
  <tile id="608" type="above"/>
  <tile id="609" type="above"/>
  <tile id="610" type="above"/>
  <tile id="611" type="above"/>
  <tile id="612" type="above"/>
  <tile id="613" type="above"/>
  <tile id="614" type="above"/>
  <tile id="615" type="above"/>
  <tile id="616" type="above"/>
  <tile id="617" type="above"/>
  <tile id="618" type="above"/>
  <tile id="619" type="above"/>
  <tile id="620" type="above"/>
  <tile id="621" type="above"/>
  <tile id="622" type="above"/>
  <tile id="623" type="above"/>
  <tile id="624" type="above"/>
  <tile id="625" type="above"/>
  <tile id="626" type="above"/>
  <tile id="627" type="above"/>
  <tile id="628" type="above"/>
  <tile id="629" type="above"/>
  <tile id="632" type="above"/>
  <tile id="633" type="above"/>
  <tile id="634" type="above"/>
  <tile id="635" type="above"/>
  <tile id="636" type="above"/>
  <tile id="637" type="above"/>
  <tile id="640" type="above"/>
  <tile id="641" type="above"/>
  <tile id="642" type="above"/>
  <tile id="643" type="above"/>
  <tile id="644" type="above"/>
  <tile id="645" type="above"/>
  <tile id="646" type="above"/>
  <tile id="647" type="above"/>
  <tile id="648" type="above"/>
  <tile id="649" type="above"/>
  <tile id="650" type="above"/>
  <tile id="651" type="above"/>
  <tile id="652" type="above"/>
  <tile id="653" type="above"/>
  <tile id="655" type="above"/>
  <tile id="656" type="above"/>
  <tile id="657" type="above"/>
  <tile id="658" type="above"/>
  <tile id="659" type="above"/>
  <tile id="660" type="above"/>
  <tile id="661" type="above"/>
  <tile id="662" type="above"/>
  <tile id="663" type="above"/>
  <tile id="664" type="above"/>
  <tile id="665" type="above"/>
  <tile id="666" type="above"/>
  <tile id="667" type="above"/>
  <tile id="668" type="above"/>
  <tile id="669" type="above"/>
  <tile id="670" type="above"/>
  <tile id="671" type="above"/>
  <tile id="672" type="above"/>
  <tile id="673" type="above"/>
  <tile id="674" type="above"/>
  <tile id="675" type="above"/>
  <tile id="676" type="above"/>
  <tile id="677" type="above"/>
  <tile id="678" type="above"/>
  <tile id="679" type="above"/>
  <tile id="680" type="above"/>
  <tile id="681" type="above"/>
  <tile id="682" type="above"/>
  <tile id="683" type="above"/>
  <tile id="684" type="above"/>
  <tile id="685" type="above"/>
  <tile id="686" type="above"/>
  <tile id="687" type="above"/>
  <tile id="688" type="above"/>
  <tile id="689" type="above"/>
  <tile id="690" type="above"/>
  <tile id="691" type="above"/>
  <tile id="692" type="above"/>
  <tile id="693" type="above"/>
  <tile id="696" type="above"/>
  <tile id="697" type="above"/>
  <tile id="698" type="above"/>
  <tile id="699" type="above"/>
  <tile id="700" type="above"/>
  <tile id="701" type="above"/>
  <tile id="704" type="above"/>
  <tile id="705" type="above"/>
  <tile id="706" type="above"/>
  <tile id="707" type="above"/>
  <tile id="708" type="above"/>
  <tile id="709" type="above"/>
  <tile id="710" type="above"/>
  <tile id="711" type="above"/>
  <tile id="712" type="above"/>
  <tile id="713" type="above"/>
  <tile id="714" type="above"/>
  <tile id="715" type="above"/>
  <tile id="716" type="above"/>
  <tile id="717" type="above"/>
  <tile id="719" type="above"/>
  <tile id="720" type="above"/>
  <tile id="721" type="above"/>
  <tile id="722" type="above"/>
  <tile id="723" type="above"/>
  <tile id="724" type="above"/>
  <tile id="725" type="above"/>
  <tile id="726" type="above"/>
  <tile id="727" type="above"/>
  <tile id="728" type="above"/>
  <tile id="729" type="above"/>
  <tile id="730" type="above"/>
  <tile id="731" type="above"/>
  <tile id="732" type="above"/>
  <tile id="733" type="above"/>
  <tile id="734" type="above"/>
  <tile id="735" type="above"/>
  <tile id="736" type="above"/>
  <tile id="737" type="above"/>
  <tile id="738" type="above"/>
  <tile id="739" type="above"/>
  <tile id="740" type="above"/>
  <tile id="741" type="above"/>
  <tile id="742" type="above"/>
  <tile id="743" type="above"/>
  <tile id="744" type="above"/>
  <tile id="745" type="above"/>
  <tile id="746" type="above"/>
  <tile id="747" type="above"/>
  <tile id="748" type="above"/>
  <tile id="749" type="above"/>
  <tile id="750" type="above"/>
  <tile id="751" type="above"/>
  <tile id="752" type="above"/>
  <tile id="753" type="above"/>
  <tile id="754" type="above"/>
  <tile id="755" type="above"/>
  <tile id="756" type="above"/>
  <tile id="757" type="above"/>
  <tile id="760" type="above"/>
  <tile id="761" type="above"/>
  <tile id="762" type="above"/>
  <tile id="763" type="above"/>
  <tile id="764" type="above"/>
  <tile id="765" type="above"/>
  <tile id="768" type="above"/>
  <tile id="769" type="above"/>
  <tile id="770" type="above"/>
  <tile id="771" type="above"/>
  <tile id="772" type="above"/>
  <tile id="773" type="above"/>
  <tile id="774" type="above"/>
  <tile id="775" type="above"/>
  <tile id="776" type="above"/>
  <tile id="777" type="above"/>
  <tile id="778" type="above"/>
  <tile id="779" type="above"/>
  <tile id="780" type="above"/>
  <tile id="781" type="above"/>
  <tile id="783" type="above"/>
  <tile id="784" type="above"/>
  <tile id="785" type="above"/>
  <tile id="786" type="above"/>
  <tile id="787" type="above"/>
  <tile id="788" type="above"/>
  <tile id="789" type="above"/>
  <tile id="790" type="above"/>
  <tile id="791" type="above"/>
  <tile id="792" type="above"/>
  <tile id="793" type="above"/>
  <tile id="794" type="above"/>
  <tile id="795" type="above"/>
  <tile id="796" type="above"/>
  <tile id="797" type="above"/>
  <tile id="798" type="above"/>
  <tile id="799" type="above"/>
  <tile id="800" type="above"/>
  <tile id="801" type="above"/>
  <tile id="802" type="above"/>
  <tile id="803" type="above"/>
  <tile id="804" type="above"/>
  <tile id="805" type="above"/>
  <tile id="806" type="above"/>
  <tile id="807" type="above"/>
  <tile id="808" type="above"/>
  <tile id="809" type="above"/>
  <tile id="810" type="above"/>
  <tile id="811" type="above"/>
  <tile id="812" type="above"/>
  <tile id="813" type="above"/>
  <tile id="814" type="above"/>
  <tile id="815" type="above"/>
  <tile id="816" type="above"/>
  <tile id="817" type="above"/>
  <tile id="818" type="above"/>
  <tile id="819" type="above"/>
  <tile id="820" type="above"/>
  <tile id="821" type="above"/>
  <tile id="873" type="above"/>
  <tile id="874" type="above"/>
  <tile id="875" type="above"/>
  <tile id="876" type="above"/>
  <tile id="877" type="above"/>
  <tile id="878" type="above"/>
  <tile id="879" type="above"/>
  <tile id="880" type="above"/>
  <tile id="881" type="above"/>
  <tile id="882" type="above"/>
  <tile id="883" type="above"/>
  <tile id="884" type="above"/>
  <tile id="885" type="above"/>
  <tile id="2082" type="above"/>
  <tile id="2083" type="above"/>
  <tile id="2084" type="above"/>
  <tile id="2085" type="above"/>
  <tile id="2086" type="above"/>
  <tile id="2087" type="above"/>
  <tile id="2088" type="above"/>
  <tile id="2089" type="above"/>
  <tile id="2090" type="above"/>
  <tile id="2091" type="above"/>
  <tile id="2092" type="above"/>
  <tile id="2093" type="above"/>
  <tile id="2094" type="above"/>
  <tile id="2095" type="above"/>
  <tile id="2096" type="above"/>
  <tile id="2097" type="above"/>
  <tile id="2098" type="above"/>
  <tile id="2099" type="above"/>
  <tile id="2100" type="above"/>
  <tile id="2101" type="above"/>
  <tile id="2146" type="above"/>
  <tile id="2147" type="above"/>
  <tile id="2148" type="above"/>
  <tile id="2149" type="above"/>
  <tile id="2150" type="above"/>
  <tile id="2151" type="above"/>
  <tile id="2152" type="above"/>
  <tile id="2153" type="above"/>
  <tile id="2154" type="above"/>
  <tile id="2155" type="above"/>
  <tile id="2156" type="above"/>
  <tile id="2157" type="above"/>
  <tile id="2158" type="above"/>
  <tile id="2159" type="above"/>
  <tile id="2160" type="above"/>
  <tile id="2161" type="above"/>
  <tile id="2162" type="above"/>
  <tile id="2163" type="above"/>
  <tile id="2164" type="above"/>
  <tile id="2165" type="above"/>
  <tile id="2210" type="above"/>
  <tile id="2211" type="above"/>
  <tile id="2212" type="above"/>
  <tile id="2213" type="above"/>
  <tile id="2214" type="above"/>
  <tile id="2215" type="above"/>
  <tile id="2216" type="above"/>
  <tile id="2217" type="above"/>
  <tile id="2218" type="above"/>
  <tile id="2219" type="above"/>
  <tile id="2220" type="above"/>
  <tile id="2221" type="above"/>
  <tile id="2222" type="above"/>
  <tile id="2223" type="above"/>
  <tile id="2224" type="above"/>
  <tile id="2225" type="above"/>
  <tile id="2226" type="above"/>
  <tile id="2227" type="above"/>
  <tile id="2228" type="above"/>
  <tile id="2229" type="above"/>
  <tile id="2274" type="above"/>
  <tile id="2275" type="above"/>
  <tile id="2276" type="above"/>
  <tile id="2277" type="above"/>
  <tile id="2278" type="above"/>
  <tile id="2279" type="above"/>
  <tile id="2280" type="above"/>
  <tile id="2281" type="above"/>
  <tile id="2282" type="above"/>
  <tile id="2283" type="above"/>
  <tile id="2284" type="above"/>
  <tile id="2285" type="above"/>
  <tile id="2286" type="above"/>
  <tile id="2287" type="above"/>
  <tile id="2288" type="above"/>
  <tile id="2289" type="above"/>
  <tile id="2290" type="above"/>
  <tile id="2291" type="above"/>
  <tile id="2292" type="above"/>
  <tile id="2293" type="above"/>
  <tile id="2338" type="above"/>
  <tile id="2339" type="above"/>
  <tile id="2340" type="above"/>
  <tile id="2341" type="above"/>
  <tile id="2342" type="above"/>
  <tile id="2343" type="above"/>
  <tile id="2344" type="above"/>
  <tile id="2345" type="above"/>
  <tile id="2346" type="above"/>
  <tile id="2347" type="above"/>
  <tile id="2348" type="above"/>
  <tile id="2349" type="above"/>
  <tile id="2350" type="above"/>
  <tile id="2351" type="above"/>
  <tile id="2352" type="above"/>
  <tile id="2353" type="above"/>
  <tile id="2354" type="above"/>
  <tile id="2355" type="above"/>
  <tile id="2356" type="above"/>
  <tile id="2357" type="above"/>
  <tile id="2402" type="above"/>
  <tile id="2403" type="above"/>
  <tile id="2404" type="above"/>
  <tile id="2405" type="above"/>
  <tile id="2406" type="above"/>
  <tile id="2407" type="above"/>
  <tile id="2408" type="above"/>
  <tile id="2409" type="above"/>
  <tile id="2410" type="above"/>
  <tile id="2411" type="above"/>
  <tile id="2412" type="above"/>
  <tile id="2413" type="above"/>
  <tile id="2414" type="above"/>
  <tile id="2415" type="above"/>
  <tile id="2416" type="above"/>
  <tile id="2417" type="above"/>
  <tile id="2418" type="above"/>
  <tile id="2419" type="above"/>
  <tile id="2420" type="above"/>
  <tile id="2421" type="above"/>
  <tile id="2466" type="above"/>
  <tile id="2467" type="above"/>
  <tile id="2468" type="above"/>
  <tile id="2469" type="above"/>
  <tile id="2470" type="above"/>
  <tile id="2471" type="above"/>
  <tile id="2472" type="above"/>
  <tile id="2473" type="above"/>
  <tile id="2474" type="above"/>
  <tile id="2475" type="above"/>
  <tile id="2476" type="above"/>
  <tile id="2477" type="above"/>
  <tile id="2478" type="above"/>
  <tile id="2479" type="above"/>
  <tile id="2480" type="above"/>
  <tile id="2481" type="above"/>
  <tile id="2482" type="above"/>
  <tile id="2483" type="above"/>
  <tile id="2484" type="above"/>
  <tile id="2485" type="above"/>
  <tile id="2530" type="above"/>
  <tile id="2531" type="above"/>
  <tile id="2532" type="above"/>
  <tile id="2533" type="above"/>
  <tile id="2534" type="above"/>
  <tile id="2535" type="above"/>
  <tile id="2536" type="above"/>
  <tile id="2537" type="above"/>
  <tile id="2538" type="above"/>
  <tile id="2539" type="above"/>
  <tile id="2540" type="above"/>
  <tile id="2541" type="above"/>
  <tile id="2542" type="above"/>
  <tile id="2543" type="above"/>
  <tile id="2544" type="above"/>
  <tile id="2545" type="above"/>
  <tile id="2546" type="above"/>
  <tile id="2547" type="above"/>
  <tile id="2548" type="above"/>
  <tile id="2549" type="above"/>
  <tile id="2594" type="above"/>
  <tile id="2595" type="above"/>
  <tile id="2596" type="above"/>
  <tile id="2597" type="above"/>
  <tile id="2598" type="above"/>
  <tile id="2599" type="above"/>
  <tile id="2600" type="above"/>
  <tile id="2601" type="above"/>
  <tile id="2602" type="above"/>
  <tile id="2603" type="above"/>
  <tile id="2604" type="above"/>
  <tile id="2605" type="above"/>
  <tile id="2606" type="above"/>
  <tile id="2607" type="above"/>
  <tile id="2608" type="above"/>
  <tile id="2609" type="above"/>
  <tile id="2610" type="above"/>
  <tile id="2611" type="above"/>
  <tile id="2612" type="above"/>
  <tile id="2613" type="above"/>
  <tile id="2658" type="above"/>
  <tile id="2659" type="above"/>
  <tile id="2660" type="above"/>
  <tile id="2661" type="above"/>
  <tile id="2662" type="above"/>
  <tile id="2663" type="above"/>
  <tile id="2664" type="above"/>
  <tile id="2665" type="above"/>
  <tile id="2666" type="above"/>
  <tile id="2667" type="above"/>
  <tile id="2668" type="above"/>
  <tile id="2669" type="above"/>
  <tile id="2670" type="above"/>
  <tile id="2671" type="above"/>
  <tile id="2672" type="above"/>
  <tile id="2673" type="above"/>
  <tile id="2674" type="above"/>
  <tile id="2675" type="above"/>
  <tile id="2676" type="above"/>
  <tile id="2677" type="above"/>
  <tile id="2722" type="above"/>
  <tile id="2723" type="above"/>
  <tile id="2724" type="above"/>
  <tile id="2725" type="above"/>
  <tile id="2726" type="above"/>
  <tile id="2727" type="above"/>
  <tile id="2728" type="above"/>
  <tile id="2729" type="above"/>
  <tile id="2730" type="above"/>
  <tile id="2731" type="above"/>
  <tile id="2732" type="above"/>
  <tile id="2733" type="above"/>
  <tile id="2734" type="above"/>
  <tile id="2735" type="above"/>
  <tile id="2736" type="above"/>
  <tile id="2737" type="above"/>
  <tile id="2738" type="above"/>
  <tile id="2739" type="above"/>
  <tile id="2740" type="above"/>
  <tile id="2741" type="above"/>
  <tile id="2786" type="above"/>
  <tile id="2787" type="above"/>
  <tile id="2788" type="above"/>
  <tile id="2789" type="above"/>
  <tile id="2790" type="above"/>
  <tile id="2791" type="above"/>
  <tile id="2792" type="above"/>
  <tile id="2793" type="above"/>
  <tile id="2794" type="above"/>
  <tile id="2795" type="above"/>
  <tile id="2796" type="above"/>
  <tile id="2797" type="above"/>
  <tile id="2798" type="above"/>
  <tile id="2799" type="above"/>
  <tile id="2800" type="above"/>
  <tile id="2801" type="above"/>
  <tile id="2802" type="above"/>
  <tile id="2803" type="above"/>
  <tile id="2804" type="above"/>
  <tile id="2805" type="above"/>
  <tile id="2850" type="above"/>
  <tile id="2851" type="above"/>
  <tile id="2852" type="above"/>
  <tile id="2853" type="above"/>
  <tile id="2854" type="above"/>
  <tile id="2855" type="above"/>
  <tile id="2856" type="above"/>
  <tile id="2857" type="above"/>
  <tile id="2858" type="above"/>
  <tile id="2859" type="above"/>
  <tile id="2860" type="above"/>
  <tile id="2861" type="above"/>
  <tile id="2862" type="above"/>
  <tile id="2863" type="above"/>
  <tile id="2864" type="above"/>
  <tile id="2865" type="above"/>
  <tile id="2866" type="above"/>
  <tile id="2867" type="above"/>
  <tile id="2868" type="above"/>
  <tile id="2869" type="above"/>
  <tile id="2914" type="above"/>
  <tile id="2915" type="above"/>
  <tile id="2916" type="above"/>
  <tile id="2917" type="above"/>
  <tile id="2918" type="above"/>
  <tile id="2919" type="above"/>
  <tile id="2920" type="above"/>
  <tile id="2921" type="above"/>
  <tile id="2922" type="above"/>
  <tile id="2923" type="above"/>
  <tile id="2924" type="above"/>
  <tile id="2925" type="above"/>
  <tile id="2926" type="above"/>
  <tile id="2927" type="above"/>
  <tile id="2928" type="above"/>
  <tile id="2929" type="above"/>
  <tile id="2930" type="above"/>
  <tile id="2931" type="above"/>
  <tile id="2932" type="above"/>
  <tile id="2933" type="above"/>
  <tile id="2978" type="above"/>
  <tile id="2979" type="above"/>
  <tile id="2980" type="above"/>
  <tile id="2981" type="above"/>
  <tile id="2982" type="above"/>
  <tile id="2983" type="above"/>
  <tile id="2984" type="above"/>
  <tile id="2985" type="above"/>
  <tile id="2986" type="above"/>
  <tile id="2987" type="above"/>
  <tile id="2988" type="above"/>
  <tile id="2989" type="above"/>
  <tile id="2990" type="above"/>
  <tile id="2991" type="above"/>
  <tile id="2992" type="above"/>
  <tile id="2993" type="above"/>
  <tile id="2994" type="above"/>
  <tile id="2995" type="above"/>
  <tile id="2996" type="above"/>
  <tile id="2997" type="above"/>
  <tile id="3042" type="above"/>
  <tile id="3043" type="above"/>
  <tile id="3044" type="above"/>
  <tile id="3045" type="above"/>
  <tile id="3046" type="above"/>
  <tile id="3047" type="above"/>
  <tile id="3048" type="above"/>
  <tile id="3049" type="above"/>
  <tile id="3050" type="above"/>
  <tile id="3051" type="above"/>
  <tile id="3052" type="above"/>
  <tile id="3053" type="above"/>
  <tile id="3054" type="above"/>
  <tile id="3055" type="above"/>
  <tile id="3056" type="above"/>
  <tile id="3057" type="above"/>
  <tile id="3058" type="above"/>
  <tile id="3059" type="above"/>
  <tile id="3060" type="above"/>
  <tile id="3061" type="above"/>
 </tileset>
 <tileset firstgid="4097" name="Atlas-Props-Sprites" tilewidth="352" tileheight="288" tilecount="384" columns="0">
  <grid orientation="orthogonal" width="1" height="1"/>
  <tile id="0">
   <image source="tiled/ERW - Highlands/tilesets and props/props-sprites/cabin-1.png" width="224" height="192"/>
  </tile>
  <tile id="1">
   <image source="tiled/ERW - Highlands/tilesets and props/props-sprites/cabin-2.png" width="192" height="192"/>
  </tile>
  <tile id="2">
   <image source="tiled/ERW - Highlands/tilesets and props/props-sprites/cabin-3.png" width="192" height="192"/>
  </tile>
  <tile id="3">
   <image source="tiled/ERW - Highlands/tilesets and props/props-sprites/cabin-campfire-1.png" width="128" height="96"/>
  </tile>
  <tile id="4">
   <image source="tiled/ERW - Highlands/tilesets and props/props-sprites/cabin-campfire-2.png" width="128" height="96"/>
  </tile>
  <tile id="5">
   <image source="tiled/ERW - Highlands/tilesets and props/props-sprites/cabin-campfire-3.png" width="64" height="64"/>
  </tile>
  <tile id="6">
   <image source="tiled/ERW - Highlands/tilesets and props/props-sprites/cabin-campfire-4.png" width="64" height="64"/>
  </tile>
  <tile id="7">
   <image source="tiled/ERW - Highlands/tilesets and props/props-sprites/cabin-campfire-5.png" width="32" height="32"/>
  </tile>
  <tile id="8">
   <image source="tiled/ERW - Highlands/tilesets and props/props-sprites/clouds_0.png" width="160" height="64"/>
  </tile>
  <tile id="9">
   <image source="tiled/ERW - Highlands/tilesets and props/props-sprites/clouds_1.png" width="160" height="64"/>
  </tile>
  <tile id="10">
   <image source="tiled/ERW - Highlands/tilesets and props/props-sprites/clouds_2.png" width="192" height="64"/>
  </tile>
  <tile id="11">
   <image source="tiled/ERW - Highlands/tilesets and props/props-sprites/clouds_3.png" width="160" height="64"/>
  </tile>
  <tile id="12">
   <image source="tiled/ERW - Highlands/tilesets and props/props-sprites/clouds_4.png" width="160" height="64"/>
  </tile>
  <tile id="13">
   <image source="tiled/ERW - Highlands/tilesets and props/props-sprites/magic-tree.png" width="160" height="192"/>
  </tile>
  <tile id="14">
   <image source="tiled/ERW - Highlands/tilesets and props/props-sprites/magic-tree1.png" width="96" height="32"/>
  </tile>
  <tile id="15">
   <image source="tiled/ERW - Highlands/tilesets and props/props-sprites/pine-tree2-big.png" width="96" height="192"/>
  </tile>
  <tile id="16">
   <image source="tiled/ERW - Highlands/tilesets and props/props-sprites/pine-tree2-big-snow.png" width="96" height="192"/>
  </tile>
  <tile id="17">
   <image source="tiled/ERW - Highlands/tilesets and props/props-sprites/pine-tree2-big-snow2.png" width="96" height="192"/>
  </tile>
  <tile id="18">
   <image source="tiled/ERW - Highlands/tilesets and props/props-sprites/pine-tree2-medium.png" width="96" height="160"/>
  </tile>
  <tile id="19">
   <image source="tiled/ERW - Highlands/tilesets and props/props-sprites/pine-tree2-medium-snow.png" width="96" height="160"/>
  </tile>
  <tile id="20">
   <image source="tiled/ERW - Highlands/tilesets and props/props-sprites/pine-tree2-medium-snow2.png" width="96" height="160"/>
  </tile>
  <tile id="21">
   <image source="tiled/ERW - Highlands/tilesets and props/props-sprites/pine-tree2-no leaves_0.png" width="32" height="32"/>
  </tile>
  <tile id="22">
   <image source="tiled/ERW - Highlands/tilesets and props/props-sprites/pine-tree2-no leaves_1.png" width="96" height="160"/>
  </tile>
  <tile id="23">
   <image source="tiled/ERW - Highlands/tilesets and props/props-sprites/pine-tree2-no leaves_2.png" width="32" height="96"/>
  </tile>
  <tile id="24">
   <image source="tiled/ERW - Highlands/tilesets and props/props-sprites/pine-tree2-no leaves_3.png" width="32" height="32"/>
  </tile>
  <tile id="25">
   <image source="tiled/ERW - Highlands/tilesets and props/props-sprites/pine-tree2-no leaves_4.png" width="32" height="96"/>
  </tile>
  <tile id="26">
   <image source="tiled/ERW - Highlands/tilesets and props/props-sprites/pine-tree2-no leaves_5.png" width="32" height="32"/>
  </tile>
  <tile id="27">
   <image source="tiled/ERW - Highlands/tilesets and props/props-sprites/pine-tree2-no leaves_6.png" width="32" height="32"/>
  </tile>
  <tile id="28">
   <image source="tiled/ERW - Highlands/tilesets and props/props-sprites/pine-tree2-no leaves_7.png" width="96" height="160"/>
  </tile>
  <tile id="29">
   <image source="tiled/ERW - Highlands/tilesets and props/props-sprites/pine-tree2-small.png" width="96" height="128"/>
  </tile>
  <tile id="30">
   <image source="tiled/ERW - Highlands/tilesets and props/props-sprites/pine-tree2-small-snow.png" width="96" height="96"/>
  </tile>
  <tile id="31">
   <image source="tiled/ERW - Highlands/tilesets and props/props-sprites/pine-tree2-small-snow2.png" width="96" height="96"/>
  </tile>
  <tile id="32">
   <image source="tiled/ERW - Highlands/tilesets and props/props-sprites/pine-tree2-snow-no leaves_0.png" width="96" height="160"/>
  </tile>
  <tile id="33">
   <image source="tiled/ERW - Highlands/tilesets and props/props-sprites/pine-tree2-snow-no leaves_1.png" width="32" height="96"/>
  </tile>
  <tile id="34">
   <image source="tiled/ERW - Highlands/tilesets and props/props-sprites/pine-tree2-snow-no leaves_2.png" width="32" height="96"/>
  </tile>
  <tile id="35">
   <image source="tiled/ERW - Highlands/tilesets and props/props-sprites/pine-tree2-snow-no leaves_3.png" width="96" height="160"/>
  </tile>
  <tile id="36">
   <image source="tiled/ERW - Highlands/tilesets and props/props-sprites/pine-tree-big.png" width="96" height="192"/>
  </tile>
  <tile id="37">
   <image source="tiled/ERW - Highlands/tilesets and props/props-sprites/pine-tree-big-snow.png" width="96" height="192"/>
  </tile>
  <tile id="38">
   <image source="tiled/ERW - Highlands/tilesets and props/props-sprites/pine-tree-big-snow2.png" width="96" height="192"/>
  </tile>
  <tile id="39">
   <image source="tiled/ERW - Highlands/tilesets and props/props-sprites/pine-tree-medium.png" width="96" height="160"/>
  </tile>
  <tile id="40">
   <image source="tiled/ERW - Highlands/tilesets and props/props-sprites/pine-tree-medium-snow.png" width="96" height="160"/>
  </tile>
  <tile id="41">
   <image source="tiled/ERW - Highlands/tilesets and props/props-sprites/pine-tree-medium-snow2.png" width="96" height="160"/>
  </tile>
  <tile id="42">
   <image source="tiled/ERW - Highlands/tilesets and props/props-sprites/pine-tree-no leaves_0.png" width="32" height="96"/>
  </tile>
  <tile id="43">
   <image source="tiled/ERW - Highlands/tilesets and props/props-sprites/pine-tree-no leaves_1.png" width="32" height="96"/>
  </tile>
  <tile id="44">
   <image source="tiled/ERW - Highlands/tilesets and props/props-sprites/pine-tree-no leaves_2.png" width="32" height="160"/>
  </tile>
  <tile id="45">
   <image source="tiled/ERW - Highlands/tilesets and props/props-sprites/pine-tree-no leaves_3.png" width="32" height="160"/>
  </tile>
  <tile id="46">
   <image source="tiled/ERW - Highlands/tilesets and props/props-sprites/pine-tree-no leaves_4.png" width="32" height="32"/>
  </tile>
  <tile id="47">
   <image source="tiled/ERW - Highlands/tilesets and props/props-sprites/pine-tree-no leaves_5.png" width="32" height="32"/>
  </tile>
  <tile id="48">
   <image source="tiled/ERW - Highlands/tilesets and props/props-sprites/pine-tree-no leaves_6.png" width="32" height="32"/>
  </tile>
  <tile id="49">
   <image source="tiled/ERW - Highlands/tilesets and props/props-sprites/pine-tree-no leaves_7.png" width="32" height="32"/>
  </tile>
  <tile id="50">
   <image source="tiled/ERW - Highlands/tilesets and props/props-sprites/pine-tree-no leaves_8.png" width="32" height="32"/>
  </tile>
  <tile id="51">
   <image source="tiled/ERW - Highlands/tilesets and props/props-sprites/pine-tree-no leaves_9.png" width="32" height="32"/>
  </tile>
  <tile id="52">
   <image source="tiled/ERW - Highlands/tilesets and props/props-sprites/pine-tree-no leaves_10.png" width="32" height="32"/>
  </tile>
  <tile id="53">
   <image source="tiled/ERW - Highlands/tilesets and props/props-sprites/pine-tree-shadow-big.png" width="96" height="64"/>
  </tile>
  <tile id="54">
   <image source="tiled/ERW - Highlands/tilesets and props/props-sprites/pine-tree-shadow-medium.png" width="96" height="64"/>
  </tile>
  <tile id="55">
   <image source="tiled/ERW - Highlands/tilesets and props/props-sprites/pine-tree-shadow-small.png" width="96" height="32"/>
  </tile>
  <tile id="56">
   <image source="tiled/ERW - Highlands/tilesets and props/props-sprites/pine-tree-small.png" width="96" height="96"/>
  </tile>
  <tile id="57">
   <image source="tiled/ERW - Highlands/tilesets and props/props-sprites/pine-tree-small-snow.png" width="96" height="96"/>
  </tile>
  <tile id="58">
   <image source="tiled/ERW - Highlands/tilesets and props/props-sprites/pine-tree-small-snow2.png" width="96" height="96"/>
  </tile>
  <tile id="59">
   <image source="tiled/ERW - Highlands/tilesets and props/props-sprites/pine-tree-snow-no leaves_0.png" width="32" height="160"/>
  </tile>
  <tile id="60">
   <image source="tiled/ERW - Highlands/tilesets and props/props-sprites/pine-tree-snow-no leaves_1.png" width="32" height="160"/>
  </tile>
  <tile id="61">
   <image source="tiled/ERW - Highlands/tilesets and props/props-sprites/pine-tree-snow-no leaves_2.png" width="32" height="96"/>
  </tile>
  <tile id="62">
   <image source="tiled/ERW - Highlands/tilesets and props/props-sprites/pine-tree-snow-no leaves_3.png" width="32" height="96"/>
  </tile>
  <tile id="63">
   <image source="tiled/ERW - Highlands/tilesets and props/props-sprites/pine-tree-snow-no leaves_4.png" width="32" height="32"/>
  </tile>
  <tile id="64">
   <image source="tiled/ERW - Highlands/tilesets and props/props-sprites/pine-tree-snow-no leaves_5.png" width="32" height="32"/>
  </tile>
  <tile id="65">
   <image source="tiled/ERW - Highlands/tilesets and props/props-sprites/pine-tree-snow-no leaves_6.png" width="32" height="32"/>
  </tile>
  <tile id="66">
   <image source="tiled/ERW - Highlands/tilesets and props/props-sprites/pine-tree-snow-no leaves_7.png" width="32" height="32"/>
  </tile>
  <tile id="67">
   <image source="tiled/ERW - Highlands/tilesets and props/props-sprites/pine-tree-snow-no leaves_8.png" width="32" height="32"/>
  </tile>
  <tile id="68">
   <image source="tiled/ERW - Highlands/tilesets and props/props-sprites/pine-tree-snow-no leaves_9.png" width="32" height="32"/>
  </tile>
  <tile id="69">
   <image source="tiled/ERW - Highlands/tilesets and props/props-sprites/pine-tree-snow-no leaves_10.png" width="32" height="32"/>
  </tile>
  <tile id="70">
   <image source="tiled/ERW - Highlands/tilesets and props/props-sprites/pine-tree-trunk1.png" width="32" height="64"/>
  </tile>
  <tile id="71">
   <image source="tiled/ERW - Highlands/tilesets and props/props-sprites/pine-tree-trunk2.png" width="32" height="32"/>
  </tile>
  <tile id="72">
   <image source="tiled/ERW - Highlands/tilesets and props/props-sprites/pine-tree-trunk3.png" width="32" height="64"/>
  </tile>
  <tile id="73">
   <image source="tiled/ERW - Highlands/tilesets and props/props-sprites/POI1-1.png" width="96" height="96"/>
  </tile>
  <tile id="74">
   <image source="tiled/ERW - Highlands/tilesets and props/props-sprites/POI1-2.png" width="96" height="96"/>
  </tile>
  <tile id="75">
   <image source="tiled/ERW - Highlands/tilesets and props/props-sprites/POI1-3.png" width="96" height="96"/>
  </tile>
  <tile id="76">
   <image source="tiled/ERW - Highlands/tilesets and props/props-sprites/POI1-4.png" width="96" height="96"/>
  </tile>
  <tile id="77">
   <image source="tiled/ERW - Highlands/tilesets and props/props-sprites/POI1-5.png" width="160" height="128"/>
  </tile>
  <tile id="78">
   <image source="tiled/ERW - Highlands/tilesets and props/props-sprites/POI2-1.png" width="288" height="224"/>
  </tile>
  <tile id="79">
   <image source="tiled/ERW - Highlands/tilesets and props/props-sprites/POI2-2.png" width="128" height="96"/>
  </tile>
  <tile id="80">
   <image source="tiled/ERW - Highlands/tilesets and props/props-sprites/POI2-3.png" width="128" height="96"/>
  </tile>
  <tile id="81">
   <image source="tiled/ERW - Highlands/tilesets and props/props-sprites/POI3.png" width="160" height="160"/>
  </tile>
  <tile id="82">
   <image source="tiled/ERW - Highlands/tilesets and props/props-sprites/POI3-complete.png" width="352" height="288"/>
  </tile>
  <tile id="83">
   <image source="tiled/ERW - Highlands/tilesets and props/props-sprites/POI3-rocks-1.png" width="64" height="64"/>
  </tile>
  <tile id="84">
   <image source="tiled/ERW - Highlands/tilesets and props/props-sprites/POI3-rocks-2.png" width="64" height="64"/>
  </tile>
  <tile id="85">
   <image source="tiled/ERW - Highlands/tilesets and props/props-sprites/POI3-rocks-3.png" width="64" height="64"/>
  </tile>
  <tile id="86">
   <image source="tiled/ERW - Highlands/tilesets and props/props-sprites/POI3-rocks-4.png" width="64" height="64"/>
  </tile>
  <tile id="87">
   <image source="tiled/ERW - Highlands/tilesets and props/props-sprites/POI3-rocks-5.png" width="64" height="64"/>
  </tile>
  <tile id="88">
   <image source="tiled/ERW - Highlands/tilesets and props/props-sprites/POI3-rocks-6.png" width="64" height="64"/>
  </tile>
  <tile id="89">
   <image source="tiled/ERW - Highlands/tilesets and props/props-sprites/POI3-rocks-7.png" width="64" height="64"/>
  </tile>
  <tile id="90">
   <image source="tiled/ERW - Highlands/tilesets and props/props-sprites/POI3-rocks-8.png" width="64" height="64"/>
  </tile>
  <tile id="91">
   <image source="tiled/ERW - Highlands/tilesets and props/props-sprites/POI3-rocks-9.png" width="128" height="64"/>
  </tile>
  <tile id="92">
   <image source="tiled/ERW - Highlands/tilesets and props/props-sprites/rocks_0.png" width="32" height="32"/>
  </tile>
  <tile id="93">
   <image source="tiled/ERW - Highlands/tilesets and props/props-sprites/rocks_1.png" width="32" height="32"/>
  </tile>
  <tile id="94">
   <image source="tiled/ERW - Highlands/tilesets and props/props-sprites/rocks_2.png" width="32" height="32"/>
  </tile>
  <tile id="95">
   <image source="tiled/ERW - Highlands/tilesets and props/props-sprites/rocks_3.png" width="32" height="32"/>
  </tile>
  <tile id="96">
   <image source="tiled/ERW - Highlands/tilesets and props/props-sprites/rocks_4.png" width="32" height="32"/>
  </tile>
  <tile id="97">
   <image source="tiled/ERW - Highlands/tilesets and props/props-sprites/rocks_5.png" width="32" height="32"/>
  </tile>
  <tile id="98">
   <image source="tiled/ERW - Highlands/tilesets and props/props-sprites/rocks_6.png" width="32" height="32"/>
  </tile>
  <tile id="99">
   <image source="tiled/ERW - Highlands/tilesets and props/props-sprites/rocks_7.png" width="32" height="32"/>
  </tile>
  <tile id="100">
   <image source="tiled/ERW - Highlands/tilesets and props/props-sprites/rocks_8.png" width="32" height="32"/>
  </tile>
  <tile id="101">
   <image source="tiled/ERW - Highlands/tilesets and props/props-sprites/rocks_9.png" width="32" height="32"/>
  </tile>
  <tile id="102">
   <image source="tiled/ERW - Highlands/tilesets and props/props-sprites/rocks_10.png" width="32" height="32"/>
  </tile>
  <tile id="103">
   <image source="tiled/ERW - Highlands/tilesets and props/props-sprites/rocks_11.png" width="32" height="32"/>
  </tile>
  <tile id="104">
   <image source="tiled/ERW - Highlands/tilesets and props/props-sprites/rocks_12.png" width="32" height="32"/>
  </tile>
  <tile id="105">
   <image source="tiled/ERW - Highlands/tilesets and props/props-sprites/rocks_13.png" width="32" height="32"/>
  </tile>
  <tile id="106">
   <image source="tiled/ERW - Highlands/tilesets and props/props-sprites/rocks_14.png" width="32" height="32"/>
  </tile>
  <tile id="107">
   <image source="tiled/ERW - Highlands/tilesets and props/props-sprites/rocks_15.png" width="64" height="32"/>
  </tile>
  <tile id="108">
   <image source="tiled/ERW - Highlands/tilesets and props/props-sprites/rocks_16.png" width="64" height="32"/>
  </tile>
  <tile id="109">
   <image source="tiled/ERW - Highlands/tilesets and props/props-sprites/rocks-snow_0.png" width="32" height="32"/>
  </tile>
  <tile id="110">
   <image source="tiled/ERW - Highlands/tilesets and props/props-sprites/rocks-snow_1.png" width="32" height="32"/>
  </tile>
  <tile id="111">
   <image source="tiled/ERW - Highlands/tilesets and props/props-sprites/rocks-snow_2.png" width="32" height="32"/>
  </tile>
  <tile id="112">
   <image source="tiled/ERW - Highlands/tilesets and props/props-sprites/rocks-snow_3.png" width="32" height="32"/>
  </tile>
  <tile id="113">
   <image source="tiled/ERW - Highlands/tilesets and props/props-sprites/rocks-snow_4.png" width="32" height="32"/>
  </tile>
  <tile id="114">
   <image source="tiled/ERW - Highlands/tilesets and props/props-sprites/rocks-snow_5.png" width="32" height="32"/>
  </tile>
  <tile id="115">
   <image source="tiled/ERW - Highlands/tilesets and props/props-sprites/rocks-snow_6.png" width="32" height="32"/>
  </tile>
  <tile id="116">
   <image source="tiled/ERW - Highlands/tilesets and props/props-sprites/rocks-snow_7.png" width="32" height="32"/>
  </tile>
  <tile id="117">
   <image source="tiled/ERW - Highlands/tilesets and props/props-sprites/rocks-snow_8.png" width="32" height="32"/>
  </tile>
  <tile id="118">
   <image source="tiled/ERW - Highlands/tilesets and props/props-sprites/rocks-snow_9.png" width="32" height="32"/>
  </tile>
  <tile id="119">
   <image source="tiled/ERW - Highlands/tilesets and props/props-sprites/rocks-snow_10.png" width="64" height="32"/>
  </tile>
  <tile id="120">
   <image source="tiled/ERW - Highlands/tilesets and props/props-sprites/rocks-snow_11.png" width="64" height="32"/>
  </tile>
  <tile id="121">
   <image source="tiled/ERW - Highlands/tilesets and props/props-sprites/simple-fence_0.png" width="32" height="32"/>
  </tile>
  <tile id="122">
   <image source="tiled/ERW - Highlands/tilesets and props/props-sprites/simple-fence_1.png" width="32" height="32"/>
  </tile>
  <tile id="123">
   <image source="tiled/ERW - Highlands/tilesets and props/props-sprites/simple-fence_2.png" width="32" height="32"/>
  </tile>
  <tile id="124">
   <image source="tiled/ERW - Highlands/tilesets and props/props-sprites/simple-fence_3.png" width="32" height="32"/>
  </tile>
  <tile id="125">
   <image source="tiled/ERW - Highlands/tilesets and props/props-sprites/simple-fence_4.png" width="32" height="32"/>
  </tile>
  <tile id="126">
   <image source="tiled/ERW - Highlands/tilesets and props/props-sprites/simple-fence_5.png" width="32" height="32"/>
  </tile>
  <tile id="127">
   <image source="tiled/ERW - Highlands/tilesets and props/props-sprites/simple-fence_6.png" width="32" height="32"/>
  </tile>
  <tile id="128">
   <image source="tiled/ERW - Highlands/tilesets and props/props-sprites/simple-fence_7.png" width="32" height="32"/>
  </tile>
  <tile id="129">
   <image source="tiled/ERW - Highlands/tilesets and props/props-sprites/simple-fence_8.png" width="32" height="32"/>
  </tile>
  <tile id="130">
   <image source="tiled/ERW - Highlands/tilesets and props/props-sprites/simple-fence_9.png" width="32" height="32"/>
  </tile>
  <tile id="131">
   <image source="tiled/ERW - Highlands/tilesets and props/props-sprites/simple-fence_10.png" width="32" height="32"/>
  </tile>
  <tile id="132">
   <image source="tiled/ERW - Highlands/tilesets and props/props-sprites/simple-fence_11.png" width="32" height="32"/>
  </tile>
  <tile id="133">
   <image source="tiled/ERW - Highlands/tilesets and props/props-sprites/simple-fence_12.png" width="32" height="32"/>
  </tile>
  <tile id="134">
   <image source="tiled/ERW - Highlands/tilesets and props/props-sprites/simple-fence_13.png" width="32" height="32"/>
  </tile>
  <tile id="135">
   <image source="tiled/ERW - Highlands/tilesets and props/props-sprites/simple-fence_14.png" width="32" height="32"/>
  </tile>
  <tile id="136">
   <image source="tiled/ERW - Highlands/tilesets and props/props-sprites/simple-fence_15.png" width="32" height="32"/>
  </tile>
  <tile id="137">
   <image source="tiled/ERW - Highlands/tilesets and props/props-sprites/rocks-15.png" width="64" height="32"/>
  </tile>
  <tile id="138">
   <image source="tiled/ERW - Highlands/tilesets and props/props-sprites/rocks-16.png" width="64" height="32"/>
  </tile>
  <tile id="139">
   <image source="tiled/ERW - Highlands/tilesets and props/props-sprites/rocks-17.png" width="32" height="32"/>
  </tile>
  <tile id="140">
   <image source="tiled/ERW - Highlands/tilesets and props/props-sprites/rocks-18.png" width="32" height="32"/>
  </tile>
  <tile id="141">
   <image source="tiled/ERW - Highlands/tilesets and props/props-sprites/rocks-19.png" width="32" height="32"/>
  </tile>
  <tile id="142">
   <image source="tiled/ERW - Highlands/tilesets and props/props-sprites/rocks-20.png" width="32" height="32"/>
  </tile>
  <tile id="143">
   <image source="tiled/ERW - Highlands/tilesets and props/props-sprites/tall-grass_0.png" width="64" height="32"/>
  </tile>
  <tile id="144">
   <image source="tiled/ERW - Highlands/tilesets and props/props-sprites/tall-grass_1.png" width="64" height="32"/>
  </tile>
  <tile id="145">
   <image source="tiled/ERW - Highlands/tilesets and props/props-sprites/tall-grass_2.png" width="64" height="32"/>
  </tile>
  <tile id="146">
   <image source="tiled/ERW - Highlands/tilesets and props/props-sprites/tall-grass_3.png" width="64" height="32"/>
  </tile>
  <tile id="147">
   <image source="tiled/ERW - Highlands/tilesets and props/props-sprites/tall-grass_4.png" width="32" height="32"/>
  </tile>
  <tile id="148">
   <image source="tiled/ERW - Highlands/tilesets and props/props-sprites/tall-grass_5.png" width="32" height="32"/>
  </tile>
  <tile id="149">
   <image source="tiled/ERW - Highlands/tilesets and props/props-sprites/tall-grass_6.png" width="32" height="32"/>
  </tile>
  <tile id="150">
   <image source="tiled/ERW - Highlands/tilesets and props/props-sprites/tall-grass_7.png" width="32" height="32"/>
  </tile>
  <tile id="151">
   <image source="tiled/ERW - Highlands/tilesets and props/props-sprites/wooden-logs_0.png" width="32" height="64"/>
  </tile>
  <tile id="152">
   <image source="tiled/ERW - Highlands/tilesets and props/props-sprites/wooden-logs_1.png" width="32" height="64"/>
  </tile>
  <tile id="153">
   <image source="tiled/ERW - Highlands/tilesets and props/props-sprites/wooden-logs_2.png" width="32" height="64"/>
  </tile>
  <tile id="154">
   <image source="tiled/ERW - Highlands/tilesets and props/props-sprites/wooden-logs_3.png" width="32" height="64"/>
  </tile>
  <tile id="155">
   <image source="tiled/ERW - Highlands/tilesets and props/props-sprites/wooden-logs_4.png" width="96" height="64"/>
  </tile>
  <tile id="156">
   <image source="tiled/ERW - Highlands/tilesets and props/props-sprites/wooden-logs_5.png" width="96" height="64"/>
  </tile>
  <tile id="157">
   <image source="tiled/ERW - Highlands/tilesets and props/props-sprites/wooden-logs_6.png" width="96" height="64"/>
  </tile>
  <tile id="158">
   <image source="tiled/ERW - Highlands/tilesets and props/props-sprites/wooden-logs_7.png" width="96" height="64"/>
  </tile>
  <tile id="159">
   <image source="tiled/ERW - Highlands/tilesets and props/props-sprites/wooden-logs_8.png" width="96" height="32"/>
  </tile>
  <tile id="160">
   <image source="tiled/ERW - Highlands/tilesets and props/props-sprites/wooden-logs_9.png" width="96" height="32"/>
  </tile>
  <tile id="161">
   <image source="tiled/ERW - Highlands/tilesets and props/props-sprites/wooden-logs_10.png" width="96" height="32"/>
  </tile>
  <tile id="162">
   <image source="tiled/ERW - Highlands/tilesets and props/props-sprites/wooden-logs_11.png" width="96" height="32"/>
  </tile>
  <tile id="163">
   <image source="tiled/ERW - Highlands/tilesets and props/props-sprites/wooden-logs_12.png" width="96" height="32"/>
  </tile>
  <tile id="164">
   <image source="tiled/ERW - Highlands/tilesets and props/props-sprites/wooden-logs_13.png" width="96" height="32"/>
  </tile>
  <tile id="165">
   <image source="tiled/ERW - Highlands/tilesets and props/props-sprites/wooden-logs_14.png" width="96" height="32"/>
  </tile>
  <tile id="166">
   <image source="tiled/ERW - Highlands/tilesets and props/props-sprites/wooden-logs_15.png" width="96" height="32"/>
  </tile>
  <tile id="167">
   <image source="tiled/ERW - Highlands/tilesets and props/props-sprites/wooden-logs_16.png" width="96" height="32"/>
  </tile>
  <tile id="168">
   <image source="tiled/ERW - Highlands/tilesets and props/props-sprites/wooden-logs_17.png" width="96" height="32"/>
  </tile>
  <tile id="169">
   <image source="tiled/ERW - Highlands/tilesets and props/props-sprites/wooden-logs_18.png" width="96" height="32"/>
  </tile>
  <tile id="170">
   <image source="tiled/ERW - Highlands/tilesets and props/props-sprites/wooden-logs_19.png" width="96" height="32"/>
  </tile>
  <tile id="389">
   <image source="tiled/ERW - Highlands/tilesets and props/props-sprites/animated_clouds1-1.png" width="256" height="192"/>
   <animation>
    <frame tileid="389" duration="100"/>
    <frame tileid="390" duration="100"/>
    <frame tileid="391" duration="100"/>
    <frame tileid="392" duration="100"/>
    <frame tileid="393" duration="100"/>
    <frame tileid="394" duration="100"/>
    <frame tileid="395" duration="100"/>
    <frame tileid="396" duration="100"/>
    <frame tileid="397" duration="100"/>
    <frame tileid="398" duration="100"/>
    <frame tileid="399" duration="100"/>
    <frame tileid="400" duration="100"/>
    <frame tileid="401" duration="100"/>
   </animation>
  </tile>
  <tile id="390">
   <image source="tiled/ERW - Highlands/tilesets and props/props-sprites/animated_clouds1-2.png" width="256" height="192"/>
  </tile>
  <tile id="391">
   <image source="tiled/ERW - Highlands/tilesets and props/props-sprites/animated_clouds1-3.png" width="256" height="192"/>
  </tile>
  <tile id="392">
   <image source="tiled/ERW - Highlands/tilesets and props/props-sprites/animated_clouds1-4.png" width="256" height="192"/>
  </tile>
  <tile id="393">
   <image source="tiled/ERW - Highlands/tilesets and props/props-sprites/animated_clouds1-5.png" width="256" height="192"/>
  </tile>
  <tile id="394">
   <image source="tiled/ERW - Highlands/tilesets and props/props-sprites/animated_clouds1-6.png" width="256" height="192"/>
  </tile>
  <tile id="395">
   <image source="tiled/ERW - Highlands/tilesets and props/props-sprites/animated_clouds1-7.png" width="256" height="192"/>
  </tile>
  <tile id="396">
   <image source="tiled/ERW - Highlands/tilesets and props/props-sprites/animated_clouds1-8.png" width="256" height="192"/>
  </tile>
  <tile id="397">
   <image source="tiled/ERW - Highlands/tilesets and props/props-sprites/animated_clouds1-9.png" width="256" height="192"/>
  </tile>
  <tile id="398">
   <image source="tiled/ERW - Highlands/tilesets and props/props-sprites/animated_clouds1-10.png" width="256" height="192"/>
  </tile>
  <tile id="399">
   <image source="tiled/ERW - Highlands/tilesets and props/props-sprites/animated_clouds1-11.png" width="256" height="192"/>
  </tile>
  <tile id="400">
   <image source="tiled/ERW - Highlands/tilesets and props/props-sprites/animated_clouds1-12.png" width="256" height="192"/>
  </tile>
  <tile id="401">
   <image source="tiled/ERW - Highlands/tilesets and props/props-sprites/animated_clouds1-13.png" width="256" height="192"/>
  </tile>
  <tile id="402">
   <image source="tiled/ERW - Highlands/tilesets and props/props-sprites/animated_clouds2-1.png" width="256" height="192"/>
   <animation>
    <frame tileid="402" duration="100"/>
    <frame tileid="403" duration="100"/>
    <frame tileid="404" duration="100"/>
    <frame tileid="405" duration="100"/>
    <frame tileid="406" duration="100"/>
    <frame tileid="407" duration="100"/>
    <frame tileid="408" duration="100"/>
    <frame tileid="409" duration="100"/>
    <frame tileid="410" duration="100"/>
    <frame tileid="411" duration="100"/>
    <frame tileid="412" duration="100"/>
    <frame tileid="413" duration="100"/>
    <frame tileid="414" duration="100"/>
   </animation>
  </tile>
  <tile id="403">
   <image source="tiled/ERW - Highlands/tilesets and props/props-sprites/animated_clouds2-2.png" width="256" height="192"/>
  </tile>
  <tile id="404">
   <image source="tiled/ERW - Highlands/tilesets and props/props-sprites/animated_clouds2-3.png" width="256" height="192"/>
  </tile>
  <tile id="405">
   <image source="tiled/ERW - Highlands/tilesets and props/props-sprites/animated_clouds2-4.png" width="256" height="192"/>
  </tile>
  <tile id="406">
   <image source="tiled/ERW - Highlands/tilesets and props/props-sprites/animated_clouds2-5.png" width="256" height="192"/>
  </tile>
  <tile id="407">
   <image source="tiled/ERW - Highlands/tilesets and props/props-sprites/animated_clouds2-6.png" width="256" height="192"/>
  </tile>
  <tile id="408">
   <image source="tiled/ERW - Highlands/tilesets and props/props-sprites/animated_clouds2-7.png" width="256" height="192"/>
  </tile>
  <tile id="409">
   <image source="tiled/ERW - Highlands/tilesets and props/props-sprites/animated_clouds2-8.png" width="256" height="192"/>
  </tile>
  <tile id="410">
   <image source="tiled/ERW - Highlands/tilesets and props/props-sprites/animated_clouds2-9.png" width="256" height="192"/>
  </tile>
  <tile id="411">
   <image source="tiled/ERW - Highlands/tilesets and props/props-sprites/animated_clouds2-10.png" width="256" height="192"/>
  </tile>
  <tile id="412">
   <image source="tiled/ERW - Highlands/tilesets and props/props-sprites/animated_clouds2-11.png" width="256" height="192"/>
  </tile>
  <tile id="413">
   <image source="tiled/ERW - Highlands/tilesets and props/props-sprites/animated_clouds2-12.png" width="256" height="192"/>
  </tile>
  <tile id="414">
   <image source="tiled/ERW - Highlands/tilesets and props/props-sprites/animated_clouds2-13.png" width="256" height="192"/>
  </tile>
  <tile id="415">
   <image source="tiled/ERW - Highlands/tilesets and props/props-sprites/animated_clouds3-1.png" width="256" height="192"/>
   <animation>
    <frame tileid="415" duration="100"/>
    <frame tileid="416" duration="100"/>
    <frame tileid="417" duration="100"/>
    <frame tileid="418" duration="100"/>
    <frame tileid="419" duration="100"/>
    <frame tileid="420" duration="100"/>
    <frame tileid="421" duration="100"/>
    <frame tileid="422" duration="100"/>
    <frame tileid="423" duration="100"/>
    <frame tileid="424" duration="100"/>
    <frame tileid="425" duration="100"/>
    <frame tileid="426" duration="100"/>
    <frame tileid="427" duration="100"/>
   </animation>
  </tile>
  <tile id="416">
   <image source="tiled/ERW - Highlands/tilesets and props/props-sprites/animated_clouds3-2.png" width="256" height="192"/>
  </tile>
  <tile id="417">
   <image source="tiled/ERW - Highlands/tilesets and props/props-sprites/animated_clouds3-3.png" width="256" height="192"/>
  </tile>
  <tile id="418">
   <image source="tiled/ERW - Highlands/tilesets and props/props-sprites/animated_clouds3-4.png" width="256" height="192"/>
  </tile>
  <tile id="419">
   <image source="tiled/ERW - Highlands/tilesets and props/props-sprites/animated_clouds3-5.png" width="256" height="192"/>
  </tile>
  <tile id="420">
   <image source="tiled/ERW - Highlands/tilesets and props/props-sprites/animated_clouds3-6.png" width="256" height="192"/>
  </tile>
  <tile id="421">
   <image source="tiled/ERW - Highlands/tilesets and props/props-sprites/animated_clouds3-7.png" width="256" height="192"/>
  </tile>
  <tile id="422">
   <image source="tiled/ERW - Highlands/tilesets and props/props-sprites/animated_clouds3-8.png" width="256" height="192"/>
  </tile>
  <tile id="423">
   <image source="tiled/ERW - Highlands/tilesets and props/props-sprites/animated_clouds3-9.png" width="256" height="192"/>
  </tile>
  <tile id="424">
   <image source="tiled/ERW - Highlands/tilesets and props/props-sprites/animated_clouds3-10.png" width="256" height="192"/>
  </tile>
  <tile id="425">
   <image source="tiled/ERW - Highlands/tilesets and props/props-sprites/animated_clouds3-11.png" width="256" height="192"/>
  </tile>
  <tile id="426">
   <image source="tiled/ERW - Highlands/tilesets and props/props-sprites/animated_clouds3-12.png" width="256" height="192"/>
  </tile>
  <tile id="427">
   <image source="tiled/ERW - Highlands/tilesets and props/props-sprites/animated_clouds3-13.png" width="256" height="192"/>
  </tile>
  <tile id="428">
   <image source="tiled/ERW - Highlands/tilesets and props/props-sprites/animated_clouds4-1.png" width="256" height="192"/>
   <animation>
    <frame tileid="428" duration="100"/>
    <frame tileid="429" duration="100"/>
    <frame tileid="430" duration="100"/>
    <frame tileid="431" duration="100"/>
    <frame tileid="432" duration="100"/>
    <frame tileid="433" duration="100"/>
    <frame tileid="434" duration="100"/>
    <frame tileid="435" duration="100"/>
    <frame tileid="436" duration="100"/>
    <frame tileid="437" duration="100"/>
    <frame tileid="438" duration="100"/>
    <frame tileid="439" duration="100"/>
    <frame tileid="440" duration="100"/>
   </animation>
  </tile>
  <tile id="429">
   <image source="tiled/ERW - Highlands/tilesets and props/props-sprites/animated_clouds4-2.png" width="256" height="192"/>
  </tile>
  <tile id="430">
   <image source="tiled/ERW - Highlands/tilesets and props/props-sprites/animated_clouds4-3.png" width="256" height="192"/>
  </tile>
  <tile id="431">
   <image source="tiled/ERW - Highlands/tilesets and props/props-sprites/animated_clouds4-4.png" width="256" height="192"/>
  </tile>
  <tile id="432">
   <image source="tiled/ERW - Highlands/tilesets and props/props-sprites/animated_clouds4-5.png" width="256" height="192"/>
  </tile>
  <tile id="433">
   <image source="tiled/ERW - Highlands/tilesets and props/props-sprites/animated_clouds4-6.png" width="256" height="192"/>
  </tile>
  <tile id="434">
   <image source="tiled/ERW - Highlands/tilesets and props/props-sprites/animated_clouds4-7.png" width="256" height="192"/>
  </tile>
  <tile id="435">
   <image source="tiled/ERW - Highlands/tilesets and props/props-sprites/animated_clouds4-8.png" width="256" height="192"/>
  </tile>
  <tile id="436">
   <image source="tiled/ERW - Highlands/tilesets and props/props-sprites/animated_clouds4-9.png" width="256" height="192"/>
  </tile>
  <tile id="437">
   <image source="tiled/ERW - Highlands/tilesets and props/props-sprites/animated_clouds4-10.png" width="256" height="192"/>
  </tile>
  <tile id="438">
   <image source="tiled/ERW - Highlands/tilesets and props/props-sprites/animated_clouds4-11.png" width="256" height="192"/>
  </tile>
  <tile id="439">
   <image source="tiled/ERW - Highlands/tilesets and props/props-sprites/animated_clouds4-12.png" width="256" height="192"/>
  </tile>
  <tile id="440">
   <image source="tiled/ERW - Highlands/tilesets and props/props-sprites/animated_clouds4-13.png" width="256" height="192"/>
  </tile>
  <tile id="441">
   <image source="tiled/ERW - Highlands/tilesets and props/props-sprites/animated_clouds5-1.png" width="256" height="192"/>
   <animation>
    <frame tileid="441" duration="100"/>
    <frame tileid="442" duration="100"/>
    <frame tileid="443" duration="100"/>
    <frame tileid="444" duration="100"/>
    <frame tileid="445" duration="100"/>
    <frame tileid="446" duration="100"/>
    <frame tileid="447" duration="100"/>
    <frame tileid="448" duration="100"/>
    <frame tileid="449" duration="100"/>
    <frame tileid="450" duration="100"/>
    <frame tileid="451" duration="100"/>
    <frame tileid="452" duration="100"/>
    <frame tileid="453" duration="100"/>
   </animation>
  </tile>
  <tile id="442">
   <image source="tiled/ERW - Highlands/tilesets and props/props-sprites/animated_clouds5-2.png" width="256" height="192"/>
  </tile>
  <tile id="443">
   <image source="tiled/ERW - Highlands/tilesets and props/props-sprites/animated_clouds5-3.png" width="256" height="192"/>
  </tile>
  <tile id="444">
   <image source="tiled/ERW - Highlands/tilesets and props/props-sprites/animated_clouds5-4.png" width="256" height="192"/>
  </tile>
  <tile id="445">
   <image source="tiled/ERW - Highlands/tilesets and props/props-sprites/animated_clouds5-5.png" width="256" height="192"/>
  </tile>
  <tile id="446">
   <image source="tiled/ERW - Highlands/tilesets and props/props-sprites/animated_clouds5-6.png" width="256" height="192"/>
  </tile>
  <tile id="447">
   <image source="tiled/ERW - Highlands/tilesets and props/props-sprites/animated_clouds5-7.png" width="256" height="192"/>
  </tile>
  <tile id="448">
   <image source="tiled/ERW - Highlands/tilesets and props/props-sprites/animated_clouds5-8.png" width="256" height="192"/>
  </tile>
  <tile id="449">
   <image source="tiled/ERW - Highlands/tilesets and props/props-sprites/animated_clouds5-9.png" width="256" height="192"/>
  </tile>
  <tile id="450">
   <image source="tiled/ERW - Highlands/tilesets and props/props-sprites/animated_clouds5-10.png" width="256" height="192"/>
  </tile>
  <tile id="451">
   <image source="tiled/ERW - Highlands/tilesets and props/props-sprites/animated_clouds5-11.png" width="256" height="192"/>
  </tile>
  <tile id="452">
   <image source="tiled/ERW - Highlands/tilesets and props/props-sprites/animated_clouds5-12.png" width="256" height="192"/>
  </tile>
  <tile id="453">
   <image source="tiled/ERW - Highlands/tilesets and props/props-sprites/animated_clouds5-13.png" width="256" height="192"/>
  </tile>
  <tile id="454">
   <image source="tiled/ERW - Highlands/tilesets and props/props-sprites/animated_pine_tree_big-snow1-1.png" width="256" height="192"/>
   <animation>
    <frame tileid="454" duration="100"/>
    <frame tileid="455" duration="100"/>
    <frame tileid="456" duration="100"/>
    <frame tileid="457" duration="100"/>
    <frame tileid="458" duration="100"/>
    <frame tileid="459" duration="100"/>
    <frame tileid="460" duration="100"/>
    <frame tileid="461" duration="100"/>
    <frame tileid="462" duration="100"/>
    <frame tileid="463" duration="100"/>
    <frame tileid="464" duration="100"/>
    <frame tileid="465" duration="100"/>
    <frame tileid="466" duration="100"/>
    <frame tileid="467" duration="100"/>
   </animation>
  </tile>
  <tile id="455">
   <image source="tiled/ERW - Highlands/tilesets and props/props-sprites/animated_pine_tree_big-snow1-2.png" width="256" height="192"/>
  </tile>
  <tile id="456">
   <image source="tiled/ERW - Highlands/tilesets and props/props-sprites/animated_pine_tree_big-snow1-3.png" width="256" height="192"/>
  </tile>
  <tile id="457">
   <image source="tiled/ERW - Highlands/tilesets and props/props-sprites/animated_pine_tree_big-snow1-4.png" width="256" height="192"/>
  </tile>
  <tile id="458">
   <image source="tiled/ERW - Highlands/tilesets and props/props-sprites/animated_pine_tree_big-snow1-5.png" width="256" height="192"/>
  </tile>
  <tile id="459">
   <image source="tiled/ERW - Highlands/tilesets and props/props-sprites/animated_pine_tree_big-snow1-6.png" width="256" height="192"/>
  </tile>
  <tile id="460">
   <image source="tiled/ERW - Highlands/tilesets and props/props-sprites/animated_pine_tree_big-snow1-7.png" width="256" height="192"/>
  </tile>
  <tile id="461">
   <image source="tiled/ERW - Highlands/tilesets and props/props-sprites/animated_pine_tree_big-snow1-8.png" width="256" height="192"/>
  </tile>
  <tile id="462">
   <image source="tiled/ERW - Highlands/tilesets and props/props-sprites/animated_pine_tree_big-snow1-9.png" width="256" height="192"/>
  </tile>
  <tile id="463">
   <image source="tiled/ERW - Highlands/tilesets and props/props-sprites/animated_pine_tree_big-snow1-10.png" width="256" height="192"/>
  </tile>
  <tile id="464">
   <image source="tiled/ERW - Highlands/tilesets and props/props-sprites/animated_pine_tree_big-snow1-11.png" width="256" height="192"/>
  </tile>
  <tile id="465">
   <image source="tiled/ERW - Highlands/tilesets and props/props-sprites/animated_pine_tree_big-snow1-12.png" width="256" height="192"/>
  </tile>
  <tile id="466">
   <image source="tiled/ERW - Highlands/tilesets and props/props-sprites/animated_pine_tree_big-snow1-13.png" width="256" height="192"/>
  </tile>
  <tile id="467">
   <image source="tiled/ERW - Highlands/tilesets and props/props-sprites/animated_pine_tree_big-snow1-14.png" width="256" height="192"/>
  </tile>
  <tile id="468">
   <image source="tiled/ERW - Highlands/tilesets and props/props-sprites/animated_pine_tree_big-snow2-1.png" width="256" height="192"/>
   <animation>
    <frame tileid="468" duration="100"/>
    <frame tileid="469" duration="100"/>
    <frame tileid="470" duration="100"/>
    <frame tileid="471" duration="100"/>
    <frame tileid="472" duration="100"/>
    <frame tileid="473" duration="100"/>
    <frame tileid="474" duration="100"/>
    <frame tileid="475" duration="100"/>
    <frame tileid="476" duration="100"/>
    <frame tileid="477" duration="100"/>
    <frame tileid="478" duration="100"/>
    <frame tileid="479" duration="100"/>
    <frame tileid="480" duration="100"/>
    <frame tileid="481" duration="100"/>
   </animation>
  </tile>
  <tile id="469">
   <image source="tiled/ERW - Highlands/tilesets and props/props-sprites/animated_pine_tree_big-snow2-2.png" width="256" height="192"/>
  </tile>
  <tile id="470">
   <image source="tiled/ERW - Highlands/tilesets and props/props-sprites/animated_pine_tree_big-snow2-3.png" width="256" height="192"/>
  </tile>
  <tile id="471">
   <image source="tiled/ERW - Highlands/tilesets and props/props-sprites/animated_pine_tree_big-snow2-4.png" width="256" height="192"/>
  </tile>
  <tile id="472">
   <image source="tiled/ERW - Highlands/tilesets and props/props-sprites/animated_pine_tree_big-snow2-5.png" width="256" height="192"/>
  </tile>
  <tile id="473">
   <image source="tiled/ERW - Highlands/tilesets and props/props-sprites/animated_pine_tree_big-snow2-6.png" width="256" height="192"/>
  </tile>
  <tile id="474">
   <image source="tiled/ERW - Highlands/tilesets and props/props-sprites/animated_pine_tree_big-snow2-7.png" width="256" height="192"/>
  </tile>
  <tile id="475">
   <image source="tiled/ERW - Highlands/tilesets and props/props-sprites/animated_pine_tree_big-snow2-8.png" width="256" height="192"/>
  </tile>
  <tile id="476">
   <image source="tiled/ERW - Highlands/tilesets and props/props-sprites/animated_pine_tree_big-snow2-9.png" width="256" height="192"/>
  </tile>
  <tile id="477">
   <image source="tiled/ERW - Highlands/tilesets and props/props-sprites/animated_pine_tree_big-snow2-10.png" width="256" height="192"/>
  </tile>
  <tile id="478">
   <image source="tiled/ERW - Highlands/tilesets and props/props-sprites/animated_pine_tree_big-snow2-11.png" width="256" height="192"/>
  </tile>
  <tile id="479">
   <image source="tiled/ERW - Highlands/tilesets and props/props-sprites/animated_pine_tree_big-snow2-12.png" width="256" height="192"/>
  </tile>
  <tile id="480">
   <image source="tiled/ERW - Highlands/tilesets and props/props-sprites/animated_pine_tree_big-snow2-13.png" width="256" height="192"/>
  </tile>
  <tile id="481">
   <image source="tiled/ERW - Highlands/tilesets and props/props-sprites/animated_pine_tree_big-snow2-14.png" width="256" height="192"/>
  </tile>
  <tile id="482">
   <image source="tiled/ERW - Highlands/tilesets and props/props-sprites/animated_pine_tree_medium-snow1-1.png" width="256" height="192"/>
   <animation>
    <frame tileid="482" duration="100"/>
    <frame tileid="483" duration="100"/>
    <frame tileid="484" duration="100"/>
    <frame tileid="485" duration="100"/>
    <frame tileid="486" duration="100"/>
    <frame tileid="487" duration="100"/>
    <frame tileid="488" duration="100"/>
    <frame tileid="489" duration="100"/>
    <frame tileid="490" duration="100"/>
    <frame tileid="491" duration="100"/>
    <frame tileid="492" duration="100"/>
    <frame tileid="493" duration="100"/>
    <frame tileid="494" duration="100"/>
    <frame tileid="495" duration="100"/>
   </animation>
  </tile>
  <tile id="483">
   <image source="tiled/ERW - Highlands/tilesets and props/props-sprites/animated_pine_tree_medium-snow1-2.png" width="256" height="192"/>
  </tile>
  <tile id="484">
   <image source="tiled/ERW - Highlands/tilesets and props/props-sprites/animated_pine_tree_medium-snow1-3.png" width="256" height="192"/>
  </tile>
  <tile id="485">
   <image source="tiled/ERW - Highlands/tilesets and props/props-sprites/animated_pine_tree_medium-snow1-4.png" width="256" height="192"/>
  </tile>
  <tile id="486">
   <image source="tiled/ERW - Highlands/tilesets and props/props-sprites/animated_pine_tree_medium-snow1-5.png" width="256" height="192"/>
  </tile>
  <tile id="487">
   <image source="tiled/ERW - Highlands/tilesets and props/props-sprites/animated_pine_tree_medium-snow1-6.png" width="256" height="192"/>
  </tile>
  <tile id="488">
   <image source="tiled/ERW - Highlands/tilesets and props/props-sprites/animated_pine_tree_medium-snow1-7.png" width="256" height="192"/>
  </tile>
  <tile id="489">
   <image source="tiled/ERW - Highlands/tilesets and props/props-sprites/animated_pine_tree_medium-snow1-8.png" width="256" height="192"/>
  </tile>
  <tile id="490">
   <image source="tiled/ERW - Highlands/tilesets and props/props-sprites/animated_pine_tree_medium-snow1-9.png" width="256" height="192"/>
  </tile>
  <tile id="491">
   <image source="tiled/ERW - Highlands/tilesets and props/props-sprites/animated_pine_tree_medium-snow1-10.png" width="256" height="192"/>
  </tile>
  <tile id="492">
   <image source="tiled/ERW - Highlands/tilesets and props/props-sprites/animated_pine_tree_medium-snow1-11.png" width="256" height="192"/>
  </tile>
  <tile id="493">
   <image source="tiled/ERW - Highlands/tilesets and props/props-sprites/animated_pine_tree_medium-snow1-12.png" width="256" height="192"/>
  </tile>
  <tile id="494">
   <image source="tiled/ERW - Highlands/tilesets and props/props-sprites/animated_pine_tree_medium-snow1-13.png" width="256" height="192"/>
  </tile>
  <tile id="495">
   <image source="tiled/ERW - Highlands/tilesets and props/props-sprites/animated_pine_tree_medium-snow1-14.png" width="256" height="192"/>
  </tile>
  <tile id="496">
   <image source="tiled/ERW - Highlands/tilesets and props/props-sprites/animated_pine_tree_medium-snow2-1.png" width="256" height="192"/>
   <animation>
    <frame tileid="496" duration="100"/>
    <frame tileid="497" duration="100"/>
    <frame tileid="498" duration="100"/>
    <frame tileid="499" duration="100"/>
    <frame tileid="500" duration="100"/>
    <frame tileid="501" duration="100"/>
    <frame tileid="502" duration="100"/>
    <frame tileid="503" duration="100"/>
    <frame tileid="504" duration="100"/>
    <frame tileid="505" duration="100"/>
    <frame tileid="506" duration="100"/>
    <frame tileid="507" duration="100"/>
    <frame tileid="508" duration="100"/>
    <frame tileid="509" duration="100"/>
   </animation>
  </tile>
  <tile id="497">
   <image source="tiled/ERW - Highlands/tilesets and props/props-sprites/animated_pine_tree_medium-snow2-2.png" width="256" height="192"/>
  </tile>
  <tile id="498">
   <image source="tiled/ERW - Highlands/tilesets and props/props-sprites/animated_pine_tree_medium-snow2-3.png" width="256" height="192"/>
  </tile>
  <tile id="499">
   <image source="tiled/ERW - Highlands/tilesets and props/props-sprites/animated_pine_tree_medium-snow2-4.png" width="256" height="192"/>
  </tile>
  <tile id="500">
   <image source="tiled/ERW - Highlands/tilesets and props/props-sprites/animated_pine_tree_medium-snow2-5.png" width="256" height="192"/>
  </tile>
  <tile id="501">
   <image source="tiled/ERW - Highlands/tilesets and props/props-sprites/animated_pine_tree_medium-snow2-6.png" width="256" height="192"/>
  </tile>
  <tile id="502">
   <image source="tiled/ERW - Highlands/tilesets and props/props-sprites/animated_pine_tree_medium-snow2-7.png" width="256" height="192"/>
  </tile>
  <tile id="503">
   <image source="tiled/ERW - Highlands/tilesets and props/props-sprites/animated_pine_tree_medium-snow2-8.png" width="256" height="192"/>
  </tile>
  <tile id="504">
   <image source="tiled/ERW - Highlands/tilesets and props/props-sprites/animated_pine_tree_medium-snow2-9.png" width="256" height="192"/>
  </tile>
  <tile id="505">
   <image source="tiled/ERW - Highlands/tilesets and props/props-sprites/animated_pine_tree_medium-snow2-10.png" width="256" height="192"/>
  </tile>
  <tile id="506">
   <image source="tiled/ERW - Highlands/tilesets and props/props-sprites/animated_pine_tree_medium-snow2-11.png" width="256" height="192"/>
  </tile>
  <tile id="507">
   <image source="tiled/ERW - Highlands/tilesets and props/props-sprites/animated_pine_tree_medium-snow2-12.png" width="256" height="192"/>
  </tile>
  <tile id="508">
   <image source="tiled/ERW - Highlands/tilesets and props/props-sprites/animated_pine_tree_medium-snow2-13.png" width="256" height="192"/>
  </tile>
  <tile id="509">
   <image source="tiled/ERW - Highlands/tilesets and props/props-sprites/animated_pine_tree_medium-snow2-14.png" width="256" height="192"/>
  </tile>
  <tile id="510">
   <image source="tiled/ERW - Highlands/tilesets and props/props-sprites/animated_pine_tree_medium-snow2-15.png" width="256" height="192"/>
   <animation>
    <frame tileid="510" duration="100"/>
    <frame tileid="511" duration="100"/>
    <frame tileid="512" duration="100"/>
    <frame tileid="513" duration="100"/>
    <frame tileid="514" duration="100"/>
    <frame tileid="515" duration="100"/>
    <frame tileid="516" duration="100"/>
    <frame tileid="517" duration="100"/>
    <frame tileid="518" duration="100"/>
    <frame tileid="519" duration="100"/>
    <frame tileid="520" duration="100"/>
    <frame tileid="521" duration="100"/>
    <frame tileid="522" duration="100"/>
   </animation>
  </tile>
  <tile id="511">
   <image source="tiled/ERW - Highlands/tilesets and props/props-sprites/animated_pine_tree_medium-snow2-16.png" width="256" height="192"/>
  </tile>
  <tile id="512">
   <image source="tiled/ERW - Highlands/tilesets and props/props-sprites/animated_pine_tree_medium-snow2-17.png" width="256" height="192"/>
  </tile>
  <tile id="513">
   <image source="tiled/ERW - Highlands/tilesets and props/props-sprites/animated_pine_tree_medium-snow2-18.png" width="256" height="192"/>
  </tile>
  <tile id="514">
   <image source="tiled/ERW - Highlands/tilesets and props/props-sprites/animated_pine_tree_medium-snow2-19.png" width="256" height="192"/>
  </tile>
  <tile id="515">
   <image source="tiled/ERW - Highlands/tilesets and props/props-sprites/animated_pine_tree_medium-snow2-20.png" width="256" height="192"/>
  </tile>
  <tile id="516">
   <image source="tiled/ERW - Highlands/tilesets and props/props-sprites/animated_pine_tree_medium-snow2-21.png" width="256" height="192"/>
  </tile>
  <tile id="517">
   <image source="tiled/ERW - Highlands/tilesets and props/props-sprites/animated_pine_tree_medium-snow2-22.png" width="256" height="192"/>
  </tile>
  <tile id="518">
   <image source="tiled/ERW - Highlands/tilesets and props/props-sprites/animated_pine_tree_medium-snow2-23.png" width="256" height="192"/>
  </tile>
  <tile id="519">
   <image source="tiled/ERW - Highlands/tilesets and props/props-sprites/animated_pine_tree_medium-snow2-24.png" width="256" height="192"/>
  </tile>
  <tile id="520">
   <image source="tiled/ERW - Highlands/tilesets and props/props-sprites/animated_pine_tree_medium-snow2-25.png" width="256" height="192"/>
  </tile>
  <tile id="521">
   <image source="tiled/ERW - Highlands/tilesets and props/props-sprites/animated_pine_tree_medium-snow2-26.png" width="256" height="192"/>
  </tile>
  <tile id="522">
   <image source="tiled/ERW - Highlands/tilesets and props/props-sprites/animated_pine_tree_medium-snow2-27.png" width="256" height="192"/>
  </tile>
  <tile id="523">
   <image source="tiled/ERW - Highlands/tilesets and props/props-sprites/animated_pine_tree_medium-snow2-28.png" width="256" height="192"/>
  </tile>
  <tile id="524">
   <image source="tiled/ERW - Highlands/tilesets and props/props-sprites/animated_pine_tree_small-snow1-1.png" width="256" height="192"/>
   <animation>
    <frame tileid="524" duration="100"/>
    <frame tileid="525" duration="100"/>
    <frame tileid="526" duration="100"/>
    <frame tileid="527" duration="100"/>
    <frame tileid="528" duration="100"/>
    <frame tileid="529" duration="100"/>
    <frame tileid="530" duration="100"/>
    <frame tileid="531" duration="100"/>
    <frame tileid="532" duration="100"/>
    <frame tileid="533" duration="100"/>
    <frame tileid="534" duration="100"/>
    <frame tileid="535" duration="100"/>
    <frame tileid="536" duration="100"/>
   </animation>
  </tile>
  <tile id="525">
   <image source="tiled/ERW - Highlands/tilesets and props/props-sprites/animated_pine_tree_small-snow1-2.png" width="256" height="192"/>
  </tile>
  <tile id="526">
   <image source="tiled/ERW - Highlands/tilesets and props/props-sprites/animated_pine_tree_small-snow1-3.png" width="256" height="192"/>
  </tile>
  <tile id="527">
   <image source="tiled/ERW - Highlands/tilesets and props/props-sprites/animated_pine_tree_small-snow1-4.png" width="256" height="192"/>
  </tile>
  <tile id="528">
   <image source="tiled/ERW - Highlands/tilesets and props/props-sprites/animated_pine_tree_small-snow1-5.png" width="256" height="192"/>
  </tile>
  <tile id="529">
   <image source="tiled/ERW - Highlands/tilesets and props/props-sprites/animated_pine_tree_small-snow1-6.png" width="256" height="192"/>
  </tile>
  <tile id="530">
   <image source="tiled/ERW - Highlands/tilesets and props/props-sprites/animated_pine_tree_small-snow1-7.png" width="256" height="192"/>
  </tile>
  <tile id="531">
   <image source="tiled/ERW - Highlands/tilesets and props/props-sprites/animated_pine_tree_small-snow1-8.png" width="256" height="192"/>
  </tile>
  <tile id="532">
   <image source="tiled/ERW - Highlands/tilesets and props/props-sprites/animated_pine_tree_small-snow1-9.png" width="256" height="192"/>
  </tile>
  <tile id="533">
   <image source="tiled/ERW - Highlands/tilesets and props/props-sprites/animated_pine_tree_small-snow1-10.png" width="256" height="192"/>
  </tile>
  <tile id="534">
   <image source="tiled/ERW - Highlands/tilesets and props/props-sprites/animated_pine_tree_small-snow1-11.png" width="256" height="192"/>
  </tile>
  <tile id="535">
   <image source="tiled/ERW - Highlands/tilesets and props/props-sprites/animated_pine_tree_small-snow1-12.png" width="256" height="192"/>
  </tile>
  <tile id="536">
   <image source="tiled/ERW - Highlands/tilesets and props/props-sprites/animated_pine_tree_small-snow1-13.png" width="256" height="192"/>
  </tile>
  <tile id="537">
   <image source="tiled/ERW - Highlands/tilesets and props/props-sprites/animated_pine_tree_small-snow1-14.png" width="256" height="192"/>
  </tile>
  <tile id="538">
   <image source="tiled/ERW - Highlands/tilesets and props/props-sprites/animated_pine_tree_small-snow2-1.png" width="256" height="192"/>
  </tile>
  <tile id="539">
   <image source="tiled/ERW - Highlands/tilesets and props/props-sprites/animated_pine_tree_small-snow2-2.png" width="256" height="192"/>
   <animation>
    <frame tileid="538" duration="100"/>
    <frame tileid="539" duration="100"/>
    <frame tileid="540" duration="100"/>
    <frame tileid="541" duration="100"/>
    <frame tileid="542" duration="100"/>
    <frame tileid="543" duration="100"/>
    <frame tileid="544" duration="100"/>
    <frame tileid="545" duration="100"/>
    <frame tileid="546" duration="100"/>
    <frame tileid="547" duration="100"/>
    <frame tileid="548" duration="100"/>
    <frame tileid="549" duration="100"/>
    <frame tileid="550" duration="100"/>
    <frame tileid="551" duration="100"/>
   </animation>
  </tile>
  <tile id="540">
   <image source="tiled/ERW - Highlands/tilesets and props/props-sprites/animated_pine_tree_small-snow2-3.png" width="256" height="192"/>
  </tile>
  <tile id="541">
   <image source="tiled/ERW - Highlands/tilesets and props/props-sprites/animated_pine_tree_small-snow2-4.png" width="256" height="192"/>
  </tile>
  <tile id="542">
   <image source="tiled/ERW - Highlands/tilesets and props/props-sprites/animated_pine_tree_small-snow2-5.png" width="256" height="192"/>
  </tile>
  <tile id="543">
   <image source="tiled/ERW - Highlands/tilesets and props/props-sprites/animated_pine_tree_small-snow2-6.png" width="256" height="192"/>
  </tile>
  <tile id="544">
   <image source="tiled/ERW - Highlands/tilesets and props/props-sprites/animated_pine_tree_small-snow2-7.png" width="256" height="192"/>
  </tile>
  <tile id="545">
   <image source="tiled/ERW - Highlands/tilesets and props/props-sprites/animated_pine_tree_small-snow2-8.png" width="256" height="192"/>
  </tile>
  <tile id="546">
   <image source="tiled/ERW - Highlands/tilesets and props/props-sprites/animated_pine_tree_small-snow2-9.png" width="256" height="192"/>
  </tile>
  <tile id="547">
   <image source="tiled/ERW - Highlands/tilesets and props/props-sprites/animated_pine_tree_small-snow2-10.png" width="256" height="192"/>
  </tile>
  <tile id="548">
   <image source="tiled/ERW - Highlands/tilesets and props/props-sprites/animated_pine_tree_small-snow2-11.png" width="256" height="192"/>
  </tile>
  <tile id="549">
   <image source="tiled/ERW - Highlands/tilesets and props/props-sprites/animated_pine_tree_small-snow2-12.png" width="256" height="192"/>
  </tile>
  <tile id="550">
   <image source="tiled/ERW - Highlands/tilesets and props/props-sprites/animated_pine_tree_small-snow2-13.png" width="256" height="192"/>
  </tile>
  <tile id="551">
   <image source="tiled/ERW - Highlands/tilesets and props/props-sprites/animated_pine_tree_small-snow2-14.png" width="256" height="192"/>
  </tile>
  <tile id="552">
   <image source="tiled/ERW - Highlands/tilesets and props/props-sprites/fx1.png" width="224" height="192"/>
   <animation>
    <frame tileid="552" duration="100"/>
    <frame tileid="553" duration="100"/>
    <frame tileid="554" duration="100"/>
    <frame tileid="555" duration="100"/>
    <frame tileid="556" duration="100"/>
    <frame tileid="557" duration="100"/>
    <frame tileid="558" duration="100"/>
    <frame tileid="559" duration="100"/>
    <frame tileid="560" duration="100"/>
    <frame tileid="561" duration="100"/>
    <frame tileid="562" duration="100"/>
    <frame tileid="563" duration="100"/>
    <frame tileid="564" duration="100"/>
    <frame tileid="565" duration="100"/>
    <frame tileid="566" duration="100"/>
    <frame tileid="567" duration="100"/>
   </animation>
  </tile>
  <tile id="553">
   <image source="tiled/ERW - Highlands/tilesets and props/props-sprites/fx2.png" width="224" height="192"/>
  </tile>
  <tile id="554">
   <image source="tiled/ERW - Highlands/tilesets and props/props-sprites/fx3.png" width="224" height="192"/>
  </tile>
  <tile id="555">
   <image source="tiled/ERW - Highlands/tilesets and props/props-sprites/fx4.png" width="224" height="192"/>
  </tile>
  <tile id="556">
   <image source="tiled/ERW - Highlands/tilesets and props/props-sprites/fx5.png" width="224" height="192"/>
  </tile>
  <tile id="557">
   <image source="tiled/ERW - Highlands/tilesets and props/props-sprites/fx6.png" width="224" height="192"/>
  </tile>
  <tile id="558">
   <image source="tiled/ERW - Highlands/tilesets and props/props-sprites/fx7.png" width="224" height="192"/>
  </tile>
  <tile id="559">
   <image source="tiled/ERW - Highlands/tilesets and props/props-sprites/fx8.png" width="224" height="192"/>
  </tile>
  <tile id="560">
   <image source="tiled/ERW - Highlands/tilesets and props/props-sprites/fx9.png" width="224" height="192"/>
  </tile>
  <tile id="561">
   <image source="tiled/ERW - Highlands/tilesets and props/props-sprites/fx10.png" width="224" height="192"/>
  </tile>
  <tile id="562">
   <image source="tiled/ERW - Highlands/tilesets and props/props-sprites/fx11.png" width="224" height="192"/>
  </tile>
  <tile id="563">
   <image source="tiled/ERW - Highlands/tilesets and props/props-sprites/fx12.png" width="224" height="192"/>
  </tile>
  <tile id="564">
   <image source="tiled/ERW - Highlands/tilesets and props/props-sprites/fx13.png" width="224" height="192"/>
  </tile>
  <tile id="565">
   <image source="tiled/ERW - Highlands/tilesets and props/props-sprites/fx14.png" width="224" height="192"/>
  </tile>
  <tile id="566">
   <image source="tiled/ERW - Highlands/tilesets and props/props-sprites/fx15.png" width="224" height="192"/>
  </tile>
  <tile id="567">
   <image source="tiled/ERW - Highlands/tilesets and props/props-sprites/fx16.png" width="224" height="192"/>
  </tile>
  <tile id="568">
   <image source="tiled/ERW - Highlands/tilesets and props/props-sprites/magical-monument-fx1.png" width="224" height="224"/>
   <animation>
    <frame tileid="568" duration="100"/>
    <frame tileid="569" duration="100"/>
    <frame tileid="570" duration="100"/>
    <frame tileid="571" duration="100"/>
    <frame tileid="572" duration="100"/>
    <frame tileid="573" duration="100"/>
    <frame tileid="574" duration="100"/>
    <frame tileid="575" duration="100"/>
    <frame tileid="576" duration="100"/>
    <frame tileid="577" duration="100"/>
    <frame tileid="578" duration="100"/>
    <frame tileid="579" duration="100"/>
    <frame tileid="580" duration="100"/>
    <frame tileid="581" duration="100"/>
    <frame tileid="582" duration="100"/>
    <frame tileid="583" duration="100"/>
    <frame tileid="584" duration="100"/>
    <frame tileid="585" duration="100"/>
   </animation>
  </tile>
  <tile id="569">
   <image source="tiled/ERW - Highlands/tilesets and props/props-sprites/magical-monument-fx2.png" width="224" height="224"/>
  </tile>
  <tile id="570">
   <image source="tiled/ERW - Highlands/tilesets and props/props-sprites/magical-monument-fx3.png" width="224" height="224"/>
  </tile>
  <tile id="571">
   <image source="tiled/ERW - Highlands/tilesets and props/props-sprites/magical-monument-fx4.png" width="224" height="224"/>
  </tile>
  <tile id="572">
   <image source="tiled/ERW - Highlands/tilesets and props/props-sprites/magical-monument-fx5.png" width="224" height="224"/>
  </tile>
  <tile id="573">
   <image source="tiled/ERW - Highlands/tilesets and props/props-sprites/magical-monument-fx6.png" width="224" height="224"/>
  </tile>
  <tile id="574">
   <image source="tiled/ERW - Highlands/tilesets and props/props-sprites/magical-monument-fx7.png" width="224" height="224"/>
  </tile>
  <tile id="575">
   <image source="tiled/ERW - Highlands/tilesets and props/props-sprites/magical-monument-fx8.png" width="224" height="224"/>
  </tile>
  <tile id="576">
   <image source="tiled/ERW - Highlands/tilesets and props/props-sprites/magical-monument-fx9.png" width="224" height="224"/>
  </tile>
  <tile id="577">
   <image source="tiled/ERW - Highlands/tilesets and props/props-sprites/magical-monument-fx10.png" width="224" height="224"/>
  </tile>
  <tile id="578">
   <image source="tiled/ERW - Highlands/tilesets and props/props-sprites/magical-monument-fx11.png" width="224" height="224"/>
  </tile>
  <tile id="579">
   <image source="tiled/ERW - Highlands/tilesets and props/props-sprites/magical-monument-fx12.png" width="224" height="224"/>
  </tile>
  <tile id="580">
   <image source="tiled/ERW - Highlands/tilesets and props/props-sprites/magical-monument-fx13.png" width="224" height="224"/>
  </tile>
  <tile id="581">
   <image source="tiled/ERW - Highlands/tilesets and props/props-sprites/magical-monument-fx14.png" width="224" height="224"/>
  </tile>
  <tile id="582">
   <image source="tiled/ERW - Highlands/tilesets and props/props-sprites/magical-monument-fx15.png" width="224" height="224"/>
  </tile>
  <tile id="583">
   <image source="tiled/ERW - Highlands/tilesets and props/props-sprites/magical-monument-fx16.png" width="224" height="224"/>
  </tile>
  <tile id="584">
   <image source="tiled/ERW - Highlands/tilesets and props/props-sprites/magical-monument-fx17.png" width="224" height="224"/>
  </tile>
  <tile id="585">
   <image source="tiled/ERW - Highlands/tilesets and props/props-sprites/magical-monument-fx18.png" width="224" height="224"/>
  </tile>
  <tile id="586">
   <image source="tiled/ERW - Highlands/tilesets and props/props-sprites/magical-tree1.png" width="192" height="256"/>
   <animation>
    <frame tileid="586" duration="100"/>
    <frame tileid="587" duration="100"/>
    <frame tileid="588" duration="100"/>
    <frame tileid="589" duration="100"/>
    <frame tileid="590" duration="100"/>
    <frame tileid="591" duration="100"/>
    <frame tileid="592" duration="100"/>
    <frame tileid="593" duration="100"/>
    <frame tileid="594" duration="100"/>
    <frame tileid="595" duration="100"/>
    <frame tileid="596" duration="100"/>
    <frame tileid="597" duration="100"/>
    <frame tileid="598" duration="100"/>
    <frame tileid="599" duration="100"/>
    <frame tileid="600" duration="100"/>
    <frame tileid="601" duration="100"/>
   </animation>
  </tile>
  <tile id="587">
   <image source="tiled/ERW - Highlands/tilesets and props/props-sprites/magical-tree2.png" width="192" height="256"/>
  </tile>
  <tile id="588">
   <image source="tiled/ERW - Highlands/tilesets and props/props-sprites/magical-tree3.png" width="192" height="256"/>
  </tile>
  <tile id="589">
   <image source="tiled/ERW - Highlands/tilesets and props/props-sprites/magical-tree4.png" width="192" height="256"/>
  </tile>
  <tile id="590">
   <image source="tiled/ERW - Highlands/tilesets and props/props-sprites/magical-tree5.png" width="192" height="256"/>
  </tile>
  <tile id="591">
   <image source="tiled/ERW - Highlands/tilesets and props/props-sprites/magical-tree6.png" width="192" height="256"/>
  </tile>
  <tile id="592">
   <image source="tiled/ERW - Highlands/tilesets and props/props-sprites/magical-tree7.png" width="192" height="256"/>
  </tile>
  <tile id="593">
   <image source="tiled/ERW - Highlands/tilesets and props/props-sprites/magical-tree8.png" width="192" height="256"/>
  </tile>
  <tile id="594">
   <image source="tiled/ERW - Highlands/tilesets and props/props-sprites/magical-tree9.png" width="192" height="256"/>
  </tile>
  <tile id="595">
   <image source="tiled/ERW - Highlands/tilesets and props/props-sprites/magical-tree10.png" width="192" height="256"/>
  </tile>
  <tile id="596">
   <image source="tiled/ERW - Highlands/tilesets and props/props-sprites/magical-tree11.png" width="192" height="256"/>
  </tile>
  <tile id="597">
   <image source="tiled/ERW - Highlands/tilesets and props/props-sprites/magical-tree12.png" width="192" height="256"/>
  </tile>
  <tile id="598">
   <image source="tiled/ERW - Highlands/tilesets and props/props-sprites/magical-tree13.png" width="192" height="256"/>
  </tile>
  <tile id="599">
   <image source="tiled/ERW - Highlands/tilesets and props/props-sprites/magical-tree14.png" width="192" height="256"/>
  </tile>
  <tile id="600">
   <image source="tiled/ERW - Highlands/tilesets and props/props-sprites/magical-tree15.png" width="192" height="256"/>
  </tile>
  <tile id="601">
   <image source="tiled/ERW - Highlands/tilesets and props/props-sprites/magical-tree16.png" width="192" height="256"/>
  </tile>
 </tileset>
 <tileset firstgid="4699" name="Tilesets-GL2SA" tilewidth="32" tileheight="32" tilecount="704" columns="32">
  <image source="tiled/ERW-Sea Adventures-GL2 Expansion/Tilesets/tilesets.png" width="1024" height="704"/>
  <tile id="0" probability="0"/>
  <tile id="1" probability="0"/>
  <tile id="2" probability="0"/>
  <tile id="3" probability="0"/>
  <tile id="4" probability="0"/>
  <tile id="5" probability="0"/>
  <tile id="6" probability="0"/>
  <tile id="7" probability="0"/>
  <tile id="8" probability="0"/>
  <tile id="9" probability="0"/>
  <tile id="10" probability="0"/>
  <tile id="11" probability="0"/>
  <tile id="12" probability="0"/>
  <tile id="13" probability="0"/>
  <tile id="14" probability="0"/>
  <tile id="15" probability="0"/>
  <tile id="16" probability="0"/>
  <tile id="17">
   <animation>
    <frame tileid="17" duration="100"/>
    <frame tileid="18" duration="100"/>
    <frame tileid="19" duration="100"/>
    <frame tileid="20" duration="100"/>
    <frame tileid="21" duration="100"/>
    <frame tileid="22" duration="100"/>
    <frame tileid="23" duration="100"/>
    <frame tileid="24" duration="100"/>
   </animation>
  </tile>
  <tile id="32" probability="0"/>
  <tile id="33" probability="0"/>
  <tile id="34" probability="0"/>
  <tile id="38" probability="0"/>
  <tile id="39" probability="0"/>
  <tile id="40" probability="0"/>
  <tile id="41" probability="0"/>
  <tile id="42" probability="0"/>
  <tile id="43" probability="0"/>
  <tile id="44" probability="0"/>
  <tile id="45" probability="0"/>
  <tile id="46" probability="0"/>
  <tile id="47" probability="0"/>
  <tile id="48" probability="0"/>
  <tile id="64" probability="0"/>
  <tile id="65" probability="0"/>
  <tile id="66" probability="0"/>
  <tile id="68" probability="0"/>
  <tile id="70" probability="0"/>
  <tile id="71" probability="0"/>
  <tile id="72" probability="0"/>
  <tile id="73" probability="0"/>
  <tile id="74" probability="0"/>
  <tile id="75" probability="0"/>
  <tile id="76" probability="0"/>
  <tile id="77" probability="0"/>
  <tile id="78" probability="0"/>
  <tile id="79" probability="0"/>
  <tile id="80" probability="0"/>
  <tile id="96" probability="0"/>
  <tile id="97" probability="0"/>
  <tile id="98" probability="0"/>
  <tile id="100" probability="0"/>
  <tile id="102" probability="0"/>
  <tile id="103" probability="0"/>
  <tile id="104" probability="0"/>
  <tile id="105" probability="0"/>
  <tile id="106" probability="0"/>
  <tile id="107" probability="0"/>
  <tile id="108" probability="0"/>
  <tile id="109" probability="0"/>
  <tile id="110" probability="0"/>
  <tile id="111" probability="0"/>
  <tile id="112" probability="0"/>
  <tile id="128" probability="0"/>
  <tile id="129" probability="0"/>
  <tile id="130" probability="0"/>
  <tile id="131" probability="0"/>
  <tile id="133" probability="0"/>
  <tile id="134" probability="0"/>
  <tile id="135" probability="0"/>
  <tile id="136" probability="0"/>
  <tile id="137" probability="0"/>
  <tile id="138" probability="0"/>
  <tile id="139" probability="0"/>
  <tile id="140" probability="0"/>
  <tile id="141" probability="0"/>
  <tile id="142" probability="0"/>
  <tile id="143" probability="0"/>
  <tile id="144" probability="0"/>
  <tile id="160" probability="0"/>
  <tile id="161" probability="0"/>
  <tile id="162" probability="0"/>
  <tile id="164" probability="0"/>
  <tile id="166" probability="0"/>
  <tile id="167" probability="0"/>
  <tile id="168" probability="0"/>
  <tile id="169" probability="0"/>
  <tile id="170" probability="0"/>
  <tile id="171" probability="0"/>
  <tile id="172" probability="0"/>
  <tile id="173" probability="0"/>
  <tile id="174" probability="0"/>
  <tile id="175" probability="0"/>
  <tile id="176" probability="0"/>
  <tile id="192" probability="0"/>
  <tile id="193" probability="0"/>
  <tile id="194" probability="0"/>
  <tile id="195" probability="0"/>
  <tile id="196" probability="0"/>
  <tile id="197" probability="0"/>
  <tile id="198" probability="0"/>
  <tile id="199" probability="0"/>
  <tile id="200" probability="0"/>
  <tile id="201" probability="0"/>
  <tile id="202" probability="0"/>
  <tile id="203" probability="0"/>
  <tile id="204" probability="0"/>
  <tile id="205" probability="0"/>
  <tile id="206" probability="0"/>
  <tile id="207" probability="0"/>
  <tile id="208" probability="0"/>
  <tile id="209" probability="0"/>
  <tile id="224" probability="0"/>
  <tile id="225" probability="0"/>
  <tile id="226" probability="0"/>
  <tile id="230" probability="0"/>
  <tile id="231" probability="0"/>
  <tile id="232" probability="0"/>
  <tile id="233" probability="0"/>
  <tile id="234" probability="0"/>
  <tile id="235" probability="0"/>
  <tile id="236" probability="0"/>
  <tile id="237" probability="0"/>
  <tile id="238" probability="0"/>
  <tile id="239" probability="0"/>
  <tile id="240" probability="0"/>
  <tile id="241" probability="0"/>
  <tile id="256" probability="0"/>
  <tile id="257" probability="0"/>
  <tile id="258" probability="0"/>
  <tile id="259" probability="0"/>
  <tile id="260" probability="0"/>
  <tile id="261" probability="0"/>
  <tile id="262" probability="0"/>
  <tile id="263" probability="0"/>
  <tile id="264" probability="0"/>
  <tile id="265" probability="0"/>
  <tile id="266" probability="0"/>
  <tile id="267" probability="0"/>
  <tile id="268" probability="0"/>
  <tile id="269" probability="0"/>
  <tile id="270" probability="0"/>
  <tile id="271" probability="0"/>
  <tile id="272" probability="0"/>
  <tile id="288" probability="0"/>
  <tile id="289" probability="0"/>
  <tile id="290" probability="0"/>
  <tile id="291" probability="0"/>
  <tile id="292" probability="0"/>
  <tile id="293" probability="0"/>
  <tile id="294" probability="0"/>
  <tile id="295" probability="0"/>
  <tile id="296" probability="0"/>
  <wangsets>
   <wangset name="dock (press CTRL while using Terrain Brush(T) to get a 3x3 brush.Automapping needs a 3x3 tiles to work properly)" type="corner" tile="36">
    <wangcolor name="" color="#ff0000" tile="36" probability="1"/>
    <wangcolor name="" color="#00ff00" tile="-1" probability="1"/>
    <wangtile tileid="4" wangid="0,0,0,1,0,1,0,0"/>
    <wangtile tileid="12" wangid="0,1,0,1,0,1,0,0"/>
    <wangtile tileid="13" wangid="0,0,0,1,0,1,0,1"/>
    <wangtile tileid="14" wangid="0,0,0,1,0,0,0,0"/>
    <wangtile tileid="16" wangid="0,0,0,0,0,1,0,0"/>
    <wangtile tileid="35" wangid="0,0,0,1,0,0,0,0"/>
    <wangtile tileid="36" wangid="0,0,0,1,0,1,0,0"/>
    <wangtile tileid="37" wangid="0,0,0,0,0,1,0,0"/>
    <wangtile tileid="41" wangid="0,0,0,1,0,0,0,0"/>
    <wangtile tileid="42" wangid="0,0,0,1,0,1,0,0"/>
    <wangtile tileid="43" wangid="0,0,0,0,0,1,0,0"/>
    <wangtile tileid="44" wangid="0,1,0,1,0,0,0,1"/>
    <wangtile tileid="45" wangid="0,1,0,0,0,1,0,1"/>
    <wangtile tileid="46" wangid="0,0,0,1,0,0,0,0"/>
    <wangtile tileid="47" wangid="0,0,0,1,0,1,0,0"/>
    <wangtile tileid="48" wangid="0,0,0,0,0,1,0,0"/>
    <wangtile tileid="64" wangid="0,1,0,1,0,0,0,0"/>
    <wangtile tileid="67" wangid="0,1,0,1,0,0,0,0"/>
    <wangtile tileid="68" wangid="0,1,0,1,0,1,0,1"/>
    <wangtile tileid="69" wangid="0,0,0,0,0,1,0,1"/>
    <wangtile tileid="72" wangid="0,0,0,0,0,1,0,1"/>
    <wangtile tileid="73" wangid="0,1,0,1,0,0,0,0"/>
    <wangtile tileid="74" wangid="0,1,0,1,0,1,0,1"/>
    <wangtile tileid="75" wangid="0,0,0,0,0,1,0,1"/>
    <wangtile tileid="76" wangid="0,0,0,1,0,1,0,0"/>
    <wangtile tileid="77" wangid="0,0,0,1,0,1,0,0"/>
    <wangtile tileid="78" wangid="0,1,0,0,0,0,0,0"/>
    <wangtile tileid="79" wangid="0,1,0,0,0,0,0,1"/>
    <wangtile tileid="80" wangid="0,0,0,0,0,0,0,1"/>
    <wangtile tileid="96" wangid="0,0,0,1,0,0,0,0"/>
    <wangtile tileid="97" wangid="0,0,0,1,0,1,0,0"/>
    <wangtile tileid="98" wangid="0,0,0,1,0,1,0,0"/>
    <wangtile tileid="99" wangid="0,1,0,1,0,1,0,0"/>
    <wangtile tileid="100" wangid="0,1,0,1,0,1,0,1"/>
    <wangtile tileid="101" wangid="0,0,0,1,0,1,0,1"/>
    <wangtile tileid="102" wangid="0,0,0,1,0,1,0,0"/>
    <wangtile tileid="103" wangid="0,0,0,1,0,1,0,0"/>
    <wangtile tileid="104" wangid="0,0,0,0,0,1,0,0"/>
    <wangtile tileid="105" wangid="0,1,0,0,0,0,0,0"/>
    <wangtile tileid="106" wangid="0,1,0,0,0,0,0,1"/>
    <wangtile tileid="107" wangid="0,0,0,0,0,0,0,1"/>
    <wangtile tileid="108" wangid="0,1,0,0,0,0,0,1"/>
    <wangtile tileid="109" wangid="0,1,0,0,0,0,0,1"/>
    <wangtile tileid="128" wangid="0,1,0,1,0,0,0,0"/>
    <wangtile tileid="129" wangid="0,1,0,1,0,1,0,1"/>
    <wangtile tileid="130" wangid="0,1,0,1,0,1,0,1"/>
    <wangtile tileid="131" wangid="0,1,0,1,0,1,0,1"/>
    <wangtile tileid="132" wangid="0,1,0,1,0,1,0,1"/>
    <wangtile tileid="133" wangid="0,1,0,1,0,1,0,1"/>
    <wangtile tileid="134" wangid="0,1,0,1,0,1,0,1"/>
    <wangtile tileid="135" wangid="0,1,0,1,0,1,0,1"/>
    <wangtile tileid="136" wangid="0,0,0,0,0,1,0,1"/>
    <wangtile tileid="137" wangid="0,0,0,1,0,0,0,0"/>
    <wangtile tileid="138" wangid="0,0,0,0,0,1,0,0"/>
    <wangtile tileid="139" wangid="0,1,0,1,0,0,0,0"/>
    <wangtile tileid="140" wangid="0,1,0,1,0,0,0,0"/>
    <wangtile tileid="141" wangid="0,0,0,0,0,1,0,1"/>
    <wangtile tileid="142" wangid="0,0,0,0,0,1,0,1"/>
    <wangtile tileid="160" wangid="0,1,0,0,0,0,0,0"/>
    <wangtile tileid="161" wangid="0,1,0,0,0,0,0,1"/>
    <wangtile tileid="162" wangid="0,1,0,0,0,0,0,1"/>
    <wangtile tileid="163" wangid="0,1,0,1,0,0,0,1"/>
    <wangtile tileid="164" wangid="0,1,0,1,0,1,0,1"/>
    <wangtile tileid="165" wangid="0,1,0,0,0,1,0,1"/>
    <wangtile tileid="166" wangid="0,1,0,0,0,0,0,1"/>
    <wangtile tileid="167" wangid="0,1,0,0,0,0,0,1"/>
    <wangtile tileid="168" wangid="0,0,0,0,0,0,0,1"/>
    <wangtile tileid="169" wangid="0,1,0,0,0,0,0,0"/>
    <wangtile tileid="170" wangid="0,0,0,0,0,0,0,1"/>
    <wangtile tileid="171" wangid="0,1,0,1,0,1,0,0"/>
    <wangtile tileid="172" wangid="0,0,0,1,0,1,0,1"/>
    <wangtile tileid="173" wangid="0,0,0,1,0,1,0,0"/>
    <wangtile tileid="174" wangid="0,1,0,0,0,0,0,1"/>
    <wangtile tileid="192" wangid="0,1,0,1,0,1,0,1"/>
    <wangtile tileid="193" wangid="0,1,0,1,0,1,0,1"/>
    <wangtile tileid="194" wangid="0,1,0,1,0,1,0,1"/>
    <wangtile tileid="195" wangid="0,1,0,1,0,0,0,0"/>
    <wangtile tileid="196" wangid="0,1,0,1,0,1,0,1"/>
    <wangtile tileid="197" wangid="0,0,0,0,0,1,0,1"/>
    <wangtile tileid="201" wangid="0,0,0,1,0,0,0,0"/>
    <wangtile tileid="202" wangid="0,0,0,0,0,1,0,0"/>
    <wangtile tileid="203" wangid="0,1,0,1,0,0,0,1"/>
    <wangtile tileid="204" wangid="0,1,0,0,0,1,0,1"/>
    <wangtile tileid="206" wangid="0,0,0,1,0,0,0,0"/>
    <wangtile tileid="207" wangid="0,0,0,1,0,1,0,0"/>
    <wangtile tileid="208" wangid="0,0,0,0,0,1,0,0"/>
    <wangtile tileid="209" wangid="0,0,0,1,0,1,0,0"/>
    <wangtile tileid="224" wangid="0,1,0,1,0,1,0,1"/>
    <wangtile tileid="227" wangid="0,1,0,0,0,0,0,0"/>
    <wangtile tileid="228" wangid="0,1,0,0,0,0,0,1"/>
    <wangtile tileid="229" wangid="0,0,0,0,0,0,0,1"/>
    <wangtile tileid="233" wangid="0,1,0,1,0,0,0,0"/>
    <wangtile tileid="234" wangid="0,0,0,0,0,1,0,1"/>
    <wangtile tileid="235" wangid="0,0,0,1,0,1,0,0"/>
    <wangtile tileid="236" wangid="0,0,0,1,0,1,0,0"/>
    <wangtile tileid="237" wangid="0,0,0,1,0,1,0,0"/>
    <wangtile tileid="238" wangid="0,1,0,0,0,0,0,0"/>
    <wangtile tileid="239" wangid="0,1,0,0,0,0,0,1"/>
    <wangtile tileid="240" wangid="0,0,0,0,0,0,0,1"/>
    <wangtile tileid="241" wangid="0,1,0,0,0,0,0,1"/>
    <wangtile tileid="256" wangid="0,1,0,1,0,1,0,1"/>
    <wangtile tileid="257" wangid="0,1,0,1,0,1,0,1"/>
    <wangtile tileid="258" wangid="0,1,0,1,0,1,0,1"/>
    <wangtile tileid="259" wangid="0,1,0,1,0,1,0,1"/>
    <wangtile tileid="260" wangid="0,1,0,0,0,0,0,1"/>
    <wangtile tileid="265" wangid="0,1,0,0,0,0,0,0"/>
    <wangtile tileid="266" wangid="0,0,0,0,0,0,0,1"/>
    <wangtile tileid="267" wangid="0,1,0,0,0,0,0,1"/>
    <wangtile tileid="268" wangid="0,1,0,0,0,0,0,1"/>
    <wangtile tileid="269" wangid="0,1,0,0,0,0,0,1"/>
    <wangtile tileid="270" wangid="0,1,0,1,0,0,0,0"/>
    <wangtile tileid="271" wangid="0,0,0,0,0,1,0,1"/>
   </wangset>
   <wangset name="stone floor" type="corner" tile="212">
    <wangcolor name="" color="#ff0000" tile="212" probability="1"/>
    <wangtile tileid="50" wangid="0,0,0,1,0,0,0,0"/>
    <wangtile tileid="51" wangid="0,0,0,1,0,1,0,0"/>
    <wangtile tileid="52" wangid="0,0,0,1,0,1,0,0"/>
    <wangtile tileid="53" wangid="0,0,0,1,0,1,0,0"/>
    <wangtile tileid="54" wangid="0,0,0,1,0,1,0,0"/>
    <wangtile tileid="55" wangid="0,0,0,1,0,1,0,0"/>
    <wangtile tileid="56" wangid="0,0,0,1,0,1,0,0"/>
    <wangtile tileid="57" wangid="0,0,0,0,0,1,0,0"/>
    <wangtile tileid="81" wangid="0,0,0,1,0,0,0,0"/>
    <wangtile tileid="82" wangid="0,1,0,1,0,1,0,0"/>
    <wangtile tileid="83" wangid="0,1,0,1,0,1,0,1"/>
    <wangtile tileid="84" wangid="0,1,0,1,0,1,0,1"/>
    <wangtile tileid="85" wangid="0,1,0,1,0,1,0,1"/>
    <wangtile tileid="86" wangid="0,1,0,1,0,1,0,1"/>
    <wangtile tileid="87" wangid="0,1,0,1,0,1,0,1"/>
    <wangtile tileid="88" wangid="0,1,0,1,0,1,0,1"/>
    <wangtile tileid="89" wangid="0,0,0,1,0,1,0,1"/>
    <wangtile tileid="90" wangid="0,0,0,0,0,1,0,0"/>
    <wangtile tileid="113" wangid="0,1,0,1,0,0,0,0"/>
    <wangtile tileid="114" wangid="0,1,0,1,0,1,0,1"/>
    <wangtile tileid="115" wangid="0,1,0,1,0,1,0,1"/>
    <wangtile tileid="116" wangid="0,1,0,1,0,1,0,1"/>
    <wangtile tileid="117" wangid="0,1,0,1,0,1,0,1"/>
    <wangtile tileid="118" wangid="0,1,0,1,0,1,0,1"/>
    <wangtile tileid="119" wangid="0,1,0,1,0,1,0,1"/>
    <wangtile tileid="120" wangid="0,1,0,1,0,1,0,1"/>
    <wangtile tileid="121" wangid="0,1,0,1,0,1,0,1"/>
    <wangtile tileid="122" wangid="0,0,0,0,0,1,0,1"/>
    <wangtile tileid="145" wangid="0,1,0,1,0,0,0,0"/>
    <wangtile tileid="146" wangid="0,1,0,1,0,1,0,1"/>
    <wangtile tileid="147" wangid="0,1,0,1,0,1,0,1"/>
    <wangtile tileid="148" wangid="0,1,0,1,0,1,0,1"/>
    <wangtile tileid="149" wangid="0,1,0,1,0,1,0,1"/>
    <wangtile tileid="150" wangid="0,1,0,1,0,1,0,1"/>
    <wangtile tileid="151" wangid="0,1,0,1,0,1,0,1"/>
    <wangtile tileid="152" wangid="0,1,0,1,0,1,0,1"/>
    <wangtile tileid="153" wangid="0,1,0,1,0,1,0,1"/>
    <wangtile tileid="154" wangid="0,0,0,0,0,1,0,1"/>
    <wangtile tileid="210" wangid="0,1,0,0,0,1,0,0"/>
    <wangtile tileid="211" wangid="0,0,0,1,0,0,0,0"/>
    <wangtile tileid="212" wangid="0,0,0,1,0,1,0,0"/>
    <wangtile tileid="213" wangid="0,0,0,0,0,1,0,0"/>
    <wangtile tileid="214" wangid="0,0,0,1,0,0,0,1"/>
    <wangtile tileid="242" wangid="0,0,0,1,0,0,0,0"/>
    <wangtile tileid="243" wangid="0,1,0,1,0,1,0,0"/>
    <wangtile tileid="244" wangid="0,1,0,1,0,1,0,1"/>
    <wangtile tileid="245" wangid="0,0,0,1,0,1,0,1"/>
    <wangtile tileid="246" wangid="0,0,0,0,0,1,0,0"/>
    <wangtile tileid="274" wangid="0,1,0,1,0,0,0,0"/>
    <wangtile tileid="275" wangid="0,1,0,1,0,1,0,1"/>
    <wangtile tileid="276" wangid="0,1,0,1,0,1,0,1"/>
    <wangtile tileid="277" wangid="0,1,0,1,0,1,0,1"/>
    <wangtile tileid="278" wangid="0,0,0,0,0,1,0,1"/>
    <wangtile tileid="306" wangid="0,1,0,0,0,0,0,0"/>
    <wangtile tileid="307" wangid="0,1,0,1,0,0,0,1"/>
    <wangtile tileid="308" wangid="0,1,0,1,0,1,0,1"/>
    <wangtile tileid="309" wangid="0,1,0,0,0,1,0,1"/>
    <wangtile tileid="310" wangid="0,0,0,0,0,0,0,1"/>
    <wangtile tileid="339" wangid="0,1,0,0,0,0,0,0"/>
    <wangtile tileid="340" wangid="0,1,0,0,0,0,0,1"/>
    <wangtile tileid="341" wangid="0,0,0,0,0,0,0,1"/>
   </wangset>
   <wangset name="grass to sand" type="corner" tile="218">
    <wangcolor name="" color="#ff0000" tile="218" probability="1"/>
    <wangtile tileid="216" wangid="0,1,0,0,0,1,0,0"/>
    <wangtile tileid="217" wangid="0,0,0,1,0,0,0,0"/>
    <wangtile tileid="218" wangid="0,0,0,1,0,1,0,0"/>
    <wangtile tileid="219" wangid="0,0,0,0,0,1,0,0"/>
    <wangtile tileid="220" wangid="0,0,0,1,0,0,0,1"/>
    <wangtile tileid="248" wangid="0,0,0,1,0,0,0,0"/>
    <wangtile tileid="249" wangid="0,1,0,1,0,1,0,0"/>
    <wangtile tileid="250" wangid="0,1,0,1,0,1,0,1"/>
    <wangtile tileid="251" wangid="0,0,0,1,0,1,0,1"/>
    <wangtile tileid="252" wangid="0,0,0,0,0,1,0,0"/>
    <wangtile tileid="280" wangid="0,1,0,1,0,0,0,0"/>
    <wangtile tileid="281" wangid="0,1,0,1,0,1,0,1"/>
    <wangtile tileid="282" wangid="0,1,0,1,0,1,0,1"/>
    <wangtile tileid="283" wangid="0,1,0,1,0,1,0,1"/>
    <wangtile tileid="284" wangid="0,0,0,0,0,1,0,1"/>
    <wangtile tileid="312" wangid="0,1,0,0,0,0,0,0"/>
    <wangtile tileid="313" wangid="0,1,0,1,0,0,0,1"/>
    <wangtile tileid="314" wangid="0,1,0,1,0,1,0,1"/>
    <wangtile tileid="315" wangid="0,1,0,0,0,1,0,1"/>
    <wangtile tileid="316" wangid="0,0,0,0,0,0,0,1"/>
    <wangtile tileid="344" wangid="0,1,0,1,0,1,0,0"/>
    <wangtile tileid="345" wangid="0,1,0,0,0,0,0,0"/>
    <wangtile tileid="346" wangid="0,1,0,0,0,0,0,1"/>
    <wangtile tileid="347" wangid="0,0,0,0,0,0,0,1"/>
    <wangtile tileid="348" wangid="0,0,0,1,0,1,0,1"/>
    <wangtile tileid="376" wangid="0,1,0,1,0,0,0,1"/>
    <wangtile tileid="378" wangid="0,1,0,1,0,0,0,0"/>
    <wangtile tileid="379" wangid="0,0,0,0,0,1,0,1"/>
    <wangtile tileid="380" wangid="0,1,0,0,0,1,0,1"/>
    <wangtile tileid="408" wangid="0,1,0,0,0,0,0,0"/>
    <wangtile tileid="409" wangid="0,0,0,0,0,0,0,1"/>
    <wangtile tileid="410" wangid="0,1,0,1,0,0,0,0"/>
    <wangtile tileid="411" wangid="0,0,0,0,0,1,0,1"/>
    <wangtile tileid="440" wangid="0,1,0,0,0,0,0,0"/>
    <wangtile tileid="441" wangid="0,0,0,0,0,0,0,1"/>
    <wangtile tileid="442" wangid="0,1,0,1,0,0,0,0"/>
    <wangtile tileid="443" wangid="0,0,0,0,0,1,0,1"/>
    <wangtile tileid="472" wangid="0,1,0,0,0,0,0,1"/>
    <wangtile tileid="473" wangid="0,1,0,0,0,0,0,1"/>
    <wangtile tileid="474" wangid="0,0,0,1,0,1,0,0"/>
    <wangtile tileid="475" wangid="0,0,0,1,0,1,0,0"/>
    <wangtile tileid="476" wangid="0,0,0,1,0,1,0,0"/>
   </wangset>
  </wangsets>
 </tileset>
 <tileset firstgid="5403" name="Atlas-Props-Sprites" tilewidth="448" tileheight="320" tilecount="748" columns="0">
  <grid orientation="orthogonal" width="1" height="1"/>
  <tile id="1449">
   <image source="tiled/ERW-Grass Land/Props/Atlas-Props-individual sprites/barrels_0.png" width="32" height="32"/>
  </tile>
  <tile id="1450">
   <image source="tiled/ERW-Grass Land/Props/Atlas-Props-individual sprites/barrels_1.png" width="32" height="32"/>
  </tile>
  <tile id="1451">
   <image source="tiled/ERW-Grass Land/Props/Atlas-Props-individual sprites/barrels_2.png" width="32" height="32"/>
  </tile>
  <tile id="1452">
   <image source="tiled/ERW-Grass Land/Props/Atlas-Props-individual sprites/barrels_3.png" width="32" height="32"/>
  </tile>
  <tile id="1453">
   <image source="tiled/ERW-Grass Land/Props/Atlas-Props-individual sprites/barrels_4.png" width="32" height="32"/>
  </tile>
  <tile id="1454">
   <image source="tiled/ERW-Grass Land/Props/Atlas-Props-individual sprites/barrels_5.png" width="32" height="32"/>
  </tile>
  <tile id="1455">
   <image source="tiled/ERW-Grass Land/Props/Atlas-Props-individual sprites/barrels_6.png" width="32" height="32"/>
  </tile>
  <tile id="1456">
   <image source="tiled/ERW-Grass Land/Props/Atlas-Props-individual sprites/barrels_7.png" width="32" height="32"/>
  </tile>
  <tile id="1457">
   <image source="tiled/ERW-Grass Land/Props/Atlas-Props-individual sprites/barrels_8.png" width="32" height="32"/>
  </tile>
  <tile id="1458">
   <image source="tiled/ERW-Grass Land/Props/Atlas-Props-individual sprites/barrels_9.png" width="32" height="32"/>
  </tile>
  <tile id="1459">
   <image source="tiled/ERW-Grass Land/Props/Atlas-Props-individual sprites/barrels_10.png" width="32" height="32"/>
  </tile>
  <tile id="1460">
   <image source="tiled/ERW-Grass Land/Props/Atlas-Props-individual sprites/barrels_11.png" width="32" height="32"/>
  </tile>
  <tile id="1461">
   <image source="tiled/ERW-Grass Land/Props/Atlas-Props-individual sprites/barrels_12.png" width="32" height="32"/>
  </tile>
  <tile id="1462">
   <image source="tiled/ERW-Grass Land/Props/Atlas-Props-individual sprites/barrels_13.png" width="32" height="32"/>
  </tile>
  <tile id="1463">
   <image source="tiled/ERW-Grass Land/Props/Atlas-Props-individual sprites/barrels_14.png" width="32" height="32"/>
  </tile>
  <tile id="1464">
   <image source="tiled/ERW-Grass Land/Props/Atlas-Props-individual sprites/barrels_15.png" width="32" height="32"/>
  </tile>
  <tile id="1465">
   <image source="tiled/ERW-Grass Land/Props/Atlas-Props-individual sprites/blacksmith as a simple house.png" width="160" height="288"/>
  </tile>
  <tile id="1466">
   <image source="tiled/ERW-Grass Land/Props/Atlas-Props-individual sprites/blacksmith props_0.png" width="32" height="32"/>
  </tile>
  <tile id="1467">
   <image source="tiled/ERW-Grass Land/Props/Atlas-Props-individual sprites/blacksmith props_1.png" width="32" height="32"/>
  </tile>
  <tile id="1468">
   <image source="tiled/ERW-Grass Land/Props/Atlas-Props-individual sprites/blacksmith props_2.png" width="32" height="32"/>
  </tile>
  <tile id="1469">
   <image source="tiled/ERW-Grass Land/Props/Atlas-Props-individual sprites/blacksmith props_3.png" width="32" height="32"/>
  </tile>
  <tile id="1470">
   <image source="tiled/ERW-Grass Land/Props/Atlas-Props-individual sprites/blacksmith props_4.png" width="32" height="32"/>
  </tile>
  <tile id="1471">
   <image source="tiled/ERW-Grass Land/Props/Atlas-Props-individual sprites/blacksmith props_5.png" width="32" height="32"/>
  </tile>
  <tile id="1472">
   <image source="tiled/ERW-Grass Land/Props/Atlas-Props-individual sprites/blacksmith props_6.png" width="32" height="32"/>
  </tile>
  <tile id="1473">
   <image source="tiled/ERW-Grass Land/Props/Atlas-Props-individual sprites/blacksmith props_7.png" width="32" height="32"/>
  </tile>
  <tile id="1474">
   <image source="tiled/ERW-Grass Land/Props/Atlas-Props-individual sprites/blacksmith props_8.png" width="32" height="32"/>
  </tile>
  <tile id="1475">
   <image source="tiled/ERW-Grass Land/Props/Atlas-Props-individual sprites/blacksmith props_9.png" width="32" height="32"/>
  </tile>
  <tile id="1476">
   <image source="tiled/ERW-Grass Land/Props/Atlas-Props-individual sprites/blacksmith props_10.png" width="32" height="32"/>
  </tile>
  <tile id="1477">
   <image source="tiled/ERW-Grass Land/Props/Atlas-Props-individual sprites/blacksmith props_11.png" width="32" height="32"/>
  </tile>
  <tile id="1478">
   <image source="tiled/ERW-Grass Land/Props/Atlas-Props-individual sprites/blacksmith props_12.png" width="32" height="32"/>
  </tile>
  <tile id="1479">
   <image source="tiled/ERW-Grass Land/Props/Atlas-Props-individual sprites/blacksmith props_13.png" width="32" height="32"/>
  </tile>
  <tile id="1480">
   <image source="tiled/ERW-Grass Land/Props/Atlas-Props-individual sprites/blacksmith props_14.png" width="32" height="32"/>
  </tile>
  <tile id="1481">
   <image source="tiled/ERW-Grass Land/Props/Atlas-Props-individual sprites/blacksmith props_15.png" width="32" height="32"/>
  </tile>
  <tile id="1482">
   <image source="tiled/ERW-Grass Land/Props/Atlas-Props-individual sprites/blacksmith props_16.png" width="32" height="32"/>
  </tile>
  <tile id="1483">
   <image source="tiled/ERW-Grass Land/Props/Atlas-Props-individual sprites/blacksmith props_17.png" width="64" height="32"/>
  </tile>
  <tile id="1484">
   <image source="tiled/ERW-Grass Land/Props/Atlas-Props-individual sprites/blacksmith props_18.png" width="64" height="32"/>
  </tile>
  <tile id="1485">
   <image source="tiled/ERW-Grass Land/Props/Atlas-Props-individual sprites/blacksmith props_19.png" width="64" height="32"/>
  </tile>
  <tile id="1486">
   <image source="tiled/ERW-Grass Land/Props/Atlas-Props-individual sprites/blacksmith props_20.png" width="64" height="32"/>
  </tile>
  <tile id="1487">
   <image source="tiled/ERW-Grass Land/Props/Atlas-Props-individual sprites/blacksmith props_21.png" width="64" height="32"/>
  </tile>
  <tile id="1488">
   <image source="tiled/ERW-Grass Land/Props/Atlas-Props-individual sprites/blacksmith props_30.png" width="32" height="64"/>
  </tile>
  <tile id="1489">
   <image source="tiled/ERW-Grass Land/Props/Atlas-Props-individual sprites/blacksmith props_31.png" width="32" height="64"/>
  </tile>
  <tile id="1490">
   <image source="tiled/ERW-Grass Land/Props/Atlas-Props-individual sprites/blacksmith props_32.png" width="32" height="64"/>
  </tile>
  <tile id="1491">
   <image source="tiled/ERW-Grass Land/Props/Atlas-Props-individual sprites/blacksmith props_33.png" width="32" height="64"/>
  </tile>
  <tile id="1492">
   <image source="tiled/ERW-Grass Land/Props/Atlas-Props-individual sprites/blacksmith props_34.png" width="32" height="64"/>
  </tile>
  <tile id="1493">
   <image source="tiled/ERW-Grass Land/Props/Atlas-Props-individual sprites/blacksmith props_35.png" width="32" height="32"/>
  </tile>
  <tile id="1494">
   <image source="tiled/ERW-Grass Land/Props/Atlas-Props-individual sprites/blacksmith props_36.png" width="32" height="32"/>
  </tile>
  <tile id="1495">
   <image source="tiled/ERW-Grass Land/Props/Atlas-Props-individual sprites/blacksmith props_37.png" width="64" height="64"/>
  </tile>
  <tile id="1496">
   <image source="tiled/ERW-Grass Land/Props/Atlas-Props-individual sprites/blacksmith props_38.png" width="64" height="160"/>
  </tile>
  <tile id="1497">
   <image source="tiled/ERW-Grass Land/Props/Atlas-Props-individual sprites/blacksmith props_39.png" width="64" height="160"/>
  </tile>
  <tile id="1498">
   <image source="tiled/ERW-Grass Land/Props/Atlas-Props-individual sprites/blacksmith props_40.png" width="64" height="96"/>
  </tile>
  <tile id="1499">
   <image source="tiled/ERW-Grass Land/Props/Atlas-Props-individual sprites/blacksmith props_41.png" width="64" height="64"/>
  </tile>
  <tile id="1500">
   <image source="tiled/ERW-Grass Land/Props/Atlas-Props-individual sprites/blacksmith props_42.png" width="64" height="96"/>
  </tile>
  <tile id="1501">
   <image source="tiled/ERW-Grass Land/Props/Atlas-Props-individual sprites/blacksmith props_43.png" width="64" height="32"/>
  </tile>
  <tile id="1502">
   <image source="tiled/ERW-Grass Land/Props/Atlas-Props-individual sprites/blacksmith shadow.png" width="320" height="128"/>
  </tile>
  <tile id="1503">
   <image source="tiled/ERW-Grass Land/Props/Atlas-Props-individual sprites/blacksmith wall1.png" width="192" height="64"/>
  </tile>
  <tile id="1504">
   <image source="tiled/ERW-Grass Land/Props/Atlas-Props-individual sprites/blacksmith wall1-tileable.png" width="32" height="64"/>
  </tile>
  <tile id="1505">
   <image source="tiled/ERW-Grass Land/Props/Atlas-Props-individual sprites/blacksmith wall2.png" width="192" height="64"/>
  </tile>
  <tile id="1506">
   <image source="tiled/ERW-Grass Land/Props/Atlas-Props-individual sprites/blacksmith wall2-tileable.png" width="32" height="64"/>
  </tile>
  <tile id="1507">
   <image source="tiled/ERW-Grass Land/Props/Atlas-Props-individual sprites/blacksmith.png" width="320" height="288"/>
  </tile>
  <tile id="1508">
   <image source="tiled/ERW-Grass Land/Props/Atlas-Props-individual sprites/blacksmith-doorway only.png" width="96" height="96"/>
  </tile>
  <tile id="1509">
   <image source="tiled/ERW-Grass Land/Props/Atlas-Props-individual sprites/bucket_0.png" width="32" height="32"/>
  </tile>
  <tile id="1510">
   <image source="tiled/ERW-Grass Land/Props/Atlas-Props-individual sprites/bucket_1.png" width="32" height="32"/>
  </tile>
  <tile id="1511">
   <image source="tiled/ERW-Grass Land/Props/Atlas-Props-individual sprites/bucket_2.png" width="32" height="32"/>
  </tile>
  <tile id="1512">
   <image source="tiled/ERW-Grass Land/Props/Atlas-Props-individual sprites/bucket_3.png" width="32" height="32"/>
  </tile>
  <tile id="1513">
   <image source="tiled/ERW-Grass Land/Props/Atlas-Props-individual sprites/bushes_0.png" width="64" height="64"/>
  </tile>
  <tile id="1514">
   <image source="tiled/ERW-Grass Land/Props/Atlas-Props-individual sprites/bushes_1.png" width="64" height="64"/>
  </tile>
  <tile id="1515">
   <image source="tiled/ERW-Grass Land/Props/Atlas-Props-individual sprites/bushes_2.png" width="64" height="64"/>
  </tile>
  <tile id="1516">
   <image source="tiled/ERW-Grass Land/Props/Atlas-Props-individual sprites/bushes_3.png" width="64" height="64"/>
  </tile>
  <tile id="1517">
   <image source="tiled/ERW-Grass Land/Props/Atlas-Props-individual sprites/bushes_4.png" width="64" height="64"/>
  </tile>
  <tile id="1518">
   <image source="tiled/ERW-Grass Land/Props/Atlas-Props-individual sprites/bushes_5.png" width="64" height="64"/>
  </tile>
  <tile id="1519">
   <image source="tiled/ERW-Grass Land/Props/Atlas-Props-individual sprites/bushes_6.png" width="64" height="64"/>
  </tile>
  <tile id="1520">
   <image source="tiled/ERW-Grass Land/Props/Atlas-Props-individual sprites/bushes_7.png" width="64" height="64"/>
  </tile>
  <tile id="1521">
   <image source="tiled/ERW-Grass Land/Props/Atlas-Props-individual sprites/bushes_8.png" width="64" height="32"/>
  </tile>
  <tile id="1522">
   <image source="tiled/ERW-Grass Land/Props/Atlas-Props-individual sprites/bushes_9.png" width="64" height="32"/>
  </tile>
  <tile id="1523">
   <image source="tiled/ERW-Grass Land/Props/Atlas-Props-individual sprites/bushes_10.png" width="64" height="32"/>
  </tile>
  <tile id="1524">
   <image source="tiled/ERW-Grass Land/Props/Atlas-Props-individual sprites/bushes_11.png" width="64" height="32"/>
  </tile>
  <tile id="1525">
   <image source="tiled/ERW-Grass Land/Props/Atlas-Props-individual sprites/bushes_12.png" width="64" height="32"/>
  </tile>
  <tile id="1526">
   <image source="tiled/ERW-Grass Land/Props/Atlas-Props-individual sprites/bushes_13.png" width="64" height="32"/>
  </tile>
  <tile id="1527">
   <image source="tiled/ERW-Grass Land/Props/Atlas-Props-individual sprites/bushes_14.png" width="64" height="32"/>
  </tile>
  <tile id="1528">
   <image source="tiled/ERW-Grass Land/Props/Atlas-Props-individual sprites/bushes_15.png" width="64" height="32"/>
  </tile>
  <tile id="1529">
   <image source="tiled/ERW-Grass Land/Props/Atlas-Props-individual sprites/campfire and firewood_0.png" width="64" height="64"/>
  </tile>
  <tile id="1530">
   <image source="tiled/ERW-Grass Land/Props/Atlas-Props-individual sprites/campfire and firewood_1.png" width="64" height="64"/>
  </tile>
  <tile id="1531">
   <image source="tiled/ERW-Grass Land/Props/Atlas-Props-individual sprites/campfire and firewood_2.png" width="64" height="64"/>
  </tile>
  <tile id="1532">
   <image source="tiled/ERW-Grass Land/Props/Atlas-Props-individual sprites/campfire and firewood_3.png" width="64" height="64"/>
  </tile>
  <tile id="1533">
   <image source="tiled/ERW-Grass Land/Props/Atlas-Props-individual sprites/campfire and firewood_4.png" width="64" height="64"/>
  </tile>
  <tile id="1534">
   <image source="tiled/ERW-Grass Land/Props/Atlas-Props-individual sprites/campfire and firewood_5.png" width="64" height="64"/>
  </tile>
  <tile id="1535">
   <image source="tiled/ERW-Grass Land/Props/Atlas-Props-individual sprites/chests_0.png" width="64" height="64"/>
  </tile>
  <tile id="1536">
   <image source="tiled/ERW-Grass Land/Props/Atlas-Props-individual sprites/chests_1.png" width="64" height="64"/>
  </tile>
  <tile id="1537">
   <image source="tiled/ERW-Grass Land/Props/Atlas-Props-individual sprites/chests_2.png" width="64" height="64"/>
  </tile>
  <tile id="1538">
   <image source="tiled/ERW-Grass Land/Props/Atlas-Props-individual sprites/chests_3.png" width="64" height="64"/>
  </tile>
  <tile id="1539">
   <image source="tiled/ERW-Grass Land/Props/Atlas-Props-individual sprites/chests_4.png" width="64" height="64"/>
  </tile>
  <tile id="1540">
   <image source="tiled/ERW-Grass Land/Props/Atlas-Props-individual sprites/chests_5.png" width="64" height="64"/>
  </tile>
  <tile id="1544">
   <image source="tiled/ERW-Grass Land/Props/Atlas-Props-individual sprites/crate_0.png" width="64" height="32"/>
  </tile>
  <tile id="1545">
   <image source="tiled/ERW-Grass Land/Props/Atlas-Props-individual sprites/crate_1.png" width="64" height="32"/>
  </tile>
  <tile id="1546">
   <image source="tiled/ERW-Grass Land/Props/Atlas-Props-individual sprites/crate_2.png" width="64" height="32"/>
  </tile>
  <tile id="1547">
   <image source="tiled/ERW-Grass Land/Props/Atlas-Props-individual sprites/crate_3.png" width="64" height="32"/>
  </tile>
  <tile id="1548">
   <image source="tiled/ERW-Grass Land/Props/Atlas-Props-individual sprites/crate_4.png" width="64" height="32"/>
  </tile>
  <tile id="1549">
   <image source="tiled/ERW-Grass Land/Props/Atlas-Props-individual sprites/crate_5.png" width="32" height="64"/>
  </tile>
  <tile id="1550">
   <image source="tiled/ERW-Grass Land/Props/Atlas-Props-individual sprites/crate_6.png" width="32" height="64"/>
  </tile>
  <tile id="1551">
   <image source="tiled/ERW-Grass Land/Props/Atlas-Props-individual sprites/crate_7.png" width="64" height="32"/>
  </tile>
  <tile id="1552">
   <image source="tiled/ERW-Grass Land/Props/Atlas-Props-individual sprites/fences-_1.png" width="32" height="32"/>
  </tile>
  <tile id="1553">
   <image source="tiled/ERW-Grass Land/Props/Atlas-Props-individual sprites/fences-_2.png" width="64" height="32"/>
  </tile>
  <tile id="1554">
   <image source="tiled/ERW-Grass Land/Props/Atlas-Props-individual sprites/fences-_3.png" width="96" height="32"/>
  </tile>
  <tile id="1555">
   <image source="tiled/ERW-Grass Land/Props/Atlas-Props-individual sprites/fences-_4.png" width="32" height="32"/>
  </tile>
  <tile id="1556">
   <image source="tiled/ERW-Grass Land/Props/Atlas-Props-individual sprites/fences-_5.png" width="96" height="32"/>
  </tile>
  <tile id="1557">
   <image source="tiled/ERW-Grass Land/Props/Atlas-Props-individual sprites/fences-_6.png" width="32" height="32"/>
  </tile>
  <tile id="1558">
   <image source="tiled/ERW-Grass Land/Props/Atlas-Props-individual sprites/fences-_7.png" width="32" height="32"/>
  </tile>
  <tile id="1559">
   <image source="tiled/ERW-Grass Land/Props/Atlas-Props-individual sprites/fences-_8.png" width="32" height="32"/>
  </tile>
  <tile id="1560">
   <image source="tiled/ERW-Grass Land/Props/Atlas-Props-individual sprites/fences-_9.png" width="64" height="32"/>
  </tile>
  <tile id="1561">
   <image source="tiled/ERW-Grass Land/Props/Atlas-Props-individual sprites/fences-_10.png" width="32" height="32"/>
  </tile>
  <tile id="1562">
   <image source="tiled/ERW-Grass Land/Props/Atlas-Props-individual sprites/fences-_11.png" width="32" height="32"/>
  </tile>
  <tile id="1563">
   <image source="tiled/ERW-Grass Land/Props/Atlas-Props-individual sprites/fences-_12.png" width="32" height="32"/>
  </tile>
  <tile id="1564">
   <image source="tiled/ERW-Grass Land/Props/Atlas-Props-individual sprites/fences-_13.png" width="32" height="32"/>
  </tile>
  <tile id="1565">
   <image source="tiled/ERW-Grass Land/Props/Atlas-Props-individual sprites/fences-_14.png" width="32" height="32"/>
  </tile>
  <tile id="1566">
   <image source="tiled/ERW-Grass Land/Props/Atlas-Props-individual sprites/fences-_15.png" width="32" height="32"/>
  </tile>
  <tile id="1567">
   <image source="tiled/ERW-Grass Land/Props/Atlas-Props-individual sprites/fences-_16.png" width="32" height="32"/>
  </tile>
  <tile id="1568">
   <image source="tiled/ERW-Grass Land/Props/Atlas-Props-individual sprites/fences-_17.png" width="32" height="32"/>
  </tile>
  <tile id="1569">
   <image source="tiled/ERW-Grass Land/Props/Atlas-Props-individual sprites/fences-_18.png" width="32" height="32"/>
  </tile>
  <tile id="1570">
   <image source="tiled/ERW-Grass Land/Props/Atlas-Props-individual sprites/fences-_19.png" width="96" height="32"/>
  </tile>
  <tile id="1571">
   <image source="tiled/ERW-Grass Land/Props/Atlas-Props-individual sprites/fences-_20.png" width="32" height="32"/>
  </tile>
  <tile id="1572">
   <image source="tiled/ERW-Grass Land/Props/Atlas-Props-individual sprites/fences-_21.png" width="96" height="32"/>
  </tile>
  <tile id="1573">
   <image source="tiled/ERW-Grass Land/Props/Atlas-Props-individual sprites/fences-_22.png" width="64" height="32"/>
  </tile>
  <tile id="1574">
   <image source="tiled/ERW-Grass Land/Props/Atlas-Props-individual sprites/fences-_23.png" width="32" height="32"/>
  </tile>
  <tile id="1575">
   <image source="tiled/ERW-Grass Land/Props/Atlas-Props-individual sprites/fences-_24.png" width="64" height="32"/>
  </tile>
  <tile id="1576">
   <image source="tiled/ERW-Grass Land/Props/Atlas-Props-individual sprites/fences-_25.png" width="64" height="32"/>
  </tile>
  <tile id="1577">
   <image source="tiled/ERW-Grass Land/Props/Atlas-Props-individual sprites/fences-_26.png" width="64" height="32"/>
  </tile>
  <tile id="1578">
   <image source="tiled/ERW-Grass Land/Props/Atlas-Props-individual sprites/fences-_27.png" width="64" height="32"/>
  </tile>
  <tile id="1579">
   <image source="tiled/ERW-Grass Land/Props/Atlas-Props-individual sprites/fences-_28.png" width="64" height="32"/>
  </tile>
  <tile id="1580">
   <image source="tiled/ERW-Grass Land/Props/Atlas-Props-individual sprites/fences-_32.png" width="32" height="32"/>
  </tile>
  <tile id="1581">
   <image source="tiled/ERW-Grass Land/Props/Atlas-Props-individual sprites/fences-_33.png" width="32" height="32"/>
  </tile>
  <tile id="1582">
   <image source="tiled/ERW-Grass Land/Props/Atlas-Props-individual sprites/fences-gate_29.png" width="32" height="64"/>
  </tile>
  <tile id="1583">
   <image source="tiled/ERW-Grass Land/Props/Atlas-Props-individual sprites/fences-gate_30.png" width="32" height="64"/>
  </tile>
  <tile id="1584">
   <image source="tiled/ERW-Grass Land/Props/Atlas-Props-individual sprites/fences-gate_31.png" width="96" height="32"/>
  </tile>
  <tile id="1585">
   <image source="tiled/ERW-Grass Land/Props/Atlas-Props-individual sprites/fences-grass-_2.png" width="64" height="32"/>
  </tile>
  <tile id="1586">
   <image source="tiled/ERW-Grass Land/Props/Atlas-Props-individual sprites/fences-grass-_3.png" width="32" height="32"/>
  </tile>
  <tile id="1587">
   <image source="tiled/ERW-Grass Land/Props/Atlas-Props-individual sprites/fences-grass-_4.png" width="64" height="32"/>
  </tile>
  <tile id="1588">
   <image source="tiled/ERW-Grass Land/Props/Atlas-Props-individual sprites/fences-grass-_5.png" width="96" height="32"/>
  </tile>
  <tile id="1589">
   <image source="tiled/ERW-Grass Land/Props/Atlas-Props-individual sprites/fences-grass-_6.png" width="32" height="32"/>
  </tile>
  <tile id="1590">
   <image source="tiled/ERW-Grass Land/Props/Atlas-Props-individual sprites/fences-grass-_7.png" width="96" height="32"/>
  </tile>
  <tile id="1591">
   <image source="tiled/ERW-Grass Land/Props/Atlas-Props-individual sprites/fences-grass-_8.png" width="64" height="32"/>
  </tile>
  <tile id="1592">
   <image source="tiled/ERW-Grass Land/Props/Atlas-Props-individual sprites/fences-grass-_9.png" width="32" height="32"/>
  </tile>
  <tile id="1593">
   <image source="tiled/ERW-Grass Land/Props/Atlas-Props-individual sprites/fences-grass-_10.png" width="32" height="32"/>
  </tile>
  <tile id="1594">
   <image source="tiled/ERW-Grass Land/Props/Atlas-Props-individual sprites/fences-grass-_11.png" width="32" height="32"/>
  </tile>
  <tile id="1595">
   <image source="tiled/ERW-Grass Land/Props/Atlas-Props-individual sprites/fences-grass-_12.png" width="64" height="32"/>
  </tile>
  <tile id="1596">
   <image source="tiled/ERW-Grass Land/Props/Atlas-Props-individual sprites/fences-grass-_13.png" width="32" height="32"/>
  </tile>
  <tile id="1597">
   <image source="tiled/ERW-Grass Land/Props/Atlas-Props-individual sprites/fences-grass-_14.png" width="32" height="32"/>
  </tile>
  <tile id="1598">
   <image source="tiled/ERW-Grass Land/Props/Atlas-Props-individual sprites/fences-grass-_15.png" width="32" height="32"/>
  </tile>
  <tile id="1599">
   <image source="tiled/ERW-Grass Land/Props/Atlas-Props-individual sprites/fences-grass-_16.png" width="32" height="32"/>
  </tile>
  <tile id="1600">
   <image source="tiled/ERW-Grass Land/Props/Atlas-Props-individual sprites/fences-grass-_17.png" width="32" height="32"/>
  </tile>
  <tile id="1601">
   <image source="tiled/ERW-Grass Land/Props/Atlas-Props-individual sprites/fences-grass-_18.png" width="32" height="32"/>
  </tile>
  <tile id="1602">
   <image source="tiled/ERW-Grass Land/Props/Atlas-Props-individual sprites/fences-grass-_19.png" width="32" height="32"/>
  </tile>
  <tile id="1603">
   <image source="tiled/ERW-Grass Land/Props/Atlas-Props-individual sprites/fences-grass-_20.png" width="64" height="32"/>
  </tile>
  <tile id="1604">
   <image source="tiled/ERW-Grass Land/Props/Atlas-Props-individual sprites/fences-grass-_21.png" width="32" height="32"/>
  </tile>
  <tile id="1605">
   <image source="tiled/ERW-Grass Land/Props/Atlas-Props-individual sprites/fences-grass-_22.png" width="32" height="32"/>
  </tile>
  <tile id="1606">
   <image source="tiled/ERW-Grass Land/Props/Atlas-Props-individual sprites/fences-grass-_23.png" width="32" height="32"/>
  </tile>
  <tile id="1607">
   <image source="tiled/ERW-Grass Land/Props/Atlas-Props-individual sprites/fences-grass-_24.png" width="64" height="32"/>
  </tile>
  <tile id="1608">
   <image source="tiled/ERW-Grass Land/Props/Atlas-Props-individual sprites/fences-grass-_25.png" width="32" height="32"/>
  </tile>
  <tile id="1609">
   <image source="tiled/ERW-Grass Land/Props/Atlas-Props-individual sprites/fences-grass-_26.png" width="96" height="32"/>
  </tile>
  <tile id="1610">
   <image source="tiled/ERW-Grass Land/Props/Atlas-Props-individual sprites/fences-grass-_27.png" width="64" height="32"/>
  </tile>
  <tile id="1611">
   <image source="tiled/ERW-Grass Land/Props/Atlas-Props-individual sprites/fences-grass-_28.png" width="32" height="32"/>
  </tile>
  <tile id="1612">
   <image source="tiled/ERW-Grass Land/Props/Atlas-Props-individual sprites/fences-grass-_29.png" width="64" height="32"/>
  </tile>
  <tile id="1613">
   <image source="tiled/ERW-Grass Land/Props/Atlas-Props-individual sprites/fences-grass-_30.png" width="32" height="32"/>
  </tile>
  <tile id="1614">
   <image source="tiled/ERW-Grass Land/Props/Atlas-Props-individual sprites/fences-grass-_31.png" width="32" height="32"/>
  </tile>
  <tile id="1615">
   <image source="tiled/ERW-Grass Land/Props/Atlas-Props-individual sprites/fences-grass-_33.png" width="96" height="32"/>
  </tile>
  <tile id="1616">
   <image source="tiled/ERW-Grass Land/Props/Atlas-Props-individual sprites/fences-grass-gate_0.png" width="32" height="64"/>
  </tile>
  <tile id="1617">
   <image source="tiled/ERW-Grass Land/Props/Atlas-Props-individual sprites/fences-grass-gate_1.png" width="96" height="32"/>
  </tile>
  <tile id="1618">
   <image source="tiled/ERW-Grass Land/Props/Atlas-Props-individual sprites/fences-grass-gate_2.png" width="32" height="64"/>
  </tile>
  <tile id="1619">
   <image source="tiled/ERW-Grass Land/Props/Atlas-Props-individual sprites/flowers_0.png" width="32" height="32"/>
  </tile>
  <tile id="1620">
   <image source="tiled/ERW-Grass Land/Props/Atlas-Props-individual sprites/flowers_1.png" width="32" height="32"/>
  </tile>
  <tile id="1621">
   <image source="tiled/ERW-Grass Land/Props/Atlas-Props-individual sprites/flowers_2.png" width="32" height="32"/>
  </tile>
  <tile id="1622">
   <image source="tiled/ERW-Grass Land/Props/Atlas-Props-individual sprites/flowers_3.png" width="32" height="32"/>
  </tile>
  <tile id="1623">
   <image source="tiled/ERW-Grass Land/Props/Atlas-Props-individual sprites/flowers_4.png" width="32" height="32"/>
  </tile>
  <tile id="1624">
   <image source="tiled/ERW-Grass Land/Props/Atlas-Props-individual sprites/flowers_5.png" width="32" height="32"/>
  </tile>
  <tile id="1625">
   <image source="tiled/ERW-Grass Land/Props/Atlas-Props-individual sprites/flowers_6.png" width="32" height="32"/>
  </tile>
  <tile id="1626">
   <image source="tiled/ERW-Grass Land/Props/Atlas-Props-individual sprites/flowers_7.png" width="32" height="32"/>
  </tile>
  <tile id="1627">
   <image source="tiled/ERW-Grass Land/Props/Atlas-Props-individual sprites/flowers_8.png" width="32" height="32"/>
  </tile>
  <tile id="1628">
   <image source="tiled/ERW-Grass Land/Props/Atlas-Props-individual sprites/flowers_9.png" width="32" height="32"/>
  </tile>
  <tile id="1629">
   <image source="tiled/ERW-Grass Land/Props/Atlas-Props-individual sprites/flowers_10.png" width="32" height="32"/>
  </tile>
  <tile id="1630">
   <image source="tiled/ERW-Grass Land/Props/Atlas-Props-individual sprites/flowers_11.png" width="32" height="32"/>
  </tile>
  <tile id="1631">
   <image source="tiled/ERW-Grass Land/Props/Atlas-Props-individual sprites/flowers_12.png" width="32" height="32"/>
  </tile>
  <tile id="1632">
   <image source="tiled/ERW-Grass Land/Props/Atlas-Props-individual sprites/flowers_13.png" width="32" height="32"/>
  </tile>
  <tile id="1633">
   <image source="tiled/ERW-Grass Land/Props/Atlas-Props-individual sprites/flowers_14.png" width="32" height="32"/>
  </tile>
  <tile id="1634">
   <image source="tiled/ERW-Grass Land/Props/Atlas-Props-individual sprites/flowers_15.png" width="32" height="32"/>
  </tile>
  <tile id="1635">
   <image source="tiled/ERW-Grass Land/Props/Atlas-Props-individual sprites/flowers_16.png" width="32" height="32"/>
  </tile>
  <tile id="1636">
   <image source="tiled/ERW-Grass Land/Props/Atlas-Props-individual sprites/flowers_17.png" width="32" height="32"/>
  </tile>
  <tile id="1637">
   <image source="tiled/ERW-Grass Land/Props/Atlas-Props-individual sprites/flowers_18.png" width="32" height="32"/>
  </tile>
  <tile id="1638">
   <image source="tiled/ERW-Grass Land/Props/Atlas-Props-individual sprites/flowers_19.png" width="32" height="32"/>
  </tile>
  <tile id="1639">
   <image source="tiled/ERW-Grass Land/Props/Atlas-Props-individual sprites/grass as sprites - darker_0.png" width="32" height="32"/>
  </tile>
  <tile id="1640">
   <image source="tiled/ERW-Grass Land/Props/Atlas-Props-individual sprites/grass as sprites - darker_1.png" width="32" height="32"/>
  </tile>
  <tile id="1641">
   <image source="tiled/ERW-Grass Land/Props/Atlas-Props-individual sprites/grass as sprites - darker_2.png" width="32" height="32"/>
  </tile>
  <tile id="1642">
   <image source="tiled/ERW-Grass Land/Props/Atlas-Props-individual sprites/grass as sprites - darker_3.png" width="32" height="32"/>
  </tile>
  <tile id="1643">
   <image source="tiled/ERW-Grass Land/Props/Atlas-Props-individual sprites/grass as sprites - darker_4.png" width="32" height="32"/>
  </tile>
  <tile id="1644">
   <image source="tiled/ERW-Grass Land/Props/Atlas-Props-individual sprites/grass as sprites - darker_5.png" width="32" height="32"/>
  </tile>
  <tile id="1645">
   <image source="tiled/ERW-Grass Land/Props/Atlas-Props-individual sprites/grass as sprites - darker_6.png" width="32" height="32"/>
  </tile>
  <tile id="1646">
   <image source="tiled/ERW-Grass Land/Props/Atlas-Props-individual sprites/grass as sprites - darker_7.png" width="32" height="32"/>
  </tile>
  <tile id="1647">
   <image source="tiled/ERW-Grass Land/Props/Atlas-Props-individual sprites/grass as sprites - darker_8.png" width="32" height="32"/>
  </tile>
  <tile id="1648">
   <image source="tiled/ERW-Grass Land/Props/Atlas-Props-individual sprites/grass as sprites - darker_9.png" width="32" height="32"/>
  </tile>
  <tile id="1649">
   <image source="tiled/ERW-Grass Land/Props/Atlas-Props-individual sprites/grass as sprites - darker_10.png" width="32" height="32"/>
  </tile>
  <tile id="1650">
   <image source="tiled/ERW-Grass Land/Props/Atlas-Props-individual sprites/grass as sprites - darker_11.png" width="32" height="32"/>
  </tile>
  <tile id="1651">
   <image source="tiled/ERW-Grass Land/Props/Atlas-Props-individual sprites/grass as sprites - darker_12.png" width="32" height="32"/>
  </tile>
  <tile id="1652">
   <image source="tiled/ERW-Grass Land/Props/Atlas-Props-individual sprites/grass as sprites - darker_13.png" width="32" height="32"/>
  </tile>
  <tile id="1653">
   <image source="tiled/ERW-Grass Land/Props/Atlas-Props-individual sprites/grass as sprites - darker_14.png" width="32" height="32"/>
  </tile>
  <tile id="1654">
   <image source="tiled/ERW-Grass Land/Props/Atlas-Props-individual sprites/grass as sprites - darker_15.png" width="32" height="32"/>
  </tile>
  <tile id="1655">
   <image source="tiled/ERW-Grass Land/Props/Atlas-Props-individual sprites/grass as sprites - darker_16.png" width="32" height="32"/>
  </tile>
  <tile id="1656">
   <image source="tiled/ERW-Grass Land/Props/Atlas-Props-individual sprites/grass as sprites - darker_17.png" width="32" height="32"/>
  </tile>
  <tile id="1657">
   <image source="tiled/ERW-Grass Land/Props/Atlas-Props-individual sprites/grass as sprites - darker_18.png" width="32" height="32"/>
  </tile>
  <tile id="1658">
   <image source="tiled/ERW-Grass Land/Props/Atlas-Props-individual sprites/grass as sprites - darker_19.png" width="32" height="32"/>
  </tile>
  <tile id="1659">
   <image source="tiled/ERW-Grass Land/Props/Atlas-Props-individual sprites/grass as sprites - darker_20.png" width="32" height="32"/>
  </tile>
  <tile id="1660">
   <image source="tiled/ERW-Grass Land/Props/Atlas-Props-individual sprites/grass as sprites - darker_21.png" width="32" height="32"/>
  </tile>
  <tile id="1661">
   <image source="tiled/ERW-Grass Land/Props/Atlas-Props-individual sprites/grass as sprites - lighter_0.png" width="32" height="32"/>
  </tile>
  <tile id="1662">
   <image source="tiled/ERW-Grass Land/Props/Atlas-Props-individual sprites/grass as sprites - lighter_1.png" width="32" height="32"/>
  </tile>
  <tile id="1663">
   <image source="tiled/ERW-Grass Land/Props/Atlas-Props-individual sprites/grass as sprites - lighter_2.png" width="32" height="32"/>
  </tile>
  <tile id="1664">
   <image source="tiled/ERW-Grass Land/Props/Atlas-Props-individual sprites/grass as sprites - lighter_3.png" width="32" height="32"/>
  </tile>
  <tile id="1665">
   <image source="tiled/ERW-Grass Land/Props/Atlas-Props-individual sprites/grass as sprites - lighter_4.png" width="32" height="32"/>
  </tile>
  <tile id="1666">
   <image source="tiled/ERW-Grass Land/Props/Atlas-Props-individual sprites/grass as sprites - lighter_5.png" width="32" height="32"/>
  </tile>
  <tile id="1667">
   <image source="tiled/ERW-Grass Land/Props/Atlas-Props-individual sprites/grass as sprites - lighter_6.png" width="32" height="32"/>
  </tile>
  <tile id="1668">
   <image source="tiled/ERW-Grass Land/Props/Atlas-Props-individual sprites/grass as sprites - lighter_7.png" width="32" height="32"/>
  </tile>
  <tile id="1669">
   <image source="tiled/ERW-Grass Land/Props/Atlas-Props-individual sprites/grass as sprites - lighter_8.png" width="32" height="32"/>
  </tile>
  <tile id="1670">
   <image source="tiled/ERW-Grass Land/Props/Atlas-Props-individual sprites/grass as sprites - lighter_9.png" width="32" height="32"/>
  </tile>
  <tile id="1671">
   <image source="tiled/ERW-Grass Land/Props/Atlas-Props-individual sprites/grass as sprites - lighter_10.png" width="32" height="32"/>
  </tile>
  <tile id="1672">
   <image source="tiled/ERW-Grass Land/Props/Atlas-Props-individual sprites/grass as sprites - lighter_11.png" width="32" height="32"/>
  </tile>
  <tile id="1673">
   <image source="tiled/ERW-Grass Land/Props/Atlas-Props-individual sprites/grass as sprites - lighter_12.png" width="32" height="32"/>
  </tile>
  <tile id="1674">
   <image source="tiled/ERW-Grass Land/Props/Atlas-Props-individual sprites/grass as sprites - lighter_13.png" width="32" height="32"/>
  </tile>
  <tile id="1675">
   <image source="tiled/ERW-Grass Land/Props/Atlas-Props-individual sprites/grass as sprites - lighter_14.png" width="32" height="32"/>
  </tile>
  <tile id="1676">
   <image source="tiled/ERW-Grass Land/Props/Atlas-Props-individual sprites/grass as sprites - lighter_15.png" width="32" height="32"/>
  </tile>
  <tile id="1677">
   <image source="tiled/ERW-Grass Land/Props/Atlas-Props-individual sprites/grass as sprites - lighter_16.png" width="32" height="32"/>
  </tile>
  <tile id="1678">
   <image source="tiled/ERW-Grass Land/Props/Atlas-Props-individual sprites/grass as sprites - lighter_17.png" width="32" height="32"/>
  </tile>
  <tile id="1679">
   <image source="tiled/ERW-Grass Land/Props/Atlas-Props-individual sprites/grass as sprites - lighter_18.png" width="32" height="32"/>
  </tile>
  <tile id="1680">
   <image source="tiled/ERW-Grass Land/Props/Atlas-Props-individual sprites/grass as sprites - lighter_19.png" width="32" height="32"/>
  </tile>
  <tile id="1681">
   <image source="tiled/ERW-Grass Land/Props/Atlas-Props-individual sprites/grass as sprites - lighter_20.png" width="32" height="32"/>
  </tile>
  <tile id="1682">
   <image source="tiled/ERW-Grass Land/Props/Atlas-Props-individual sprites/grass as sprites - lighter_21.png" width="32" height="32"/>
  </tile>
  <tile id="1683">
   <image source="tiled/ERW-Grass Land/Props/Atlas-Props-individual sprites/house_0.png" width="448" height="320"/>
  </tile>
  <tile id="1684">
   <image source="tiled/ERW-Grass Land/Props/Atlas-Props-individual sprites/house_1.png" width="448" height="320"/>
  </tile>
  <tile id="1685">
   <image source="tiled/ERW-Grass Land/Props/Atlas-Props-individual sprites/house_detail1.png" width="128" height="64"/>
  </tile>
  <tile id="1686">
   <image source="tiled/ERW-Grass Land/Props/Atlas-Props-individual sprites/house-stairs.png" width="64" height="32"/>
  </tile>
  <tile id="1687">
   <image source="tiled/ERW-Grass Land/Props/Atlas-Props-individual sprites/house-stairs-grass.png" width="64" height="32"/>
  </tile>
  <tile id="1688">
   <image source="tiled/ERW-Grass Land/Props/Atlas-Props-individual sprites/lamp post - with lamp_0.png" width="64" height="96"/>
  </tile>
  <tile id="1689">
   <image source="tiled/ERW-Grass Land/Props/Atlas-Props-individual sprites/lamp post - with lamp_1.png" width="64" height="96"/>
  </tile>
  <tile id="1690">
   <image source="tiled/ERW-Grass Land/Props/Atlas-Props-individual sprites/lamp post - with lamp_2.png" width="64" height="96"/>
  </tile>
  <tile id="1691">
   <image source="tiled/ERW-Grass Land/Props/Atlas-Props-individual sprites/lamp post - with lamp_3.png" width="64" height="96"/>
  </tile>
  <tile id="1692">
   <image source="tiled/ERW-Grass Land/Props/Atlas-Props-individual sprites/lamp post - with lamp_4.png" width="64" height="96"/>
  </tile>
  <tile id="1693">
   <image source="tiled/ERW-Grass Land/Props/Atlas-Props-individual sprites/lamp post - with lamp_5.png" width="64" height="96"/>
  </tile>
  <tile id="1694">
   <image source="tiled/ERW-Grass Land/Props/Atlas-Props-individual sprites/lamp post - with lamp_6.png" width="64" height="96"/>
  </tile>
  <tile id="1695">
   <image source="tiled/ERW-Grass Land/Props/Atlas-Props-individual sprites/lamp post - with lamp_7.png" width="64" height="96"/>
  </tile>
  <tile id="1696">
   <image source="tiled/ERW-Grass Land/Props/Atlas-Props-individual sprites/lamp post - with lamp_8.png" width="64" height="96"/>
  </tile>
  <tile id="1697">
   <image source="tiled/ERW-Grass Land/Props/Atlas-Props-individual sprites/lamp post - with lamp_9.png" width="64" height="96"/>
  </tile>
  <tile id="1698">
   <image source="tiled/ERW-Grass Land/Props/Atlas-Props-individual sprites/lamp post - with lamp_10.png" width="64" height="96"/>
  </tile>
  <tile id="1699">
   <image source="tiled/ERW-Grass Land/Props/Atlas-Props-individual sprites/lamp post - with lamp_11.png" width="64" height="96"/>
  </tile>
  <tile id="1700">
   <image source="tiled/ERW-Grass Land/Props/Atlas-Props-individual sprites/lamp post -no lamp_0.png" width="64" height="96"/>
  </tile>
  <tile id="1701">
   <image source="tiled/ERW-Grass Land/Props/Atlas-Props-individual sprites/lamp post -no lamp_1.png" width="64" height="96"/>
  </tile>
  <tile id="1702">
   <image source="tiled/ERW-Grass Land/Props/Atlas-Props-individual sprites/lamp post -no lamp_2.png" width="64" height="96"/>
  </tile>
  <tile id="1703">
   <image source="tiled/ERW-Grass Land/Props/Atlas-Props-individual sprites/lamp post -no lamp_3.png" width="64" height="96"/>
  </tile>
  <tile id="1704">
   <image source="tiled/ERW-Grass Land/Props/Atlas-Props-individual sprites/lamp post -no lamp_4.png" width="64" height="96"/>
  </tile>
  <tile id="1705">
   <image source="tiled/ERW-Grass Land/Props/Atlas-Props-individual sprites/lamp post -no lamp_5.png" width="64" height="96"/>
  </tile>
  <tile id="1706">
   <image source="tiled/ERW-Grass Land/Props/Atlas-Props-individual sprites/lamp post -no lamp_6.png" width="64" height="96"/>
  </tile>
  <tile id="1707">
   <image source="tiled/ERW-Grass Land/Props/Atlas-Props-individual sprites/lamp post -no lamp_7.png" width="64" height="96"/>
  </tile>
  <tile id="1708">
   <image source="tiled/ERW-Grass Land/Props/Atlas-Props-individual sprites/lamp post -no lamp_8.png" width="64" height="96"/>
  </tile>
  <tile id="1709">
   <image source="tiled/ERW-Grass Land/Props/Atlas-Props-individual sprites/lamp post -no lamp_9.png" width="64" height="96"/>
  </tile>
  <tile id="1710">
   <image source="tiled/ERW-Grass Land/Props/Atlas-Props-individual sprites/lamp post -no lamp_10.png" width="64" height="96"/>
  </tile>
  <tile id="1711">
   <image source="tiled/ERW-Grass Land/Props/Atlas-Props-individual sprites/lamp post -no lamp_11.png" width="64" height="96"/>
  </tile>
  <tile id="1712">
   <image source="tiled/ERW-Grass Land/Props/Atlas-Props-individual sprites/medieval wooden wagon_0.png" width="64" height="64"/>
  </tile>
  <tile id="1713">
   <image source="tiled/ERW-Grass Land/Props/Atlas-Props-individual sprites/medieval wooden wagon_1.png" width="64" height="64"/>
  </tile>
  <tile id="1714">
   <image source="tiled/ERW-Grass Land/Props/Atlas-Props-individual sprites/medieval wooden wagon_2.png" width="64" height="64"/>
  </tile>
  <tile id="1715">
   <image source="tiled/ERW-Grass Land/Props/Atlas-Props-individual sprites/medieval wooden wagon_3.png" width="32" height="32"/>
  </tile>
  <tile id="1716">
   <image source="tiled/ERW-Grass Land/Props/Atlas-Props-individual sprites/mushrooms_0.png" width="32" height="32"/>
  </tile>
  <tile id="1717">
   <image source="tiled/ERW-Grass Land/Props/Atlas-Props-individual sprites/mushrooms_1.png" width="32" height="32"/>
  </tile>
  <tile id="1718">
   <image source="tiled/ERW-Grass Land/Props/Atlas-Props-individual sprites/mushrooms_2.png" width="32" height="32"/>
  </tile>
  <tile id="1719">
   <image source="tiled/ERW-Grass Land/Props/Atlas-Props-individual sprites/mushrooms_3.png" width="32" height="32"/>
  </tile>
  <tile id="1720">
   <image source="tiled/ERW-Grass Land/Props/Atlas-Props-individual sprites/mushrooms_4.png" width="32" height="32"/>
  </tile>
  <tile id="1721">
   <image source="tiled/ERW-Grass Land/Props/Atlas-Props-individual sprites/mushrooms_5.png" width="32" height="32"/>
  </tile>
  <tile id="1722">
   <image source="tiled/ERW-Grass Land/Props/Atlas-Props-individual sprites/mushrooms_6.png" width="32" height="32"/>
  </tile>
  <tile id="1723">
   <image source="tiled/ERW-Grass Land/Props/Atlas-Props-individual sprites/rocks-color scheme1__0.png" width="64" height="64"/>
  </tile>
  <tile id="1724">
   <image source="tiled/ERW-Grass Land/Props/Atlas-Props-individual sprites/rocks-color scheme1__1.png" width="64" height="64"/>
  </tile>
  <tile id="1725">
   <image source="tiled/ERW-Grass Land/Props/Atlas-Props-individual sprites/rocks-color scheme1__2.png" width="64" height="64"/>
  </tile>
  <tile id="1726">
   <image source="tiled/ERW-Grass Land/Props/Atlas-Props-individual sprites/rocks-color scheme1__3.png" width="64" height="64"/>
  </tile>
  <tile id="1727">
   <image source="tiled/ERW-Grass Land/Props/Atlas-Props-individual sprites/rocks-color scheme1__4.png" width="64" height="32"/>
  </tile>
  <tile id="1728">
   <image source="tiled/ERW-Grass Land/Props/Atlas-Props-individual sprites/rocks-color scheme1__5.png" width="32" height="32"/>
  </tile>
  <tile id="1729">
   <image source="tiled/ERW-Grass Land/Props/Atlas-Props-individual sprites/rocks-color scheme1__6.png" width="32" height="32"/>
  </tile>
  <tile id="1730">
   <image source="tiled/ERW-Grass Land/Props/Atlas-Props-individual sprites/rocks-color scheme1__7.png" width="32" height="32"/>
  </tile>
  <tile id="1731">
   <image source="tiled/ERW-Grass Land/Props/Atlas-Props-individual sprites/rocks-color scheme1__8.png" width="32" height="32"/>
  </tile>
  <tile id="1732">
   <image source="tiled/ERW-Grass Land/Props/Atlas-Props-individual sprites/rocks-color scheme1__9.png" width="32" height="32"/>
  </tile>
  <tile id="1733">
   <image source="tiled/ERW-Grass Land/Props/Atlas-Props-individual sprites/rocks-color scheme1__10.png" width="32" height="32"/>
  </tile>
  <tile id="1734">
   <image source="tiled/ERW-Grass Land/Props/Atlas-Props-individual sprites/rocks-color scheme1__11.png" width="32" height="32"/>
  </tile>
  <tile id="1735">
   <image source="tiled/ERW-Grass Land/Props/Atlas-Props-individual sprites/rocks-color scheme1__12.png" width="32" height="32"/>
  </tile>
  <tile id="1736">
   <image source="tiled/ERW-Grass Land/Props/Atlas-Props-individual sprites/rocks-color scheme1__13.png" width="32" height="32"/>
  </tile>
  <tile id="1737">
   <image source="tiled/ERW-Grass Land/Props/Atlas-Props-individual sprites/rocks-color scheme1__14.png" width="32" height="32"/>
  </tile>
  <tile id="1738">
   <image source="tiled/ERW-Grass Land/Props/Atlas-Props-individual sprites/rocks-color scheme1__15.png" width="32" height="32"/>
  </tile>
  <tile id="1739">
   <image source="tiled/ERW-Grass Land/Props/Atlas-Props-individual sprites/rocks-color scheme1__16.png" width="32" height="32"/>
  </tile>
  <tile id="1740">
   <image source="tiled/ERW-Grass Land/Props/Atlas-Props-individual sprites/rocks-color scheme1__17.png" width="32" height="32"/>
  </tile>
  <tile id="1741">
   <image source="tiled/ERW-Grass Land/Props/Atlas-Props-individual sprites/rocks-color scheme1__18.png" width="32" height="32"/>
  </tile>
  <tile id="1742">
   <image source="tiled/ERW-Grass Land/Props/Atlas-Props-individual sprites/rocks-color scheme1__19.png" width="32" height="32"/>
  </tile>
  <tile id="1743">
   <image source="tiled/ERW-Grass Land/Props/Atlas-Props-individual sprites/rocks-color scheme1__20.png" width="32" height="32"/>
  </tile>
  <tile id="1744">
   <image source="tiled/ERW-Grass Land/Props/Atlas-Props-individual sprites/rocks-color scheme1__21.png" width="96" height="64"/>
  </tile>
  <tile id="1745">
   <image source="tiled/ERW-Grass Land/Props/Atlas-Props-individual sprites/rocks-color scheme1-grass_0.png" width="32" height="32"/>
  </tile>
  <tile id="1746">
   <image source="tiled/ERW-Grass Land/Props/Atlas-Props-individual sprites/rocks-color scheme1-grass_1.png" width="32" height="32"/>
  </tile>
  <tile id="1747">
   <image source="tiled/ERW-Grass Land/Props/Atlas-Props-individual sprites/rocks-color scheme1-grass_2.png" width="32" height="32"/>
  </tile>
  <tile id="1748">
   <image source="tiled/ERW-Grass Land/Props/Atlas-Props-individual sprites/rocks-color scheme1-grass_3.png" width="32" height="32"/>
  </tile>
  <tile id="1749">
   <image source="tiled/ERW-Grass Land/Props/Atlas-Props-individual sprites/rocks-color scheme1-grass_4.png" width="32" height="32"/>
  </tile>
  <tile id="1750">
   <image source="tiled/ERW-Grass Land/Props/Atlas-Props-individual sprites/rocks-color scheme1-grass_5.png" width="32" height="32"/>
  </tile>
  <tile id="1751">
   <image source="tiled/ERW-Grass Land/Props/Atlas-Props-individual sprites/rocks-color scheme1-grass_6.png" width="32" height="32"/>
  </tile>
  <tile id="1752">
   <image source="tiled/ERW-Grass Land/Props/Atlas-Props-individual sprites/rocks-color scheme1-grass_7.png" width="32" height="32"/>
  </tile>
  <tile id="1753">
   <image source="tiled/ERW-Grass Land/Props/Atlas-Props-individual sprites/rocks-color scheme1-grass_8.png" width="32" height="32"/>
  </tile>
  <tile id="1754">
   <image source="tiled/ERW-Grass Land/Props/Atlas-Props-individual sprites/rocks-color scheme1-grass_9.png" width="32" height="32"/>
  </tile>
  <tile id="1755">
   <image source="tiled/ERW-Grass Land/Props/Atlas-Props-individual sprites/rocks-color scheme1-grass_10.png" width="32" height="32"/>
  </tile>
  <tile id="1756">
   <image source="tiled/ERW-Grass Land/Props/Atlas-Props-individual sprites/rocks-color scheme1-grass_11.png" width="32" height="32"/>
  </tile>
  <tile id="1757">
   <image source="tiled/ERW-Grass Land/Props/Atlas-Props-individual sprites/rocks-color scheme1-grass_12.png" width="32" height="32"/>
  </tile>
  <tile id="1758">
   <image source="tiled/ERW-Grass Land/Props/Atlas-Props-individual sprites/rocks-color scheme1-grass_13.png" width="32" height="32"/>
  </tile>
  <tile id="1759">
   <image source="tiled/ERW-Grass Land/Props/Atlas-Props-individual sprites/rocks-color scheme1-grass_14.png" width="32" height="32"/>
  </tile>
  <tile id="1760">
   <image source="tiled/ERW-Grass Land/Props/Atlas-Props-individual sprites/rocks-color scheme1-grass_15.png" width="32" height="32"/>
  </tile>
  <tile id="1761">
   <image source="tiled/ERW-Grass Land/Props/Atlas-Props-individual sprites/rocks-color scheme1-grass_16.png" width="64" height="32"/>
  </tile>
  <tile id="1762">
   <image source="tiled/ERW-Grass Land/Props/Atlas-Props-individual sprites/rocks-color scheme1-grass_17.png" width="64" height="64"/>
  </tile>
  <tile id="1763">
   <image source="tiled/ERW-Grass Land/Props/Atlas-Props-individual sprites/rocks-color scheme1-grass_18.png" width="64" height="64"/>
  </tile>
  <tile id="1764">
   <image source="tiled/ERW-Grass Land/Props/Atlas-Props-individual sprites/rocks-color scheme1-grass_19.png" width="64" height="64"/>
  </tile>
  <tile id="1765">
   <image source="tiled/ERW-Grass Land/Props/Atlas-Props-individual sprites/rocks-color scheme1-grass_20.png" width="64" height="64"/>
  </tile>
  <tile id="1766">
   <image source="tiled/ERW-Grass Land/Props/Atlas-Props-individual sprites/rocks-color scheme1-grass_21.png" width="96" height="64"/>
  </tile>
  <tile id="1767">
   <image source="tiled/ERW-Grass Land/Props/Atlas-Props-individual sprites/rocks-color scheme2__0.png" width="64" height="32"/>
  </tile>
  <tile id="1768">
   <image source="tiled/ERW-Grass Land/Props/Atlas-Props-individual sprites/rocks-color scheme2__1.png" width="64" height="64"/>
  </tile>
  <tile id="1769">
   <image source="tiled/ERW-Grass Land/Props/Atlas-Props-individual sprites/rocks-color scheme2__2.png" width="64" height="64"/>
  </tile>
  <tile id="1770">
   <image source="tiled/ERW-Grass Land/Props/Atlas-Props-individual sprites/rocks-color scheme2__3.png" width="64" height="64"/>
  </tile>
  <tile id="1771">
   <image source="tiled/ERW-Grass Land/Props/Atlas-Props-individual sprites/rocks-color scheme2__4.png" width="64" height="64"/>
  </tile>
  <tile id="1772">
   <image source="tiled/ERW-Grass Land/Props/Atlas-Props-individual sprites/rocks-color scheme2__5.png" width="32" height="32"/>
  </tile>
  <tile id="1773">
   <image source="tiled/ERW-Grass Land/Props/Atlas-Props-individual sprites/rocks-color scheme2__6.png" width="32" height="32"/>
  </tile>
  <tile id="1774">
   <image source="tiled/ERW-Grass Land/Props/Atlas-Props-individual sprites/rocks-color scheme2__7.png" width="32" height="32"/>
  </tile>
  <tile id="1775">
   <image source="tiled/ERW-Grass Land/Props/Atlas-Props-individual sprites/rocks-color scheme2__8.png" width="32" height="32"/>
  </tile>
  <tile id="1776">
   <image source="tiled/ERW-Grass Land/Props/Atlas-Props-individual sprites/rocks-color scheme2__9.png" width="32" height="32"/>
  </tile>
  <tile id="1777">
   <image source="tiled/ERW-Grass Land/Props/Atlas-Props-individual sprites/rocks-color scheme2__10.png" width="32" height="32"/>
  </tile>
  <tile id="1778">
   <image source="tiled/ERW-Grass Land/Props/Atlas-Props-individual sprites/rocks-color scheme2__11.png" width="32" height="32"/>
  </tile>
  <tile id="1779">
   <image source="tiled/ERW-Grass Land/Props/Atlas-Props-individual sprites/rocks-color scheme2__12.png" width="32" height="32"/>
  </tile>
  <tile id="1780">
   <image source="tiled/ERW-Grass Land/Props/Atlas-Props-individual sprites/rocks-color scheme2__13.png" width="32" height="32"/>
  </tile>
  <tile id="1781">
   <image source="tiled/ERW-Grass Land/Props/Atlas-Props-individual sprites/rocks-color scheme2__14.png" width="32" height="32"/>
  </tile>
  <tile id="1782">
   <image source="tiled/ERW-Grass Land/Props/Atlas-Props-individual sprites/rocks-color scheme2__15.png" width="32" height="32"/>
  </tile>
  <tile id="1783">
   <image source="tiled/ERW-Grass Land/Props/Atlas-Props-individual sprites/rocks-color scheme2__16.png" width="32" height="32"/>
  </tile>
  <tile id="1784">
   <image source="tiled/ERW-Grass Land/Props/Atlas-Props-individual sprites/rocks-color scheme2__17.png" width="32" height="32"/>
  </tile>
  <tile id="1785">
   <image source="tiled/ERW-Grass Land/Props/Atlas-Props-individual sprites/rocks-color scheme2__18.png" width="32" height="32"/>
  </tile>
  <tile id="1786">
   <image source="tiled/ERW-Grass Land/Props/Atlas-Props-individual sprites/rocks-color scheme2__19.png" width="32" height="32"/>
  </tile>
  <tile id="1787">
   <image source="tiled/ERW-Grass Land/Props/Atlas-Props-individual sprites/rocks-color scheme2__20.png" width="32" height="32"/>
  </tile>
  <tile id="1788">
   <image source="tiled/ERW-Grass Land/Props/Atlas-Props-individual sprites/rocks-color scheme2__21.png" width="96" height="64"/>
  </tile>
  <tile id="1789">
   <image source="tiled/ERW-Grass Land/Props/Atlas-Props-individual sprites/rocks-color scheme2-grass_0.png" width="32" height="32"/>
  </tile>
  <tile id="1790">
   <image source="tiled/ERW-Grass Land/Props/Atlas-Props-individual sprites/rocks-color scheme2-grass_1.png" width="32" height="32"/>
  </tile>
  <tile id="1791">
   <image source="tiled/ERW-Grass Land/Props/Atlas-Props-individual sprites/rocks-color scheme2-grass_2.png" width="32" height="32"/>
  </tile>
  <tile id="1792">
   <image source="tiled/ERW-Grass Land/Props/Atlas-Props-individual sprites/rocks-color scheme2-grass_3.png" width="32" height="32"/>
  </tile>
  <tile id="1793">
   <image source="tiled/ERW-Grass Land/Props/Atlas-Props-individual sprites/rocks-color scheme2-grass_4.png" width="32" height="32"/>
  </tile>
  <tile id="1794">
   <image source="tiled/ERW-Grass Land/Props/Atlas-Props-individual sprites/rocks-color scheme2-grass_5.png" width="32" height="32"/>
  </tile>
  <tile id="1795">
   <image source="tiled/ERW-Grass Land/Props/Atlas-Props-individual sprites/rocks-color scheme2-grass_6.png" width="32" height="32"/>
  </tile>
  <tile id="1796">
   <image source="tiled/ERW-Grass Land/Props/Atlas-Props-individual sprites/rocks-color scheme2-grass_7.png" width="32" height="32"/>
  </tile>
  <tile id="1797">
   <image source="tiled/ERW-Grass Land/Props/Atlas-Props-individual sprites/rocks-color scheme2-grass_8.png" width="32" height="32"/>
  </tile>
  <tile id="1798">
   <image source="tiled/ERW-Grass Land/Props/Atlas-Props-individual sprites/rocks-color scheme2-grass_9.png" width="32" height="32"/>
  </tile>
  <tile id="1799">
   <image source="tiled/ERW-Grass Land/Props/Atlas-Props-individual sprites/rocks-color scheme2-grass_10.png" width="32" height="32"/>
  </tile>
  <tile id="1800">
   <image source="tiled/ERW-Grass Land/Props/Atlas-Props-individual sprites/rocks-color scheme2-grass_11.png" width="32" height="32"/>
  </tile>
  <tile id="1801">
   <image source="tiled/ERW-Grass Land/Props/Atlas-Props-individual sprites/rocks-color scheme2-grass_12.png" width="32" height="32"/>
  </tile>
  <tile id="1802">
   <image source="tiled/ERW-Grass Land/Props/Atlas-Props-individual sprites/rocks-color scheme2-grass_13.png" width="32" height="32"/>
  </tile>
  <tile id="1803">
   <image source="tiled/ERW-Grass Land/Props/Atlas-Props-individual sprites/rocks-color scheme2-grass_14.png" width="32" height="32"/>
  </tile>
  <tile id="1804">
   <image source="tiled/ERW-Grass Land/Props/Atlas-Props-individual sprites/rocks-color scheme2-grass_15.png" width="32" height="32"/>
  </tile>
  <tile id="1805">
   <image source="tiled/ERW-Grass Land/Props/Atlas-Props-individual sprites/rocks-color scheme2-grass_16.png" width="64" height="32"/>
  </tile>
  <tile id="1806">
   <image source="tiled/ERW-Grass Land/Props/Atlas-Props-individual sprites/rocks-color scheme2-grass_17.png" width="64" height="64"/>
  </tile>
  <tile id="1807">
   <image source="tiled/ERW-Grass Land/Props/Atlas-Props-individual sprites/rocks-color scheme2-grass_18.png" width="64" height="64"/>
  </tile>
  <tile id="1808">
   <image source="tiled/ERW-Grass Land/Props/Atlas-Props-individual sprites/rocks-color scheme2-grass_19.png" width="64" height="64"/>
  </tile>
  <tile id="1809">
   <image source="tiled/ERW-Grass Land/Props/Atlas-Props-individual sprites/rocks-color scheme2-grass_20.png" width="64" height="64"/>
  </tile>
  <tile id="1810">
   <image source="tiled/ERW-Grass Land/Props/Atlas-Props-individual sprites/rocks-color scheme2-grass_21.png" width="96" height="64"/>
  </tile>
  <tile id="1811">
   <image source="tiled/ERW-Grass Land/Props/Atlas-Props-individual sprites/shrine_0.png" width="64" height="64"/>
  </tile>
  <tile id="1812">
   <image source="tiled/ERW-Grass Land/Props/Atlas-Props-individual sprites/shrine_1.png" width="64" height="64"/>
  </tile>
  <tile id="1813">
   <image source="tiled/ERW-Grass Land/Props/Atlas-Props-individual sprites/shrine_2.png" width="64" height="64"/>
  </tile>
  <tile id="1814">
   <image source="tiled/ERW-Grass Land/Props/Atlas-Props-individual sprites/shrine_3.png" width="64" height="64"/>
  </tile>
  <tile id="1815">
   <image source="tiled/ERW-Grass Land/Props/Atlas-Props-individual sprites/shrine_4.png" width="64" height="64"/>
  </tile>
  <tile id="1816">
   <image source="tiled/ERW-Grass Land/Props/Atlas-Props-individual sprites/shrine_5.png" width="64" height="64"/>
  </tile>
  <tile id="1817">
   <image source="tiled/ERW-Grass Land/Props/Atlas-Props-individual sprites/shrine_6.png" width="64" height="64"/>
  </tile>
  <tile id="1818">
   <image source="tiled/ERW-Grass Land/Props/Atlas-Props-individual sprites/shrine_7.png" width="64" height="64"/>
  </tile>
  <tile id="1819">
   <image source="tiled/ERW-Grass Land/Props/Atlas-Props-individual sprites/signs_0.png" width="32" height="32"/>
  </tile>
  <tile id="1820">
   <image source="tiled/ERW-Grass Land/Props/Atlas-Props-individual sprites/signs_1.png" width="32" height="32"/>
  </tile>
  <tile id="1821">
   <image source="tiled/ERW-Grass Land/Props/Atlas-Props-individual sprites/signs_2.png" width="32" height="32"/>
  </tile>
  <tile id="1822">
   <image source="tiled/ERW-Grass Land/Props/Atlas-Props-individual sprites/signs_3.png" width="32" height="32"/>
  </tile>
  <tile id="1823">
   <image source="tiled/ERW-Grass Land/Props/Atlas-Props-individual sprites/signs_4.png" width="32" height="32"/>
  </tile>
  <tile id="1824">
   <image source="tiled/ERW-Grass Land/Props/Atlas-Props-individual sprites/signs_5.png" width="32" height="32"/>
  </tile>
  <tile id="1825">
   <image source="tiled/ERW-Grass Land/Props/Atlas-Props-individual sprites/signs_6.png" width="32" height="32"/>
  </tile>
  <tile id="1826">
   <image source="tiled/ERW-Grass Land/Props/Atlas-Props-individual sprites/signs_7.png" width="32" height="32"/>
  </tile>
  <tile id="1827">
   <image source="tiled/ERW-Grass Land/Props/Atlas-Props-individual sprites/signs_8.png" width="32" height="32"/>
  </tile>
  <tile id="1828">
   <image source="tiled/ERW-Grass Land/Props/Atlas-Props-individual sprites/signs_9.png" width="32" height="32"/>
  </tile>
  <tile id="1829">
   <image source="tiled/ERW-Grass Land/Props/Atlas-Props-individual sprites/signs_10.png" width="32" height="32"/>
  </tile>
  <tile id="1830">
   <image source="tiled/ERW-Grass Land/Props/Atlas-Props-individual sprites/signs_11.png" width="32" height="32"/>
  </tile>
  <tile id="1831">
   <image source="tiled/ERW-Grass Land/Props/Atlas-Props-individual sprites/signs_12.png" width="32" height="32"/>
  </tile>
  <tile id="1832">
   <image source="tiled/ERW-Grass Land/Props/Atlas-Props-individual sprites/signs_13.png" width="32" height="32"/>
  </tile>
  <tile id="1833">
   <image source="tiled/ERW-Grass Land/Props/Atlas-Props-individual sprites/signs_14.png" width="32" height="32"/>
  </tile>
  <tile id="1834">
   <image source="tiled/ERW-Grass Land/Props/Atlas-Props-individual sprites/signs_15.png" width="32" height="32"/>
  </tile>
  <tile id="1835">
   <image source="tiled/ERW-Grass Land/Props/Atlas-Props-individual sprites/signs_16.png" width="32" height="32"/>
  </tile>
  <tile id="1836">
   <image source="tiled/ERW-Grass Land/Props/Atlas-Props-individual sprites/signs_17.png" width="32" height="32"/>
  </tile>
  <tile id="1837">
   <image source="tiled/ERW-Grass Land/Props/Atlas-Props-individual sprites/signs_18.png" width="32" height="32"/>
  </tile>
  <tile id="1838">
   <image source="tiled/ERW-Grass Land/Props/Atlas-Props-individual sprites/signs_19.png" width="32" height="32"/>
  </tile>
  <tile id="1839">
   <image source="tiled/ERW-Grass Land/Props/Atlas-Props-individual sprites/signs_20.png" width="32" height="32"/>
  </tile>
  <tile id="1840">
   <image source="tiled/ERW-Grass Land/Props/Atlas-Props-individual sprites/signs_21.png" width="32" height="32"/>
  </tile>
  <tile id="1841">
   <image source="tiled/ERW-Grass Land/Props/Atlas-Props-individual sprites/signs_22.png" width="32" height="32"/>
  </tile>
  <tile id="1842">
   <image source="tiled/ERW-Grass Land/Props/Atlas-Props-individual sprites/signs_23.png" width="32" height="32"/>
  </tile>
  <tile id="1843">
   <image source="tiled/ERW-Grass Land/Props/Atlas-Props-individual sprites/signs_24.png" width="32" height="32"/>
  </tile>
  <tile id="1844">
   <image source="tiled/ERW-Grass Land/Props/Atlas-Props-individual sprites/signs_25.png" width="32" height="32"/>
  </tile>
  <tile id="1845">
   <image source="tiled/ERW-Grass Land/Props/Atlas-Props-individual sprites/signs_26.png" width="32" height="32"/>
  </tile>
  <tile id="1846">
   <image source="tiled/ERW-Grass Land/Props/Atlas-Props-individual sprites/stone-halfsized walls-pillars_0.png" width="32" height="64"/>
  </tile>
  <tile id="1847">
   <image source="tiled/ERW-Grass Land/Props/Atlas-Props-individual sprites/stone-halfsized walls-pillars_1.png" width="32" height="64"/>
  </tile>
  <tile id="1848">
   <image source="tiled/ERW-Grass Land/Props/Atlas-Props-individual sprites/stone-halfsized walls-pillars_2.png" width="32" height="64"/>
  </tile>
  <tile id="1849">
   <image source="tiled/ERW-Grass Land/Props/Atlas-Props-individual sprites/stone-halfsized walls-pillars_3.png" width="32" height="64"/>
  </tile>
  <tile id="1850">
   <image source="tiled/ERW-Grass Land/Props/Atlas-Props-individual sprites/stone-halfsized walls-pillars_4.png" width="32" height="64"/>
  </tile>
  <tile id="1851">
   <image source="tiled/ERW-Grass Land/Props/Atlas-Props-individual sprites/stone-halfsized walls-pillars_5.png" width="32" height="64"/>
  </tile>
  <tile id="1852">
   <image source="tiled/ERW-Grass Land/Props/Atlas-Props-individual sprites/stone-halfsized walls-pillars_6.png" width="32" height="64"/>
  </tile>
  <tile id="1853">
   <image source="tiled/ERW-Grass Land/Props/Atlas-Props-individual sprites/stone-halfsized walls-pillars_7.png" width="32" height="64"/>
  </tile>
  <tile id="1854">
   <image source="tiled/ERW-Grass Land/Props/Atlas-Props-individual sprites/stone-halfsized walls-pillars_8.png" width="32" height="64"/>
  </tile>
  <tile id="1855">
   <image source="tiled/ERW-Grass Land/Props/Atlas-Props-individual sprites/stone-halfsized walls-pillars_9.png" width="32" height="64"/>
  </tile>
  <tile id="1856">
   <image source="tiled/ERW-Grass Land/Props/Atlas-Props-individual sprites/stone-halfsized walls-pillars_10.png" width="32" height="64"/>
  </tile>
  <tile id="1857">
   <image source="tiled/ERW-Grass Land/Props/Atlas-Props-individual sprites/stone-halfsized walls-pillars_11.png" width="32" height="64"/>
  </tile>
  <tile id="1858">
   <image source="tiled/ERW-Grass Land/Props/Atlas-Props-individual sprites/stone-halfsized walls-pillars_12.png" width="32" height="64"/>
  </tile>
  <tile id="1859">
   <image source="tiled/ERW-Grass Land/Props/Atlas-Props-individual sprites/stone-halfsized walls-pillars_13.png" width="32" height="64"/>
  </tile>
  <tile id="1860">
   <image source="tiled/ERW-Grass Land/Props/Atlas-Props-individual sprites/stone-halfsized walls-pillars_14.png" width="32" height="64"/>
  </tile>
  <tile id="1861">
   <image source="tiled/ERW-Grass Land/Props/Atlas-Props-individual sprites/stone-halfsized walls-pillars_15.png" width="32" height="64"/>
  </tile>
  <tile id="1862">
   <image source="tiled/ERW-Grass Land/Props/Atlas-Props-individual sprites/stone-halfsized walls-solo blocks_0.png" width="32" height="32"/>
  </tile>
  <tile id="1863">
   <image source="tiled/ERW-Grass Land/Props/Atlas-Props-individual sprites/stone-halfsized walls-solo blocks_1.png" width="32" height="32"/>
  </tile>
  <tile id="1864">
   <image source="tiled/ERW-Grass Land/Props/Atlas-Props-individual sprites/stone-halfsized walls-solo blocks_2.png" width="32" height="32"/>
  </tile>
  <tile id="1865">
   <image source="tiled/ERW-Grass Land/Props/Atlas-Props-individual sprites/stone-halfsized walls-solo blocks_3.png" width="32" height="32"/>
  </tile>
  <tile id="1866">
   <image source="tiled/ERW-Grass Land/Props/Atlas-Props-individual sprites/stone-halfsized walls-solo blocks_4.png" width="32" height="32"/>
  </tile>
  <tile id="1867">
   <image source="tiled/ERW-Grass Land/Props/Atlas-Props-individual sprites/stone-halfsized walls-solo blocks_5.png" width="32" height="32"/>
  </tile>
  <tile id="1868">
   <image source="tiled/ERW-Grass Land/Props/Atlas-Props-individual sprites/stone-halfsized walls-solo blocks_6.png" width="32" height="32"/>
  </tile>
  <tile id="1869">
   <image source="tiled/ERW-Grass Land/Props/Atlas-Props-individual sprites/stone-halfsized walls-solo blocks_7.png" width="32" height="32"/>
  </tile>
  <tile id="1870">
   <image source="tiled/ERW-Grass Land/Props/Atlas-Props-individual sprites/stone-halfsized walls-solo blocks_8.png" width="32" height="32"/>
  </tile>
  <tile id="1871">
   <image source="tiled/ERW-Grass Land/Props/Atlas-Props-individual sprites/stone-paths and stairs_0.png" width="96" height="160"/>
  </tile>
  <tile id="1872">
   <image source="tiled/ERW-Grass Land/Props/Atlas-Props-individual sprites/stone-paths and stairs_1.png" width="160" height="128"/>
  </tile>
  <tile id="1873">
   <image source="tiled/ERW-Grass Land/Props/Atlas-Props-individual sprites/stone-paths and stairs_2.png" width="160" height="96"/>
  </tile>
  <tile id="1874">
   <image source="tiled/ERW-Grass Land/Props/Atlas-Props-individual sprites/stone-paths and stairs_3.png" width="96" height="96"/>
  </tile>
  <tile id="1875">
   <image source="tiled/ERW-Grass Land/Props/Atlas-Props-individual sprites/stone-paths and stairs_4.png" width="96" height="96"/>
  </tile>
  <tile id="1876">
   <image source="tiled/ERW-Grass Land/Props/Atlas-Props-individual sprites/stone-paths and stairs_5.png" width="96" height="96"/>
  </tile>
  <tile id="1877">
   <image source="tiled/ERW-Grass Land/Props/Atlas-Props-individual sprites/stone-paths and stairs_6.png" width="160" height="96"/>
  </tile>
  <tile id="1878">
   <image source="tiled/ERW-Grass Land/Props/Atlas-Props-individual sprites/Trees - whole and trunks_0.png" width="96" height="192"/>
  </tile>
  <tile id="1879">
   <image source="tiled/ERW-Grass Land/Props/Atlas-Props-individual sprites/Trees - whole and trunks_1.png" width="96" height="192"/>
  </tile>
  <tile id="1880">
   <image source="tiled/ERW-Grass Land/Props/Atlas-Props-individual sprites/Trees - whole and trunks_2.png" width="96" height="64"/>
  </tile>
  <tile id="1881">
   <image source="tiled/ERW-Grass Land/Props/Atlas-Props-individual sprites/Trees - whole and trunks_3.png" width="96" height="64"/>
  </tile>
  <tile id="1882">
   <image source="tiled/ERW-Grass Land/Props/Atlas-Props-individual sprites/Trees - whole and trunks_4.png" width="96" height="64"/>
  </tile>
  <tile id="1883">
   <image source="tiled/ERW-Grass Land/Props/Atlas-Props-individual sprites/Trees - whole and trunks_5.png" width="96" height="64"/>
  </tile>
  <tile id="1884">
   <image source="tiled/ERW-Grass Land/Props/Atlas-Props-individual sprites/Trees - whole and trunks_6.png" width="96" height="64"/>
  </tile>
  <tile id="1885">
   <image source="tiled/ERW-Grass Land/Props/Atlas-Props-individual sprites/Trees - whole and trunks_7.png" width="96" height="64"/>
  </tile>
  <tile id="1886">
   <image source="tiled/ERW-Grass Land/Props/Atlas-Props-individual sprites/trunks_0.png" width="64" height="64"/>
  </tile>
  <tile id="1887">
   <image source="tiled/ERW-Grass Land/Props/Atlas-Props-individual sprites/trunks_1.png" width="64" height="64"/>
  </tile>
  <tile id="1888">
   <image source="tiled/ERW-Grass Land/Props/Atlas-Props-individual sprites/trunks_2.png" width="64" height="64"/>
  </tile>
  <tile id="1889">
   <image source="tiled/ERW-Grass Land/Props/Atlas-Props-individual sprites/trunks_3.png" width="64" height="64"/>
  </tile>
  <tile id="1890">
   <image source="tiled/ERW-Grass Land/Props/Atlas-Props-individual sprites/trunks_4.png" width="64" height="64"/>
  </tile>
  <tile id="1891">
   <image source="tiled/ERW-Grass Land/Props/Atlas-Props-individual sprites/trunks2__0.png" width="64" height="32"/>
  </tile>
  <tile id="1892">
   <image source="tiled/ERW-Grass Land/Props/Atlas-Props-individual sprites/trunks2__1.png" width="64" height="32"/>
  </tile>
  <tile id="1893">
   <image source="tiled/ERW-Grass Land/Props/Atlas-Props-individual sprites/trunks2__2.png" width="64" height="32"/>
  </tile>
  <tile id="1894">
   <image source="tiled/ERW-Grass Land/Props/Atlas-Props-individual sprites/trunks2__3.png" width="64" height="32"/>
  </tile>
  <tile id="1895">
   <image source="tiled/ERW-Grass Land/Props/Atlas-Props-individual sprites/trunks2__4.png" width="64" height="32"/>
  </tile>
  <tile id="1896">
   <image source="tiled/ERW-Grass Land/Props/Atlas-Props-individual sprites/trunks2__6.png" width="64" height="64"/>
  </tile>
  <tile id="1897">
   <image source="tiled/ERW-Grass Land/Props/Atlas-Props-individual sprites/trunks2__7.png" width="64" height="64"/>
  </tile>
  <tile id="1898">
   <image source="tiled/ERW-Grass Land/Props/Atlas-Props-individual sprites/trunks2__9.png" width="64" height="64"/>
  </tile>
  <tile id="1899">
   <image source="tiled/ERW-Grass Land/Props/Atlas-Props-individual sprites/trunks2__10.png" width="64" height="64"/>
  </tile>
  <tile id="1900">
   <image source="tiled/ERW-Grass Land/Props/Atlas-Props-individual sprites/trunks2__11.png" width="64" height="64"/>
  </tile>
  <tile id="1901">
   <image source="tiled/ERW-Grass Land/Props/Atlas-Props-individual sprites/trunks2__12.png" width="64" height="64"/>
  </tile>
  <tile id="1902">
   <image source="tiled/ERW-Grass Land/Props/Atlas-Props-individual sprites/trunks2__13.png" width="64" height="64"/>
  </tile>
  <tile id="1903">
   <image source="tiled/ERW-Grass Land/Props/Atlas-Props-individual sprites/trunks2__14.png" width="64" height="64"/>
  </tile>
  <tile id="1904">
   <image source="tiled/ERW-Grass Land/Props/Atlas-Props-individual sprites/trunks2__15.png" width="64" height="64"/>
  </tile>
  <tile id="1905">
   <image source="tiled/ERW-Grass Land/Props/Atlas-Props-individual sprites/trunks2__16.png" width="64" height="64"/>
  </tile>
  <tile id="1906">
   <image source="tiled/ERW-Grass Land/Props/Atlas-Props-individual sprites/trunks2__17.png" width="64" height="64"/>
  </tile>
  <tile id="1907">
   <image source="tiled/ERW-Grass Land/Props/Atlas-Props-individual sprites/trunks2__18.png" width="64" height="64"/>
  </tile>
  <tile id="1908">
   <image source="tiled/ERW-Grass Land/Props/Atlas-Props-individual sprites/trunks2__19.png" width="64" height="64"/>
  </tile>
  <tile id="1909">
   <image source="tiled/ERW-Grass Land/Props/Atlas-Props-individual sprites/trunks2__20.png" width="64" height="64"/>
  </tile>
  <tile id="1910">
   <image source="tiled/ERW-Grass Land/Props/Atlas-Props-individual sprites/trunks2__21.png" width="64" height="64"/>
  </tile>
  <tile id="1911">
   <image source="tiled/ERW-Grass Land/Props/Atlas-Props-individual sprites/trunks5__5.png" width="64" height="32"/>
  </tile>
  <tile id="1912">
   <image source="tiled/ERW-Grass Land/Props/Atlas-Props-individual sprites/trunks8__8.png" width="64" height="64"/>
  </tile>
  <tile id="1913">
   <image source="tiled/ERW-Grass Land/Props/Atlas-Props-individual sprites/waterwell_0.png" width="96" height="128"/>
  </tile>
  <tile id="1914">
   <image source="tiled/ERW-Grass Land/Props/Atlas-Props-individual sprites/waterwell_1.png" width="96" height="128"/>
  </tile>
  <tile id="1915">
   <image source="tiled/ERW-Grass Land/Props/Atlas-Props-individual sprites/Animated Tree1_frame1.png" width="128" height="192"/>
   <animation>
    <frame tileid="1915" duration="100"/>
    <frame tileid="1916" duration="100"/>
    <frame tileid="1917" duration="100"/>
    <frame tileid="1918" duration="100"/>
    <frame tileid="1919" duration="100"/>
    <frame tileid="1920" duration="100"/>
    <frame tileid="1921" duration="100"/>
    <frame tileid="1922" duration="100"/>
   </animation>
  </tile>
  <tile id="1916">
   <image source="tiled/ERW-Grass Land/Props/Atlas-Props-individual sprites/Animated Tree1_frame2.png" width="128" height="192"/>
  </tile>
  <tile id="1917">
   <image source="tiled/ERW-Grass Land/Props/Atlas-Props-individual sprites/Animated Tree1_frame3.png" width="128" height="192"/>
  </tile>
  <tile id="1918">
   <image source="tiled/ERW-Grass Land/Props/Atlas-Props-individual sprites/Animated Tree1_frame4.png" width="128" height="192"/>
  </tile>
  <tile id="1919">
   <image source="tiled/ERW-Grass Land/Props/Atlas-Props-individual sprites/Animated Tree1_frame5.png" width="128" height="192"/>
  </tile>
  <tile id="1920">
   <image source="tiled/ERW-Grass Land/Props/Atlas-Props-individual sprites/Animated Tree1_frame6.png" width="128" height="192"/>
  </tile>
  <tile id="1921">
   <image source="tiled/ERW-Grass Land/Props/Atlas-Props-individual sprites/Animated Tree1_frame7.png" width="128" height="192"/>
  </tile>
  <tile id="1922">
   <image source="tiled/ERW-Grass Land/Props/Atlas-Props-individual sprites/Animated Tree1_frame8.png" width="128" height="192"/>
  </tile>
  <tile id="1923">
   <image source="tiled/ERW-Grass Land/Props/Atlas-Props-individual sprites/Animated Tree2_frame1.png" width="128" height="192"/>
   <animation>
    <frame tileid="1923" duration="100"/>
    <frame tileid="1924" duration="100"/>
    <frame tileid="1925" duration="100"/>
    <frame tileid="1926" duration="100"/>
    <frame tileid="1927" duration="100"/>
    <frame tileid="1928" duration="100"/>
    <frame tileid="1929" duration="100"/>
    <frame tileid="1930" duration="100"/>
   </animation>
  </tile>
  <tile id="1924">
   <image source="tiled/ERW-Grass Land/Props/Atlas-Props-individual sprites/Animated Tree2_frame2.png" width="128" height="192"/>
  </tile>
  <tile id="1925">
   <image source="tiled/ERW-Grass Land/Props/Atlas-Props-individual sprites/Animated Tree2_frame3.png" width="128" height="192"/>
  </tile>
  <tile id="1926">
   <image source="tiled/ERW-Grass Land/Props/Atlas-Props-individual sprites/Animated Tree2_frame4.png" width="128" height="192"/>
  </tile>
  <tile id="1927">
   <image source="tiled/ERW-Grass Land/Props/Atlas-Props-individual sprites/Animated Tree2_frame5.png" width="128" height="192"/>
  </tile>
  <tile id="1928">
   <image source="tiled/ERW-Grass Land/Props/Atlas-Props-individual sprites/Animated Tree2_frame6.png" width="128" height="192"/>
  </tile>
  <tile id="1929">
   <image source="tiled/ERW-Grass Land/Props/Atlas-Props-individual sprites/Animated Tree2_frame7.png" width="128" height="192"/>
  </tile>
  <tile id="1930">
   <image source="tiled/ERW-Grass Land/Props/Atlas-Props-individual sprites/Animated Tree2_frame8.png" width="128" height="192"/>
  </tile>
  <tile id="1931">
   <image source="tiled/ERW-Grass Land/Props/Atlas-Props-individual sprites/anvil-shine_frame1.png" width="64" height="64"/>
   <animation>
    <frame tileid="1931" duration="100"/>
    <frame tileid="1932" duration="100"/>
    <frame tileid="1933" duration="100"/>
    <frame tileid="1934" duration="100"/>
    <frame tileid="1935" duration="100"/>
    <frame tileid="1936" duration="100"/>
   </animation>
  </tile>
  <tile id="1932">
   <image source="tiled/ERW-Grass Land/Props/Atlas-Props-individual sprites/anvil-shine_frame2.png" width="64" height="64"/>
  </tile>
  <tile id="1933">
   <image source="tiled/ERW-Grass Land/Props/Atlas-Props-individual sprites/anvil-shine_frame3.png" width="64" height="64"/>
  </tile>
  <tile id="1934">
   <image source="tiled/ERW-Grass Land/Props/Atlas-Props-individual sprites/anvil-shine_frame4.png" width="64" height="64"/>
  </tile>
  <tile id="1935">
   <image source="tiled/ERW-Grass Land/Props/Atlas-Props-individual sprites/anvil-shine_frame5.png" width="64" height="64"/>
  </tile>
  <tile id="1936">
   <image source="tiled/ERW-Grass Land/Props/Atlas-Props-individual sprites/anvil-shine_frame6.png" width="64" height="64"/>
  </tile>
  <tile id="1937">
   <image source="tiled/ERW-Grass Land/Props/Atlas-Props-individual sprites/blacksmith sign_frame1.png" width="32" height="36"/>
   <animation>
    <frame tileid="1937" duration="100"/>
    <frame tileid="1938" duration="100"/>
    <frame tileid="1939" duration="100"/>
    <frame tileid="1940" duration="100"/>
    <frame tileid="1941" duration="100"/>
    <frame tileid="1942" duration="100"/>
    <frame tileid="1943" duration="100"/>
    <frame tileid="1944" duration="100"/>
    <frame tileid="1945" duration="100"/>
    <frame tileid="1946" duration="100"/>
    <frame tileid="1947" duration="100"/>
    <frame tileid="1948" duration="100"/>
    <frame tileid="1949" duration="100"/>
    <frame tileid="1950" duration="100"/>
    <frame tileid="1951" duration="100"/>
    <frame tileid="1952" duration="100"/>
   </animation>
  </tile>
  <tile id="1938">
   <image source="tiled/ERW-Grass Land/Props/Atlas-Props-individual sprites/blacksmith sign_frame2.png" width="32" height="36"/>
  </tile>
  <tile id="1939">
   <image source="tiled/ERW-Grass Land/Props/Atlas-Props-individual sprites/blacksmith sign_frame3.png" width="32" height="36"/>
  </tile>
  <tile id="1940">
   <image source="tiled/ERW-Grass Land/Props/Atlas-Props-individual sprites/blacksmith sign_frame4.png" width="32" height="36"/>
  </tile>
  <tile id="1941">
   <image source="tiled/ERW-Grass Land/Props/Atlas-Props-individual sprites/blacksmith sign_frame5.png" width="32" height="36"/>
  </tile>
  <tile id="1942">
   <image source="tiled/ERW-Grass Land/Props/Atlas-Props-individual sprites/blacksmith sign_frame6.png" width="32" height="36"/>
  </tile>
  <tile id="1943">
   <image source="tiled/ERW-Grass Land/Props/Atlas-Props-individual sprites/blacksmith sign_frame7.png" width="32" height="36"/>
  </tile>
  <tile id="1944">
   <image source="tiled/ERW-Grass Land/Props/Atlas-Props-individual sprites/blacksmith sign_frame8.png" width="32" height="36"/>
  </tile>
  <tile id="1945">
   <image source="tiled/ERW-Grass Land/Props/Atlas-Props-individual sprites/blacksmith sign_frame9.png" width="32" height="36"/>
  </tile>
  <tile id="1946">
   <image source="tiled/ERW-Grass Land/Props/Atlas-Props-individual sprites/blacksmith sign_frame10.png" width="32" height="36"/>
  </tile>
  <tile id="1947">
   <image source="tiled/ERW-Grass Land/Props/Atlas-Props-individual sprites/blacksmith sign_frame11.png" width="32" height="36"/>
  </tile>
  <tile id="1948">
   <image source="tiled/ERW-Grass Land/Props/Atlas-Props-individual sprites/blacksmith sign_frame12.png" width="32" height="36"/>
  </tile>
  <tile id="1949">
   <image source="tiled/ERW-Grass Land/Props/Atlas-Props-individual sprites/blacksmith sign_frame13.png" width="32" height="36"/>
  </tile>
  <tile id="1950">
   <image source="tiled/ERW-Grass Land/Props/Atlas-Props-individual sprites/blacksmith sign_frame14.png" width="32" height="36"/>
  </tile>
  <tile id="1951">
   <image source="tiled/ERW-Grass Land/Props/Atlas-Props-individual sprites/blacksmith sign_frame15.png" width="32" height="36"/>
  </tile>
  <tile id="1952">
   <image source="tiled/ERW-Grass Land/Props/Atlas-Props-individual sprites/blacksmith sign_frame16.png" width="32" height="36"/>
  </tile>
  <tile id="1953">
   <image source="tiled/ERW-Grass Land/Props/Atlas-Props-individual sprites/campfire1_frame1.png" width="128" height="128"/>
   <animation>
    <frame tileid="1953" duration="100"/>
    <frame tileid="1954" duration="100"/>
    <frame tileid="1955" duration="100"/>
    <frame tileid="1956" duration="100"/>
    <frame tileid="1957" duration="100"/>
    <frame tileid="1958" duration="100"/>
    <frame tileid="1959" duration="100"/>
    <frame tileid="1960" duration="100"/>
   </animation>
  </tile>
  <tile id="1954">
   <image source="tiled/ERW-Grass Land/Props/Atlas-Props-individual sprites/campfire1_frame2.png" width="128" height="128"/>
  </tile>
  <tile id="1955">
   <image source="tiled/ERW-Grass Land/Props/Atlas-Props-individual sprites/campfire1_frame3.png" width="128" height="128"/>
  </tile>
  <tile id="1956">
   <image source="tiled/ERW-Grass Land/Props/Atlas-Props-individual sprites/campfire1_frame4.png" width="128" height="128"/>
  </tile>
  <tile id="1957">
   <image source="tiled/ERW-Grass Land/Props/Atlas-Props-individual sprites/campfire1_frame5.png" width="128" height="128"/>
  </tile>
  <tile id="1958">
   <image source="tiled/ERW-Grass Land/Props/Atlas-Props-individual sprites/campfire1_frame6.png" width="128" height="128"/>
  </tile>
  <tile id="1959">
   <image source="tiled/ERW-Grass Land/Props/Atlas-Props-individual sprites/campfire1_frame7.png" width="128" height="128"/>
  </tile>
  <tile id="1960">
   <image source="tiled/ERW-Grass Land/Props/Atlas-Props-individual sprites/campfire1_frame8.png" width="128" height="128"/>
  </tile>
  <tile id="1961">
   <image source="tiled/ERW-Grass Land/Props/Atlas-Props-individual sprites/campfire2_frame1.png" width="128" height="128"/>
   <animation>
    <frame tileid="1961" duration="100"/>
    <frame tileid="1962" duration="100"/>
    <frame tileid="1963" duration="100"/>
    <frame tileid="1964" duration="100"/>
    <frame tileid="1965" duration="100"/>
    <frame tileid="1966" duration="100"/>
    <frame tileid="1967" duration="100"/>
    <frame tileid="1968" duration="100"/>
   </animation>
  </tile>
  <tile id="1962">
   <image source="tiled/ERW-Grass Land/Props/Atlas-Props-individual sprites/campfire2_frame2.png" width="128" height="128"/>
  </tile>
  <tile id="1963">
   <image source="tiled/ERW-Grass Land/Props/Atlas-Props-individual sprites/campfire2_frame3.png" width="128" height="128"/>
  </tile>
  <tile id="1964">
   <image source="tiled/ERW-Grass Land/Props/Atlas-Props-individual sprites/campfire2_frame4.png" width="128" height="128"/>
  </tile>
  <tile id="1965">
   <image source="tiled/ERW-Grass Land/Props/Atlas-Props-individual sprites/campfire2_frame5.png" width="128" height="128"/>
  </tile>
  <tile id="1966">
   <image source="tiled/ERW-Grass Land/Props/Atlas-Props-individual sprites/campfire2_frame6.png" width="128" height="128"/>
  </tile>
  <tile id="1967">
   <image source="tiled/ERW-Grass Land/Props/Atlas-Props-individual sprites/campfire2_frame7.png" width="128" height="128"/>
  </tile>
  <tile id="1968">
   <image source="tiled/ERW-Grass Land/Props/Atlas-Props-individual sprites/campfire2_frame8.png" width="128" height="128"/>
  </tile>
  <tile id="1969">
   <image source="tiled/ERW-Grass Land/Props/Atlas-Props-individual sprites/chest-closing_frame1.png" width="64" height="64"/>
   <animation>
    <frame tileid="1969" duration="100"/>
    <frame tileid="1970" duration="100"/>
    <frame tileid="1971" duration="100"/>
    <frame tileid="1972" duration="100"/>
    <frame tileid="1973" duration="100"/>
    <frame tileid="1974" duration="100"/>
    <frame tileid="1975" duration="100"/>
    <frame tileid="1976" duration="100"/>
    <frame tileid="1977" duration="100"/>
    <frame tileid="1978" duration="100"/>
    <frame tileid="1979" duration="100"/>
   </animation>
  </tile>
  <tile id="1970">
   <image source="tiled/ERW-Grass Land/Props/Atlas-Props-individual sprites/chest-closing_frame2.png" width="64" height="64"/>
  </tile>
  <tile id="1971">
   <image source="tiled/ERW-Grass Land/Props/Atlas-Props-individual sprites/chest-closing_frame3.png" width="64" height="64"/>
  </tile>
  <tile id="1972">
   <image source="tiled/ERW-Grass Land/Props/Atlas-Props-individual sprites/chest-closing_frame4.png" width="64" height="64"/>
  </tile>
  <tile id="1973">
   <image source="tiled/ERW-Grass Land/Props/Atlas-Props-individual sprites/chest-closing_frame5.png" width="64" height="64"/>
  </tile>
  <tile id="1974">
   <image source="tiled/ERW-Grass Land/Props/Atlas-Props-individual sprites/chest-closing_frame6.png" width="64" height="64"/>
  </tile>
  <tile id="1975">
   <image source="tiled/ERW-Grass Land/Props/Atlas-Props-individual sprites/chest-closing_frame7.png" width="64" height="64"/>
  </tile>
  <tile id="1976">
   <image source="tiled/ERW-Grass Land/Props/Atlas-Props-individual sprites/chest-closing_frame8.png" width="64" height="64"/>
  </tile>
  <tile id="1977">
   <image source="tiled/ERW-Grass Land/Props/Atlas-Props-individual sprites/chest-closing_frame9.png" width="64" height="64"/>
  </tile>
  <tile id="1978">
   <image source="tiled/ERW-Grass Land/Props/Atlas-Props-individual sprites/chest-closing_frame10.png" width="64" height="64"/>
  </tile>
  <tile id="1979">
   <image source="tiled/ERW-Grass Land/Props/Atlas-Props-individual sprites/chest-closing_frame11.png" width="64" height="64"/>
  </tile>
  <tile id="1980">
   <image source="tiled/ERW-Grass Land/Props/Atlas-Props-individual sprites/chest-opening1_frame1.png" width="64" height="64"/>
   <animation>
    <frame tileid="1980" duration="100"/>
    <frame tileid="1981" duration="100"/>
    <frame tileid="1982" duration="100"/>
    <frame tileid="1983" duration="100"/>
    <frame tileid="1984" duration="100"/>
    <frame tileid="1985" duration="100"/>
    <frame tileid="1986" duration="100"/>
    <frame tileid="1987" duration="100"/>
    <frame tileid="1988" duration="100"/>
    <frame tileid="1989" duration="100"/>
    <frame tileid="1990" duration="100"/>
    <frame tileid="1991" duration="100"/>
    <frame tileid="1992" duration="100"/>
   </animation>
  </tile>
  <tile id="1981">
   <image source="tiled/ERW-Grass Land/Props/Atlas-Props-individual sprites/chest-opening1_frame2.png" width="64" height="64"/>
  </tile>
  <tile id="1982">
   <image source="tiled/ERW-Grass Land/Props/Atlas-Props-individual sprites/chest-opening1_frame3.png" width="64" height="64"/>
  </tile>
  <tile id="1983">
   <image source="tiled/ERW-Grass Land/Props/Atlas-Props-individual sprites/chest-opening1_frame4.png" width="64" height="64"/>
  </tile>
  <tile id="1984">
   <image source="tiled/ERW-Grass Land/Props/Atlas-Props-individual sprites/chest-opening1_frame5.png" width="64" height="64"/>
  </tile>
  <tile id="1985">
   <image source="tiled/ERW-Grass Land/Props/Atlas-Props-individual sprites/chest-opening1_frame6.png" width="64" height="64"/>
  </tile>
  <tile id="1986">
   <image source="tiled/ERW-Grass Land/Props/Atlas-Props-individual sprites/chest-opening1_frame7.png" width="64" height="64"/>
  </tile>
  <tile id="1987">
   <image source="tiled/ERW-Grass Land/Props/Atlas-Props-individual sprites/chest-opening1_frame8.png" width="64" height="64"/>
  </tile>
  <tile id="1988">
   <image source="tiled/ERW-Grass Land/Props/Atlas-Props-individual sprites/chest-opening1_frame9.png" width="64" height="64"/>
  </tile>
  <tile id="1989">
   <image source="tiled/ERW-Grass Land/Props/Atlas-Props-individual sprites/chest-opening1_frame10.png" width="64" height="64"/>
  </tile>
  <tile id="1990">
   <image source="tiled/ERW-Grass Land/Props/Atlas-Props-individual sprites/chest-opening1_frame11.png" width="64" height="64"/>
  </tile>
  <tile id="1991">
   <image source="tiled/ERW-Grass Land/Props/Atlas-Props-individual sprites/chest-opening1_frame12.png" width="64" height="64"/>
  </tile>
  <tile id="1992">
   <image source="tiled/ERW-Grass Land/Props/Atlas-Props-individual sprites/chest-opening1_frame13.png" width="64" height="64"/>
  </tile>
  <tile id="1993">
   <image source="tiled/ERW-Grass Land/Props/Atlas-Props-individual sprites/chest-opening2_frame1.png" width="64" height="64"/>
   <animation>
    <frame tileid="1993" duration="100"/>
    <frame tileid="1994" duration="100"/>
    <frame tileid="1995" duration="100"/>
    <frame tileid="1996" duration="100"/>
    <frame tileid="1997" duration="100"/>
    <frame tileid="1998" duration="100"/>
    <frame tileid="1999" duration="100"/>
    <frame tileid="2000" duration="100"/>
    <frame tileid="2001" duration="100"/>
    <frame tileid="2002" duration="100"/>
    <frame tileid="2003" duration="100"/>
    <frame tileid="2004" duration="100"/>
    <frame tileid="2005" duration="100"/>
    <frame tileid="2006" duration="100"/>
   </animation>
  </tile>
  <tile id="1994">
   <image source="tiled/ERW-Grass Land/Props/Atlas-Props-individual sprites/chest-opening2_frame2.png" width="64" height="64"/>
  </tile>
  <tile id="1995">
   <image source="tiled/ERW-Grass Land/Props/Atlas-Props-individual sprites/chest-opening2_frame3.png" width="64" height="64"/>
  </tile>
  <tile id="1996">
   <image source="tiled/ERW-Grass Land/Props/Atlas-Props-individual sprites/chest-opening2_frame4.png" width="64" height="64"/>
  </tile>
  <tile id="1997">
   <image source="tiled/ERW-Grass Land/Props/Atlas-Props-individual sprites/chest-opening2_frame5.png" width="64" height="64"/>
  </tile>
  <tile id="1998">
   <image source="tiled/ERW-Grass Land/Props/Atlas-Props-individual sprites/chest-opening2_frame6.png" width="64" height="64"/>
  </tile>
  <tile id="1999">
   <image source="tiled/ERW-Grass Land/Props/Atlas-Props-individual sprites/chest-opening2_frame7.png" width="64" height="64"/>
  </tile>
  <tile id="2000">
   <image source="tiled/ERW-Grass Land/Props/Atlas-Props-individual sprites/chest-opening2_frame8.png" width="64" height="64"/>
  </tile>
  <tile id="2001">
   <image source="tiled/ERW-Grass Land/Props/Atlas-Props-individual sprites/chest-opening2_frame9.png" width="64" height="64"/>
  </tile>
  <tile id="2002">
   <image source="tiled/ERW-Grass Land/Props/Atlas-Props-individual sprites/chest-opening2_frame10.png" width="64" height="64"/>
  </tile>
  <tile id="2003">
   <image source="tiled/ERW-Grass Land/Props/Atlas-Props-individual sprites/chest-opening2_frame11.png" width="64" height="64"/>
  </tile>
  <tile id="2004">
   <image source="tiled/ERW-Grass Land/Props/Atlas-Props-individual sprites/chest-opening2_frame12.png" width="64" height="64"/>
  </tile>
  <tile id="2005">
   <image source="tiled/ERW-Grass Land/Props/Atlas-Props-individual sprites/chest-opening2_frame13.png" width="64" height="64"/>
  </tile>
  <tile id="2006">
   <image source="tiled/ERW-Grass Land/Props/Atlas-Props-individual sprites/chest-opening2_frame14.png" width="64" height="64"/>
  </tile>
  <tile id="2007">
   <image source="tiled/ERW-Grass Land/Props/Atlas-Props-individual sprites/door1-opening_frame1.png" width="96" height="96"/>
   <animation>
    <frame tileid="2007" duration="100"/>
    <frame tileid="2008" duration="100"/>
    <frame tileid="2009" duration="100"/>
    <frame tileid="2010" duration="100"/>
    <frame tileid="2011" duration="100"/>
    <frame tileid="2012" duration="100"/>
    <frame tileid="2013" duration="100"/>
    <frame tileid="2014" duration="100"/>
    <frame tileid="2015" duration="100"/>
    <frame tileid="2016" duration="100"/>
    <frame tileid="2017" duration="100"/>
    <frame tileid="2018" duration="100"/>
   </animation>
  </tile>
  <tile id="2008">
   <image source="tiled/ERW-Grass Land/Props/Atlas-Props-individual sprites/door1-opening_frame2.png" width="96" height="96"/>
  </tile>
  <tile id="2009">
   <image source="tiled/ERW-Grass Land/Props/Atlas-Props-individual sprites/door1-opening_frame3.png" width="96" height="96"/>
  </tile>
  <tile id="2010">
   <image source="tiled/ERW-Grass Land/Props/Atlas-Props-individual sprites/door1-opening_frame4.png" width="96" height="96"/>
  </tile>
  <tile id="2011">
   <image source="tiled/ERW-Grass Land/Props/Atlas-Props-individual sprites/door1-opening_frame5.png" width="96" height="96"/>
  </tile>
  <tile id="2012">
   <image source="tiled/ERW-Grass Land/Props/Atlas-Props-individual sprites/door1-opening_frame6.png" width="96" height="96"/>
  </tile>
  <tile id="2013">
   <image source="tiled/ERW-Grass Land/Props/Atlas-Props-individual sprites/door1-opening_frame7.png" width="96" height="96"/>
  </tile>
  <tile id="2014">
   <image source="tiled/ERW-Grass Land/Props/Atlas-Props-individual sprites/door1-opening_frame8.png" width="96" height="96"/>
  </tile>
  <tile id="2015">
   <image source="tiled/ERW-Grass Land/Props/Atlas-Props-individual sprites/door1-opening_frame9.png" width="96" height="96"/>
  </tile>
  <tile id="2016">
   <image source="tiled/ERW-Grass Land/Props/Atlas-Props-individual sprites/door1-opening_frame10.png" width="96" height="96"/>
  </tile>
  <tile id="2017">
   <image source="tiled/ERW-Grass Land/Props/Atlas-Props-individual sprites/door1-opening_frame11.png" width="96" height="96"/>
  </tile>
  <tile id="2018">
   <image source="tiled/ERW-Grass Land/Props/Atlas-Props-individual sprites/door1-opening_frame12.png" width="96" height="96"/>
  </tile>
  <tile id="2019">
   <image source="tiled/ERW-Grass Land/Props/Atlas-Props-individual sprites/door2-opening_frame1.png" width="96" height="96"/>
   <animation>
    <frame tileid="2019" duration="100"/>
    <frame tileid="2020" duration="100"/>
    <frame tileid="2021" duration="100"/>
    <frame tileid="2022" duration="100"/>
    <frame tileid="2023" duration="100"/>
    <frame tileid="2024" duration="100"/>
    <frame tileid="2025" duration="100"/>
    <frame tileid="2026" duration="100"/>
    <frame tileid="2027" duration="100"/>
    <frame tileid="2028" duration="100"/>
    <frame tileid="2029" duration="100"/>
    <frame tileid="2030" duration="100"/>
    <frame tileid="2031" duration="100"/>
   </animation>
  </tile>
  <tile id="2020">
   <image source="tiled/ERW-Grass Land/Props/Atlas-Props-individual sprites/door2-opening_frame2.png" width="96" height="96"/>
  </tile>
  <tile id="2021">
   <image source="tiled/ERW-Grass Land/Props/Atlas-Props-individual sprites/door2-opening_frame3.png" width="96" height="96"/>
  </tile>
  <tile id="2022">
   <image source="tiled/ERW-Grass Land/Props/Atlas-Props-individual sprites/door2-opening_frame4.png" width="96" height="96"/>
  </tile>
  <tile id="2023">
   <image source="tiled/ERW-Grass Land/Props/Atlas-Props-individual sprites/door2-opening_frame5.png" width="96" height="96"/>
  </tile>
  <tile id="2024">
   <image source="tiled/ERW-Grass Land/Props/Atlas-Props-individual sprites/door2-opening_frame6.png" width="96" height="96"/>
  </tile>
  <tile id="2025">
   <image source="tiled/ERW-Grass Land/Props/Atlas-Props-individual sprites/door2-opening_frame7.png" width="96" height="96"/>
  </tile>
  <tile id="2026">
   <image source="tiled/ERW-Grass Land/Props/Atlas-Props-individual sprites/door2-opening_frame8.png" width="96" height="96"/>
  </tile>
  <tile id="2027">
   <image source="tiled/ERW-Grass Land/Props/Atlas-Props-individual sprites/door2-opening_frame9.png" width="96" height="96"/>
  </tile>
  <tile id="2028">
   <image source="tiled/ERW-Grass Land/Props/Atlas-Props-individual sprites/door2-opening_frame10.png" width="96" height="96"/>
  </tile>
  <tile id="2029">
   <image source="tiled/ERW-Grass Land/Props/Atlas-Props-individual sprites/door2-opening_frame11.png" width="96" height="96"/>
  </tile>
  <tile id="2030">
   <image source="tiled/ERW-Grass Land/Props/Atlas-Props-individual sprites/door2-opening_frame12.png" width="96" height="96"/>
  </tile>
  <tile id="2031">
   <image source="tiled/ERW-Grass Land/Props/Atlas-Props-individual sprites/door2-opening_frame13.png" width="96" height="96"/>
  </tile>
  <tile id="2032">
   <image source="tiled/ERW-Grass Land/Props/Atlas-Props-individual sprites/forge chimney-smoke1_frame1.png" width="64" height="82"/>
   <animation>
    <frame tileid="2032" duration="100"/>
    <frame tileid="2033" duration="100"/>
    <frame tileid="2034" duration="100"/>
    <frame tileid="2035" duration="100"/>
    <frame tileid="2036" duration="100"/>
    <frame tileid="2037" duration="100"/>
    <frame tileid="2038" duration="100"/>
    <frame tileid="2039" duration="100"/>
    <frame tileid="2040" duration="100"/>
    <frame tileid="2041" duration="100"/>
    <frame tileid="2042" duration="100"/>
    <frame tileid="2043" duration="100"/>
    <frame tileid="2044" duration="100"/>
    <frame tileid="2045" duration="100"/>
    <frame tileid="2046" duration="100"/>
    <frame tileid="2047" duration="100"/>
   </animation>
  </tile>
  <tile id="2033">
   <image source="tiled/ERW-Grass Land/Props/Atlas-Props-individual sprites/forge chimney-smoke1_frame2.png" width="64" height="82"/>
  </tile>
  <tile id="2034">
   <image source="tiled/ERW-Grass Land/Props/Atlas-Props-individual sprites/forge chimney-smoke1_frame3.png" width="64" height="82"/>
  </tile>
  <tile id="2035">
   <image source="tiled/ERW-Grass Land/Props/Atlas-Props-individual sprites/forge chimney-smoke1_frame4.png" width="64" height="82"/>
  </tile>
  <tile id="2036">
   <image source="tiled/ERW-Grass Land/Props/Atlas-Props-individual sprites/forge chimney-smoke1_frame5.png" width="64" height="82"/>
  </tile>
  <tile id="2037">
   <image source="tiled/ERW-Grass Land/Props/Atlas-Props-individual sprites/forge chimney-smoke1_frame6.png" width="64" height="82"/>
  </tile>
  <tile id="2038">
   <image source="tiled/ERW-Grass Land/Props/Atlas-Props-individual sprites/forge chimney-smoke1_frame7.png" width="64" height="82"/>
  </tile>
  <tile id="2039">
   <image source="tiled/ERW-Grass Land/Props/Atlas-Props-individual sprites/forge chimney-smoke1_frame8.png" width="64" height="82"/>
  </tile>
  <tile id="2040">
   <image source="tiled/ERW-Grass Land/Props/Atlas-Props-individual sprites/forge chimney-smoke1_frame9.png" width="64" height="82"/>
  </tile>
  <tile id="2041">
   <image source="tiled/ERW-Grass Land/Props/Atlas-Props-individual sprites/forge chimney-smoke1_frame10.png" width="64" height="82"/>
  </tile>
  <tile id="2042">
   <image source="tiled/ERW-Grass Land/Props/Atlas-Props-individual sprites/forge chimney-smoke1_frame11.png" width="64" height="82"/>
  </tile>
  <tile id="2043">
   <image source="tiled/ERW-Grass Land/Props/Atlas-Props-individual sprites/forge chimney-smoke1_frame12.png" width="64" height="82"/>
  </tile>
  <tile id="2044">
   <image source="tiled/ERW-Grass Land/Props/Atlas-Props-individual sprites/forge chimney-smoke1_frame13.png" width="64" height="82"/>
  </tile>
  <tile id="2045">
   <image source="tiled/ERW-Grass Land/Props/Atlas-Props-individual sprites/forge chimney-smoke1_frame14.png" width="64" height="82"/>
  </tile>
  <tile id="2046">
   <image source="tiled/ERW-Grass Land/Props/Atlas-Props-individual sprites/forge chimney-smoke1_frame15.png" width="64" height="82"/>
  </tile>
  <tile id="2047">
   <image source="tiled/ERW-Grass Land/Props/Atlas-Props-individual sprites/forge chimney-smoke1_frame16.png" width="64" height="82"/>
  </tile>
  <tile id="2048">
   <image source="tiled/ERW-Grass Land/Props/Atlas-Props-individual sprites/forge chimney-smoke2_frame1.png" width="64" height="82"/>
   <animation>
    <frame tileid="2048" duration="100"/>
    <frame tileid="2049" duration="100"/>
    <frame tileid="2050" duration="100"/>
    <frame tileid="2051" duration="100"/>
    <frame tileid="2052" duration="100"/>
    <frame tileid="2053" duration="100"/>
    <frame tileid="2054" duration="100"/>
    <frame tileid="2055" duration="100"/>
    <frame tileid="2056" duration="100"/>
    <frame tileid="2057" duration="100"/>
    <frame tileid="2058" duration="100"/>
    <frame tileid="2059" duration="100"/>
    <frame tileid="2060" duration="100"/>
    <frame tileid="2061" duration="100"/>
    <frame tileid="2062" duration="100"/>
    <frame tileid="2063" duration="100"/>
    <frame tileid="2064" duration="100"/>
    <frame tileid="2065" duration="100"/>
    <frame tileid="2066" duration="100"/>
    <frame tileid="2067" duration="100"/>
    <frame tileid="2068" duration="100"/>
   </animation>
  </tile>
  <tile id="2049">
   <image source="tiled/ERW-Grass Land/Props/Atlas-Props-individual sprites/forge chimney-smoke2_frame2.png" width="64" height="82"/>
  </tile>
  <tile id="2050">
   <image source="tiled/ERW-Grass Land/Props/Atlas-Props-individual sprites/forge chimney-smoke2_frame3.png" width="64" height="82"/>
  </tile>
  <tile id="2051">
   <image source="tiled/ERW-Grass Land/Props/Atlas-Props-individual sprites/forge chimney-smoke2_frame4.png" width="64" height="82"/>
  </tile>
  <tile id="2052">
   <image source="tiled/ERW-Grass Land/Props/Atlas-Props-individual sprites/forge chimney-smoke2_frame5.png" width="64" height="82"/>
  </tile>
  <tile id="2053">
   <image source="tiled/ERW-Grass Land/Props/Atlas-Props-individual sprites/forge chimney-smoke2_frame6.png" width="64" height="82"/>
  </tile>
  <tile id="2054">
   <image source="tiled/ERW-Grass Land/Props/Atlas-Props-individual sprites/forge chimney-smoke2_frame7.png" width="64" height="82"/>
  </tile>
  <tile id="2055">
   <image source="tiled/ERW-Grass Land/Props/Atlas-Props-individual sprites/forge chimney-smoke2_frame8.png" width="64" height="82"/>
  </tile>
  <tile id="2056">
   <image source="tiled/ERW-Grass Land/Props/Atlas-Props-individual sprites/forge chimney-smoke2_frame9.png" width="64" height="82"/>
  </tile>
  <tile id="2057">
   <image source="tiled/ERW-Grass Land/Props/Atlas-Props-individual sprites/forge chimney-smoke2_frame10.png" width="64" height="82"/>
  </tile>
  <tile id="2058">
   <image source="tiled/ERW-Grass Land/Props/Atlas-Props-individual sprites/forge chimney-smoke2_frame11.png" width="64" height="82"/>
  </tile>
  <tile id="2059">
   <image source="tiled/ERW-Grass Land/Props/Atlas-Props-individual sprites/forge chimney-smoke2_frame12.png" width="64" height="82"/>
  </tile>
  <tile id="2060">
   <image source="tiled/ERW-Grass Land/Props/Atlas-Props-individual sprites/forge chimney-smoke2_frame13.png" width="64" height="82"/>
  </tile>
  <tile id="2061">
   <image source="tiled/ERW-Grass Land/Props/Atlas-Props-individual sprites/forge chimney-smoke2_frame14.png" width="64" height="82"/>
  </tile>
  <tile id="2062">
   <image source="tiled/ERW-Grass Land/Props/Atlas-Props-individual sprites/forge chimney-smoke2_frame15.png" width="64" height="82"/>
  </tile>
  <tile id="2063">
   <image source="tiled/ERW-Grass Land/Props/Atlas-Props-individual sprites/forge chimney-smoke2_frame16.png" width="64" height="82"/>
  </tile>
  <tile id="2064">
   <image source="tiled/ERW-Grass Land/Props/Atlas-Props-individual sprites/forge chimney-smoke2_frame17.png" width="64" height="82"/>
  </tile>
  <tile id="2065">
   <image source="tiled/ERW-Grass Land/Props/Atlas-Props-individual sprites/forge chimney-smoke2_frame18.png" width="64" height="82"/>
  </tile>
  <tile id="2066">
   <image source="tiled/ERW-Grass Land/Props/Atlas-Props-individual sprites/forge chimney-smoke2_frame19.png" width="64" height="82"/>
  </tile>
  <tile id="2067">
   <image source="tiled/ERW-Grass Land/Props/Atlas-Props-individual sprites/forge chimney-smoke2_frame20.png" width="64" height="82"/>
  </tile>
  <tile id="2068">
   <image source="tiled/ERW-Grass Land/Props/Atlas-Props-individual sprites/forge chimney-smoke2_frame21.png" width="64" height="82"/>
  </tile>
  <tile id="2069">
   <image source="tiled/ERW-Grass Land/Props/Atlas-Props-individual sprites/forge1-anim1_frame1.png" width="64" height="96"/>
   <animation>
    <frame tileid="2069" duration="100"/>
    <frame tileid="2070" duration="100"/>
    <frame tileid="2071" duration="100"/>
    <frame tileid="2072" duration="100"/>
    <frame tileid="2073" duration="100"/>
    <frame tileid="2074" duration="100"/>
    <frame tileid="2075" duration="100"/>
    <frame tileid="2076" duration="100"/>
   </animation>
  </tile>
  <tile id="2070">
   <image source="tiled/ERW-Grass Land/Props/Atlas-Props-individual sprites/forge1-anim1_frame2.png" width="64" height="96"/>
  </tile>
  <tile id="2071">
   <image source="tiled/ERW-Grass Land/Props/Atlas-Props-individual sprites/forge1-anim1_frame3.png" width="64" height="96"/>
  </tile>
  <tile id="2072">
   <image source="tiled/ERW-Grass Land/Props/Atlas-Props-individual sprites/forge1-anim1_frame4.png" width="64" height="96"/>
  </tile>
  <tile id="2073">
   <image source="tiled/ERW-Grass Land/Props/Atlas-Props-individual sprites/forge1-anim1_frame5.png" width="64" height="96"/>
  </tile>
  <tile id="2074">
   <image source="tiled/ERW-Grass Land/Props/Atlas-Props-individual sprites/forge1-anim1_frame6.png" width="64" height="96"/>
  </tile>
  <tile id="2075">
   <image source="tiled/ERW-Grass Land/Props/Atlas-Props-individual sprites/forge1-anim1_frame7.png" width="64" height="96"/>
  </tile>
  <tile id="2076">
   <image source="tiled/ERW-Grass Land/Props/Atlas-Props-individual sprites/forge1-anim1_frame8.png" width="64" height="96"/>
  </tile>
  <tile id="2077">
   <image source="tiled/ERW-Grass Land/Props/Atlas-Props-individual sprites/forge1-anim2_frame1.png" width="64" height="96"/>
   <animation>
    <frame tileid="2077" duration="100"/>
    <frame tileid="2078" duration="100"/>
    <frame tileid="2079" duration="100"/>
    <frame tileid="2080" duration="100"/>
    <frame tileid="2081" duration="100"/>
    <frame tileid="2082" duration="100"/>
    <frame tileid="2083" duration="100"/>
    <frame tileid="2084" duration="100"/>
   </animation>
  </tile>
  <tile id="2078">
   <image source="tiled/ERW-Grass Land/Props/Atlas-Props-individual sprites/forge1-anim2_frame2.png" width="64" height="96"/>
  </tile>
  <tile id="2079">
   <image source="tiled/ERW-Grass Land/Props/Atlas-Props-individual sprites/forge1-anim2_frame3.png" width="64" height="96"/>
  </tile>
  <tile id="2080">
   <image source="tiled/ERW-Grass Land/Props/Atlas-Props-individual sprites/forge1-anim2_frame4.png" width="64" height="96"/>
  </tile>
  <tile id="2081">
   <image source="tiled/ERW-Grass Land/Props/Atlas-Props-individual sprites/forge1-anim2_frame5.png" width="64" height="96"/>
  </tile>
  <tile id="2082">
   <image source="tiled/ERW-Grass Land/Props/Atlas-Props-individual sprites/forge1-anim2_frame6.png" width="64" height="96"/>
  </tile>
  <tile id="2083">
   <image source="tiled/ERW-Grass Land/Props/Atlas-Props-individual sprites/forge1-anim2_frame7.png" width="64" height="96"/>
  </tile>
  <tile id="2084">
   <image source="tiled/ERW-Grass Land/Props/Atlas-Props-individual sprites/forge1-anim2_frame8.png" width="64" height="96"/>
  </tile>
  <tile id="2085">
   <image source="tiled/ERW-Grass Land/Props/Atlas-Props-individual sprites/forge2-anim1_frame1.png" width="64" height="96"/>
   <animation>
    <frame tileid="2085" duration="100"/>
    <frame tileid="2086" duration="100"/>
    <frame tileid="2087" duration="100"/>
    <frame tileid="2088" duration="100"/>
    <frame tileid="2089" duration="100"/>
    <frame tileid="2090" duration="100"/>
    <frame tileid="2091" duration="100"/>
    <frame tileid="2092" duration="100"/>
   </animation>
  </tile>
  <tile id="2086">
   <image source="tiled/ERW-Grass Land/Props/Atlas-Props-individual sprites/forge2-anim1_frame2.png" width="64" height="96"/>
  </tile>
  <tile id="2087">
   <image source="tiled/ERW-Grass Land/Props/Atlas-Props-individual sprites/forge2-anim1_frame3.png" width="64" height="96"/>
  </tile>
  <tile id="2088">
   <image source="tiled/ERW-Grass Land/Props/Atlas-Props-individual sprites/forge2-anim1_frame4.png" width="64" height="96"/>
  </tile>
  <tile id="2089">
   <image source="tiled/ERW-Grass Land/Props/Atlas-Props-individual sprites/forge2-anim1_frame5.png" width="64" height="96"/>
  </tile>
  <tile id="2090">
   <image source="tiled/ERW-Grass Land/Props/Atlas-Props-individual sprites/forge2-anim1_frame6.png" width="64" height="96"/>
  </tile>
  <tile id="2091">
   <image source="tiled/ERW-Grass Land/Props/Atlas-Props-individual sprites/forge2-anim1_frame7.png" width="64" height="96"/>
  </tile>
  <tile id="2092">
   <image source="tiled/ERW-Grass Land/Props/Atlas-Props-individual sprites/forge2-anim1_frame8.png" width="64" height="96"/>
  </tile>
  <tile id="2093">
   <image source="tiled/ERW-Grass Land/Props/Atlas-Props-individual sprites/forge2-anim2_frame1.png" width="64" height="96"/>
   <animation>
    <frame tileid="2093" duration="100"/>
    <frame tileid="2094" duration="100"/>
    <frame tileid="2095" duration="100"/>
    <frame tileid="2096" duration="100"/>
    <frame tileid="2097" duration="100"/>
    <frame tileid="2098" duration="100"/>
    <frame tileid="2099" duration="100"/>
    <frame tileid="2100" duration="100"/>
   </animation>
  </tile>
  <tile id="2094">
   <image source="tiled/ERW-Grass Land/Props/Atlas-Props-individual sprites/forge2-anim2_frame2.png" width="64" height="96"/>
  </tile>
  <tile id="2095">
   <image source="tiled/ERW-Grass Land/Props/Atlas-Props-individual sprites/forge2-anim2_frame3.png" width="64" height="96"/>
  </tile>
  <tile id="2096">
   <image source="tiled/ERW-Grass Land/Props/Atlas-Props-individual sprites/forge2-anim2_frame4.png" width="64" height="96"/>
  </tile>
  <tile id="2097">
   <image source="tiled/ERW-Grass Land/Props/Atlas-Props-individual sprites/forge2-anim2_frame5.png" width="64" height="96"/>
  </tile>
  <tile id="2098">
   <image source="tiled/ERW-Grass Land/Props/Atlas-Props-individual sprites/forge2-anim2_frame6.png" width="64" height="96"/>
  </tile>
  <tile id="2099">
   <image source="tiled/ERW-Grass Land/Props/Atlas-Props-individual sprites/forge2-anim2_frame7.png" width="64" height="96"/>
  </tile>
  <tile id="2100">
   <image source="tiled/ERW-Grass Land/Props/Atlas-Props-individual sprites/forge2-anim2_frame8.png" width="64" height="96"/>
  </tile>
  <tile id="2101">
   <image source="tiled/ERW-Grass Land/Props/Atlas-Props-individual sprites/shrines-activating_frame1.png" width="64" height="99"/>
   <animation>
    <frame tileid="2101" duration="100"/>
    <frame tileid="2102" duration="100"/>
    <frame tileid="2103" duration="100"/>
    <frame tileid="2104" duration="100"/>
    <frame tileid="2105" duration="100"/>
    <frame tileid="2106" duration="100"/>
    <frame tileid="2107" duration="100"/>
    <frame tileid="2108" duration="100"/>
    <frame tileid="2109" duration="100"/>
    <frame tileid="2110" duration="100"/>
    <frame tileid="2111" duration="100"/>
    <frame tileid="2112" duration="100"/>
    <frame tileid="2113" duration="100"/>
    <frame tileid="2114" duration="100"/>
   </animation>
  </tile>
  <tile id="2102">
   <image source="tiled/ERW-Grass Land/Props/Atlas-Props-individual sprites/shrines-activating_frame2.png" width="64" height="99"/>
  </tile>
  <tile id="2103">
   <image source="tiled/ERW-Grass Land/Props/Atlas-Props-individual sprites/shrines-activating_frame3.png" width="64" height="99"/>
  </tile>
  <tile id="2104">
   <image source="tiled/ERW-Grass Land/Props/Atlas-Props-individual sprites/shrines-activating_frame4.png" width="64" height="99"/>
  </tile>
  <tile id="2105">
   <image source="tiled/ERW-Grass Land/Props/Atlas-Props-individual sprites/shrines-activating_frame5.png" width="64" height="99"/>
  </tile>
  <tile id="2106">
   <image source="tiled/ERW-Grass Land/Props/Atlas-Props-individual sprites/shrines-activating_frame6.png" width="64" height="99"/>
  </tile>
  <tile id="2107">
   <image source="tiled/ERW-Grass Land/Props/Atlas-Props-individual sprites/shrines-activating_frame7.png" width="64" height="99"/>
  </tile>
  <tile id="2108">
   <image source="tiled/ERW-Grass Land/Props/Atlas-Props-individual sprites/shrines-activating_frame8.png" width="64" height="99"/>
  </tile>
  <tile id="2109">
   <image source="tiled/ERW-Grass Land/Props/Atlas-Props-individual sprites/shrines-activating_frame9.png" width="64" height="99"/>
  </tile>
  <tile id="2110">
   <image source="tiled/ERW-Grass Land/Props/Atlas-Props-individual sprites/shrines-activating_frame10.png" width="64" height="99"/>
  </tile>
  <tile id="2111">
   <image source="tiled/ERW-Grass Land/Props/Atlas-Props-individual sprites/shrines-activating_frame11.png" width="64" height="99"/>
  </tile>
  <tile id="2112">
   <image source="tiled/ERW-Grass Land/Props/Atlas-Props-individual sprites/shrines-activating_frame12.png" width="64" height="99"/>
  </tile>
  <tile id="2113">
   <image source="tiled/ERW-Grass Land/Props/Atlas-Props-individual sprites/shrines-activating_frame13.png" width="64" height="99"/>
  </tile>
  <tile id="2114">
   <image source="tiled/ERW-Grass Land/Props/Atlas-Props-individual sprites/shrines-activating_frame14.png" width="64" height="99"/>
  </tile>
  <tile id="2115">
   <image source="tiled/ERW-Grass Land/Props/Atlas-Props-individual sprites/shrines-available_frame1.png" width="64" height="99"/>
   <animation>
    <frame tileid="2115" duration="100"/>
    <frame tileid="2116" duration="100"/>
    <frame tileid="2117" duration="100"/>
    <frame tileid="2118" duration="100"/>
    <frame tileid="2119" duration="100"/>
    <frame tileid="2120" duration="100"/>
    <frame tileid="2121" duration="100"/>
    <frame tileid="2122" duration="100"/>
    <frame tileid="2123" duration="100"/>
    <frame tileid="2124" duration="100"/>
    <frame tileid="2125" duration="100"/>
    <frame tileid="2126" duration="100"/>
    <frame tileid="2127" duration="100"/>
    <frame tileid="2128" duration="100"/>
   </animation>
  </tile>
  <tile id="2116">
   <image source="tiled/ERW-Grass Land/Props/Atlas-Props-individual sprites/shrines-available_frame2.png" width="64" height="99"/>
  </tile>
  <tile id="2117">
   <image source="tiled/ERW-Grass Land/Props/Atlas-Props-individual sprites/shrines-available_frame3.png" width="64" height="99"/>
  </tile>
  <tile id="2118">
   <image source="tiled/ERW-Grass Land/Props/Atlas-Props-individual sprites/shrines-available_frame4.png" width="64" height="99"/>
  </tile>
  <tile id="2119">
   <image source="tiled/ERW-Grass Land/Props/Atlas-Props-individual sprites/shrines-available_frame5.png" width="64" height="99"/>
  </tile>
  <tile id="2120">
   <image source="tiled/ERW-Grass Land/Props/Atlas-Props-individual sprites/shrines-available_frame6.png" width="64" height="99"/>
  </tile>
  <tile id="2121">
   <image source="tiled/ERW-Grass Land/Props/Atlas-Props-individual sprites/shrines-available_frame7.png" width="64" height="99"/>
  </tile>
  <tile id="2122">
   <image source="tiled/ERW-Grass Land/Props/Atlas-Props-individual sprites/shrines-available_frame8.png" width="64" height="99"/>
  </tile>
  <tile id="2123">
   <image source="tiled/ERW-Grass Land/Props/Atlas-Props-individual sprites/shrines-available_frame9.png" width="64" height="99"/>
  </tile>
  <tile id="2124">
   <image source="tiled/ERW-Grass Land/Props/Atlas-Props-individual sprites/shrines-available_frame10.png" width="64" height="99"/>
  </tile>
  <tile id="2125">
   <image source="tiled/ERW-Grass Land/Props/Atlas-Props-individual sprites/shrines-available_frame11.png" width="64" height="99"/>
  </tile>
  <tile id="2126">
   <image source="tiled/ERW-Grass Land/Props/Atlas-Props-individual sprites/shrines-available_frame12.png" width="64" height="99"/>
  </tile>
  <tile id="2127">
   <image source="tiled/ERW-Grass Land/Props/Atlas-Props-individual sprites/shrines-available_frame13.png" width="64" height="99"/>
  </tile>
  <tile id="2128">
   <image source="tiled/ERW-Grass Land/Props/Atlas-Props-individual sprites/shrines-available_frame14.png" width="64" height="99"/>
  </tile>
  <tile id="2129">
   <image source="tiled/ERW-Grass Land/Props/Atlas-Props-individual sprites/sword sharpener_frame1.png" width="64" height="32"/>
   <animation>
    <frame tileid="2129" duration="100"/>
    <frame tileid="2130" duration="100"/>
    <frame tileid="2131" duration="100"/>
    <frame tileid="2132" duration="100"/>
   </animation>
  </tile>
  <tile id="2130">
   <image source="tiled/ERW-Grass Land/Props/Atlas-Props-individual sprites/sword sharpener_frame2.png" width="64" height="32"/>
  </tile>
  <tile id="2131">
   <image source="tiled/ERW-Grass Land/Props/Atlas-Props-individual sprites/sword sharpener_frame3.png" width="64" height="32"/>
  </tile>
  <tile id="2132">
   <image source="tiled/ERW-Grass Land/Props/Atlas-Props-individual sprites/sword sharpener_frame4.png" width="64" height="32"/>
  </tile>
  <tile id="2133">
   <image source="tiled/ERW-Grass Land/Props/Atlas-Props-individual sprites/water deposit_frame1.png" width="64" height="32"/>
   <animation>
    <frame tileid="2133" duration="100"/>
    <frame tileid="2134" duration="100"/>
    <frame tileid="2135" duration="100"/>
    <frame tileid="2136" duration="100"/>
    <frame tileid="2137" duration="100"/>
    <frame tileid="2138" duration="100"/>
    <frame tileid="2139" duration="100"/>
    <frame tileid="2140" duration="100"/>
   </animation>
  </tile>
  <tile id="2134">
   <image source="tiled/ERW-Grass Land/Props/Atlas-Props-individual sprites/water deposit_frame2.png" width="64" height="32"/>
  </tile>
  <tile id="2135">
   <image source="tiled/ERW-Grass Land/Props/Atlas-Props-individual sprites/water deposit_frame3.png" width="64" height="32"/>
  </tile>
  <tile id="2136">
   <image source="tiled/ERW-Grass Land/Props/Atlas-Props-individual sprites/water deposit_frame4.png" width="64" height="32"/>
  </tile>
  <tile id="2137">
   <image source="tiled/ERW-Grass Land/Props/Atlas-Props-individual sprites/water deposit_frame5.png" width="64" height="32"/>
  </tile>
  <tile id="2138">
   <image source="tiled/ERW-Grass Land/Props/Atlas-Props-individual sprites/water deposit_frame6.png" width="64" height="32"/>
  </tile>
  <tile id="2139">
   <image source="tiled/ERW-Grass Land/Props/Atlas-Props-individual sprites/water deposit_frame7.png" width="64" height="32"/>
  </tile>
  <tile id="2140">
   <image source="tiled/ERW-Grass Land/Props/Atlas-Props-individual sprites/water deposit_frame8.png" width="64" height="32"/>
  </tile>
  <tile id="2141">
   <image source="tiled/ERW-Grass Land/Props/Atlas-Props-individual sprites/water well_empty_frame1.png" width="128" height="160"/>
   <animation>
    <frame tileid="2141" duration="100"/>
    <frame tileid="2142" duration="100"/>
    <frame tileid="2143" duration="100"/>
    <frame tileid="2144" duration="100"/>
    <frame tileid="2145" duration="100"/>
    <frame tileid="2146" duration="100"/>
    <frame tileid="2147" duration="100"/>
    <frame tileid="2148" duration="100"/>
    <frame tileid="2149" duration="100"/>
    <frame tileid="2150" duration="100"/>
    <frame tileid="2151" duration="100"/>
    <frame tileid="2152" duration="100"/>
    <frame tileid="2153" duration="100"/>
    <frame tileid="2154" duration="100"/>
    <frame tileid="2155" duration="100"/>
    <frame tileid="2156" duration="100"/>
    <frame tileid="2157" duration="100"/>
    <frame tileid="2158" duration="100"/>
    <frame tileid="2159" duration="100"/>
    <frame tileid="2160" duration="100"/>
    <frame tileid="2161" duration="100"/>
    <frame tileid="2162" duration="100"/>
    <frame tileid="2163" duration="100"/>
    <frame tileid="2164" duration="100"/>
    <frame tileid="2165" duration="100"/>
    <frame tileid="2166" duration="100"/>
    <frame tileid="2167" duration="100"/>
    <frame tileid="2168" duration="100"/>
    <frame tileid="2169" duration="100"/>
   </animation>
  </tile>
  <tile id="2142">
   <image source="tiled/ERW-Grass Land/Props/Atlas-Props-individual sprites/water well_empty_frame2.png" width="128" height="160"/>
  </tile>
  <tile id="2143">
   <image source="tiled/ERW-Grass Land/Props/Atlas-Props-individual sprites/water well_empty_frame3.png" width="128" height="160"/>
  </tile>
  <tile id="2144">
   <image source="tiled/ERW-Grass Land/Props/Atlas-Props-individual sprites/water well_empty_frame4.png" width="128" height="160"/>
  </tile>
  <tile id="2145">
   <image source="tiled/ERW-Grass Land/Props/Atlas-Props-individual sprites/water well_empty_frame5.png" width="128" height="160"/>
  </tile>
  <tile id="2146">
   <image source="tiled/ERW-Grass Land/Props/Atlas-Props-individual sprites/water well_empty_frame6.png" width="128" height="160"/>
  </tile>
  <tile id="2147">
   <image source="tiled/ERW-Grass Land/Props/Atlas-Props-individual sprites/water well_empty_frame7.png" width="128" height="160"/>
  </tile>
  <tile id="2148">
   <image source="tiled/ERW-Grass Land/Props/Atlas-Props-individual sprites/water well_empty_frame8.png" width="128" height="160"/>
  </tile>
  <tile id="2149">
   <image source="tiled/ERW-Grass Land/Props/Atlas-Props-individual sprites/water well_empty_frame9.png" width="128" height="160"/>
  </tile>
  <tile id="2150">
   <image source="tiled/ERW-Grass Land/Props/Atlas-Props-individual sprites/water well_empty_frame10.png" width="128" height="160"/>
  </tile>
  <tile id="2151">
   <image source="tiled/ERW-Grass Land/Props/Atlas-Props-individual sprites/water well_empty_frame11.png" width="128" height="160"/>
  </tile>
  <tile id="2152">
   <image source="tiled/ERW-Grass Land/Props/Atlas-Props-individual sprites/water well_empty_frame12.png" width="128" height="160"/>
  </tile>
  <tile id="2153">
   <image source="tiled/ERW-Grass Land/Props/Atlas-Props-individual sprites/water well_empty_frame13.png" width="128" height="160"/>
  </tile>
  <tile id="2154">
   <image source="tiled/ERW-Grass Land/Props/Atlas-Props-individual sprites/water well_empty_frame14.png" width="128" height="160"/>
  </tile>
  <tile id="2155">
   <image source="tiled/ERW-Grass Land/Props/Atlas-Props-individual sprites/water well_empty_frame15.png" width="128" height="160"/>
  </tile>
  <tile id="2156">
   <image source="tiled/ERW-Grass Land/Props/Atlas-Props-individual sprites/water well_empty_frame16.png" width="128" height="160"/>
  </tile>
  <tile id="2157">
   <image source="tiled/ERW-Grass Land/Props/Atlas-Props-individual sprites/water well_empty_frame17.png" width="128" height="160"/>
  </tile>
  <tile id="2158">
   <image source="tiled/ERW-Grass Land/Props/Atlas-Props-individual sprites/water well_empty_frame18.png" width="128" height="160"/>
  </tile>
  <tile id="2159">
   <image source="tiled/ERW-Grass Land/Props/Atlas-Props-individual sprites/water well_empty_frame19.png" width="128" height="160"/>
  </tile>
  <tile id="2160">
   <image source="tiled/ERW-Grass Land/Props/Atlas-Props-individual sprites/water well_empty_frame20.png" width="128" height="160"/>
  </tile>
  <tile id="2161">
   <image source="tiled/ERW-Grass Land/Props/Atlas-Props-individual sprites/water well_empty_frame21.png" width="128" height="160"/>
  </tile>
  <tile id="2162">
   <image source="tiled/ERW-Grass Land/Props/Atlas-Props-individual sprites/water well_empty_frame22.png" width="128" height="160"/>
  </tile>
  <tile id="2163">
   <image source="tiled/ERW-Grass Land/Props/Atlas-Props-individual sprites/water well_empty_frame23.png" width="128" height="160"/>
  </tile>
  <tile id="2164">
   <image source="tiled/ERW-Grass Land/Props/Atlas-Props-individual sprites/water well_empty_frame24.png" width="128" height="160"/>
  </tile>
  <tile id="2165">
   <image source="tiled/ERW-Grass Land/Props/Atlas-Props-individual sprites/water well_empty_frame25.png" width="128" height="160"/>
  </tile>
  <tile id="2166">
   <image source="tiled/ERW-Grass Land/Props/Atlas-Props-individual sprites/water well_empty_frame26.png" width="128" height="160"/>
  </tile>
  <tile id="2167">
   <image source="tiled/ERW-Grass Land/Props/Atlas-Props-individual sprites/water well_empty_frame27.png" width="128" height="160"/>
  </tile>
  <tile id="2168">
   <image source="tiled/ERW-Grass Land/Props/Atlas-Props-individual sprites/water well_empty_frame28.png" width="128" height="160"/>
  </tile>
  <tile id="2169">
   <image source="tiled/ERW-Grass Land/Props/Atlas-Props-individual sprites/water well_empty_frame29.png" width="128" height="160"/>
  </tile>
  <tile id="2170">
   <image source="tiled/ERW-Grass Land/Props/Atlas-Props-individual sprites/water well_empty_frame30.png" width="128" height="160"/>
   <animation>
    <frame tileid="2170" duration="100"/>
    <frame tileid="2171" duration="100"/>
    <frame tileid="2172" duration="100"/>
    <frame tileid="2173" duration="100"/>
    <frame tileid="2174" duration="100"/>
    <frame tileid="2175" duration="100"/>
    <frame tileid="2176" duration="100"/>
    <frame tileid="2177" duration="100"/>
    <frame tileid="2178" duration="100"/>
    <frame tileid="2179" duration="100"/>
    <frame tileid="2180" duration="100"/>
    <frame tileid="2181" duration="100"/>
    <frame tileid="2182" duration="100"/>
    <frame tileid="2183" duration="100"/>
    <frame tileid="2184" duration="100"/>
    <frame tileid="2185" duration="100"/>
    <frame tileid="2186" duration="100"/>
    <frame tileid="2187" duration="100"/>
    <frame tileid="2188" duration="100"/>
    <frame tileid="2189" duration="100"/>
    <frame tileid="2190" duration="100"/>
    <frame tileid="2191" duration="100"/>
    <frame tileid="2192" duration="100"/>
    <frame tileid="2193" duration="100"/>
    <frame tileid="2194" duration="100"/>
    <frame tileid="2195" duration="100"/>
    <frame tileid="2196" duration="100"/>
    <frame tileid="2197" duration="100"/>
    <frame tileid="2198" duration="100"/>
    <frame tileid="2199" duration="100"/>
   </animation>
  </tile>
  <tile id="2171">
   <image source="tiled/ERW-Grass Land/Props/Atlas-Props-individual sprites/water well_water_frame1.png" width="128" height="160"/>
  </tile>
  <tile id="2172">
   <image source="tiled/ERW-Grass Land/Props/Atlas-Props-individual sprites/water well_water_frame2.png" width="128" height="160"/>
  </tile>
  <tile id="2173">
   <image source="tiled/ERW-Grass Land/Props/Atlas-Props-individual sprites/water well_water_frame3.png" width="128" height="160"/>
  </tile>
  <tile id="2174">
   <image source="tiled/ERW-Grass Land/Props/Atlas-Props-individual sprites/water well_water_frame4.png" width="128" height="160"/>
  </tile>
  <tile id="2175">
   <image source="tiled/ERW-Grass Land/Props/Atlas-Props-individual sprites/water well_water_frame5.png" width="128" height="160"/>
  </tile>
  <tile id="2176">
   <image source="tiled/ERW-Grass Land/Props/Atlas-Props-individual sprites/water well_water_frame6.png" width="128" height="160"/>
  </tile>
  <tile id="2177">
   <image source="tiled/ERW-Grass Land/Props/Atlas-Props-individual sprites/water well_water_frame7.png" width="128" height="160"/>
  </tile>
  <tile id="2178">
   <image source="tiled/ERW-Grass Land/Props/Atlas-Props-individual sprites/water well_water_frame8.png" width="128" height="160"/>
  </tile>
  <tile id="2179">
   <image source="tiled/ERW-Grass Land/Props/Atlas-Props-individual sprites/water well_water_frame9.png" width="128" height="160"/>
  </tile>
  <tile id="2180">
   <image source="tiled/ERW-Grass Land/Props/Atlas-Props-individual sprites/water well_water_frame10.png" width="128" height="160"/>
  </tile>
  <tile id="2181">
   <image source="tiled/ERW-Grass Land/Props/Atlas-Props-individual sprites/water well_water_frame11.png" width="128" height="160"/>
  </tile>
  <tile id="2182">
   <image source="tiled/ERW-Grass Land/Props/Atlas-Props-individual sprites/water well_water_frame12.png" width="128" height="160"/>
  </tile>
  <tile id="2183">
   <image source="tiled/ERW-Grass Land/Props/Atlas-Props-individual sprites/water well_water_frame13.png" width="128" height="160"/>
  </tile>
  <tile id="2184">
   <image source="tiled/ERW-Grass Land/Props/Atlas-Props-individual sprites/water well_water_frame14.png" width="128" height="160"/>
  </tile>
  <tile id="2185">
   <image source="tiled/ERW-Grass Land/Props/Atlas-Props-individual sprites/water well_water_frame15.png" width="128" height="160"/>
  </tile>
  <tile id="2186">
   <image source="tiled/ERW-Grass Land/Props/Atlas-Props-individual sprites/water well_water_frame16.png" width="128" height="160"/>
  </tile>
  <tile id="2187">
   <image source="tiled/ERW-Grass Land/Props/Atlas-Props-individual sprites/water well_water_frame17.png" width="128" height="160"/>
  </tile>
  <tile id="2188">
   <image source="tiled/ERW-Grass Land/Props/Atlas-Props-individual sprites/water well_water_frame18.png" width="128" height="160"/>
  </tile>
  <tile id="2189">
   <image source="tiled/ERW-Grass Land/Props/Atlas-Props-individual sprites/water well_water_frame19.png" width="128" height="160"/>
  </tile>
  <tile id="2190">
   <image source="tiled/ERW-Grass Land/Props/Atlas-Props-individual sprites/water well_water_frame20.png" width="128" height="160"/>
  </tile>
  <tile id="2191">
   <image source="tiled/ERW-Grass Land/Props/Atlas-Props-individual sprites/water well_water_frame21.png" width="128" height="160"/>
  </tile>
  <tile id="2192">
   <image source="tiled/ERW-Grass Land/Props/Atlas-Props-individual sprites/water well_water_frame22.png" width="128" height="160"/>
  </tile>
  <tile id="2193">
   <image source="tiled/ERW-Grass Land/Props/Atlas-Props-individual sprites/water well_water_frame23.png" width="128" height="160"/>
  </tile>
  <tile id="2194">
   <image source="tiled/ERW-Grass Land/Props/Atlas-Props-individual sprites/water well_water_frame24.png" width="128" height="160"/>
  </tile>
  <tile id="2195">
   <image source="tiled/ERW-Grass Land/Props/Atlas-Props-individual sprites/water well_water_frame25.png" width="128" height="160"/>
  </tile>
  <tile id="2196">
   <image source="tiled/ERW-Grass Land/Props/Atlas-Props-individual sprites/water well_water_frame26.png" width="128" height="160"/>
  </tile>
  <tile id="2197">
   <image source="tiled/ERW-Grass Land/Props/Atlas-Props-individual sprites/water well_water_frame27.png" width="128" height="160"/>
  </tile>
  <tile id="2198">
   <image source="tiled/ERW-Grass Land/Props/Atlas-Props-individual sprites/water well_water_frame28.png" width="128" height="160"/>
  </tile>
  <tile id="2199">
   <image source="tiled/ERW-Grass Land/Props/Atlas-Props-individual sprites/water well_water_frame29.png" width="128" height="160"/>
  </tile>
 </tileset>
 <tileset firstgid="7603" name="Atlas-Props-sheet2-sprites" tilewidth="352" tileheight="288" tilecount="297" columns="0">
  <grid orientation="orthogonal" width="1" height="1"/>
  <tile id="0">
   <image source="tiled/ERW-Grassland 2.0/Props/Static props/sheet2-sprites/altar - neutral.png" width="288" height="224"/>
  </tile>
  <tile id="1">
   <image source="tiled/ERW-Grassland 2.0/Props/Static props/sheet2-sprites/altar - on grass - complete.png" width="288" height="256"/>
  </tile>
  <tile id="2">
   <image source="tiled/ERW-Grassland 2.0/Props/Static props/sheet2-sprites/altar - only stones.png" width="224" height="128"/>
  </tile>
  <tile id="3">
   <image source="tiled/ERW-Grassland 2.0/Props/Static props/sheet2-sprites/barricade - 1.png" width="64" height="64"/>
  </tile>
  <tile id="4">
   <image source="tiled/ERW-Grassland 2.0/Props/Static props/sheet2-sprites/barricade - 2.png" width="64" height="64"/>
  </tile>
  <tile id="5">
   <image source="tiled/ERW-Grassland 2.0/Props/Static props/sheet2-sprites/barricade - 3.png" width="64" height="64"/>
  </tile>
  <tile id="6">
   <image source="tiled/ERW-Grassland 2.0/Props/Static props/sheet2-sprites/barricade - 4.png" width="64" height="64"/>
  </tile>
  <tile id="7">
   <image source="tiled/ERW-Grassland 2.0/Props/Static props/sheet2-sprites/barricade - 5.png" width="64" height="64"/>
  </tile>
  <tile id="8">
   <image source="tiled/ERW-Grassland 2.0/Props/Static props/sheet2-sprites/barricade - 6.png" width="64" height="64"/>
  </tile>
  <tile id="9">
   <image source="tiled/ERW-Grassland 2.0/Props/Static props/sheet2-sprites/barricade - 8.png" width="64" height="32"/>
  </tile>
  <tile id="10">
   <image source="tiled/ERW-Grassland 2.0/Props/Static props/sheet2-sprites/barricade - 9.png" width="64" height="32"/>
  </tile>
  <tile id="11">
   <image source="tiled/ERW-Grassland 2.0/Props/Static props/sheet2-sprites/barricade - 10.png" width="32" height="64"/>
  </tile>
  <tile id="12">
   <image source="tiled/ERW-Grassland 2.0/Props/Static props/sheet2-sprites/barricade - 11.png" width="32" height="64"/>
  </tile>
  <tile id="13">
   <image source="tiled/ERW-Grassland 2.0/Props/Static props/sheet2-sprites/barricade - spikes - 1.png" width="96" height="64"/>
  </tile>
  <tile id="14">
   <image source="tiled/ERW-Grassland 2.0/Props/Static props/sheet2-sprites/barricade - spikes - 2.png" width="96" height="64"/>
  </tile>
  <tile id="15">
   <image source="tiled/ERW-Grassland 2.0/Props/Static props/sheet2-sprites/barricade - spikes - 3.png" width="64" height="96"/>
  </tile>
  <tile id="16">
   <image source="tiled/ERW-Grassland 2.0/Props/Static props/sheet2-sprites/barricade - spikes - 4.png" width="64" height="96"/>
  </tile>
  <tile id="17">
   <image source="tiled/ERW-Grassland 2.0/Props/Static props/sheet2-sprites/bone - big - 1.png" width="64" height="128"/>
  </tile>
  <tile id="18">
   <image source="tiled/ERW-Grassland 2.0/Props/Static props/sheet2-sprites/bone - big - 2.png" width="64" height="128"/>
  </tile>
  <tile id="19">
   <image source="tiled/ERW-Grassland 2.0/Props/Static props/sheet2-sprites/bone - big - 3.png" width="64" height="128"/>
  </tile>
  <tile id="20">
   <image source="tiled/ERW-Grassland 2.0/Props/Static props/sheet2-sprites/bone - big - 4.png" width="64" height="128"/>
  </tile>
  <tile id="21">
   <image source="tiled/ERW-Grassland 2.0/Props/Static props/sheet2-sprites/bone - big - 5.png" width="64" height="96"/>
  </tile>
  <tile id="22">
   <image source="tiled/ERW-Grassland 2.0/Props/Static props/sheet2-sprites/bone - big - 6.png" width="64" height="96"/>
  </tile>
  <tile id="23">
   <image source="tiled/ERW-Grassland 2.0/Props/Static props/sheet2-sprites/bone - small - 1.png" width="32" height="32"/>
  </tile>
  <tile id="24">
   <image source="tiled/ERW-Grassland 2.0/Props/Static props/sheet2-sprites/bone - small - 2.png" width="32" height="32"/>
  </tile>
  <tile id="25">
   <image source="tiled/ERW-Grassland 2.0/Props/Static props/sheet2-sprites/bone - small - 3.png" width="32" height="32"/>
  </tile>
  <tile id="26">
   <image source="tiled/ERW-Grassland 2.0/Props/Static props/sheet2-sprites/bone - small - 4.png" width="32" height="32"/>
  </tile>
  <tile id="27">
   <image source="tiled/ERW-Grassland 2.0/Props/Static props/sheet2-sprites/bone - small - 5.png" width="32" height="32"/>
  </tile>
  <tile id="28">
   <image source="tiled/ERW-Grassland 2.0/Props/Static props/sheet2-sprites/bone - small - 6.png" width="32" height="32"/>
  </tile>
  <tile id="29">
   <image source="tiled/ERW-Grassland 2.0/Props/Static props/sheet2-sprites/bone - small - 7.png" width="64" height="32"/>
  </tile>
  <tile id="30">
   <image source="tiled/ERW-Grassland 2.0/Props/Static props/sheet2-sprites/bone - small - 8.png" width="32" height="32"/>
  </tile>
  <tile id="31">
   <image source="tiled/ERW-Grassland 2.0/Props/Static props/sheet2-sprites/bone - small - 9.png" width="32" height="32"/>
  </tile>
  <tile id="32">
   <image source="tiled/ERW-Grassland 2.0/Props/Static props/sheet2-sprites/bone - small - 10.png" width="32" height="32"/>
  </tile>
  <tile id="33">
   <image source="tiled/ERW-Grassland 2.0/Props/Static props/sheet2-sprites/bone - small - 11.png" width="32" height="32"/>
  </tile>
  <tile id="34">
   <image source="tiled/ERW-Grassland 2.0/Props/Static props/sheet2-sprites/bone - small - 12.png" width="32" height="32"/>
  </tile>
  <tile id="35">
   <image source="tiled/ERW-Grassland 2.0/Props/Static props/sheet2-sprites/bone - small - 13.png" width="32" height="32"/>
  </tile>
  <tile id="36">
   <image source="tiled/ERW-Grassland 2.0/Props/Static props/sheet2-sprites/bone - small - 14.png" width="64" height="32"/>
  </tile>
  <tile id="37">
   <image source="tiled/ERW-Grassland 2.0/Props/Static props/sheet2-sprites/cabin interior - bear carpet.png" width="64" height="96"/>
  </tile>
  <tile id="38">
   <image source="tiled/ERW-Grassland 2.0/Props/Static props/sheet2-sprites/cabin interior - bed - pillow.png" width="64" height="96"/>
  </tile>
  <tile id="39">
   <image source="tiled/ERW-Grassland 2.0/Props/Static props/sheet2-sprites/cabin interior - bed.png" width="64" height="96"/>
  </tile>
  <tile id="40">
   <image source="tiled/ERW-Grassland 2.0/Props/Static props/sheet2-sprites/cabin interior - bench.png" width="32" height="32"/>
  </tile>
  <tile id="41">
   <image source="tiled/ERW-Grassland 2.0/Props/Static props/sheet2-sprites/cabin interior - cabin interior - light.png" width="192" height="128"/>
  </tile>
  <tile id="42">
   <image source="tiled/ERW-Grassland 2.0/Props/Static props/sheet2-sprites/cabin interior - carpet.png" width="32" height="64"/>
  </tile>
  <tile id="43">
   <image source="tiled/ERW-Grassland 2.0/Props/Static props/sheet2-sprites/cabin interior - chest tissue.png" width="64" height="32"/>
  </tile>
  <tile id="44">
   <image source="tiled/ERW-Grassland 2.0/Props/Static props/sheet2-sprites/cabin interior - light2.png" width="224" height="128"/>
  </tile>
  <tile id="45">
   <image source="tiled/ERW-Grassland 2.0/Props/Static props/sheet2-sprites/cabin interior - pan 1.png" width="32" height="32"/>
  </tile>
  <tile id="46">
   <image source="tiled/ERW-Grassland 2.0/Props/Static props/sheet2-sprites/cabin interior - pan 2.png" width="32" height="32"/>
  </tile>
  <tile id="47">
   <image source="tiled/ERW-Grassland 2.0/Props/Static props/sheet2-sprites/cabin interior - pans.png" width="32" height="32"/>
  </tile>
  <tile id="48">
   <image source="tiled/ERW-Grassland 2.0/Props/Static props/sheet2-sprites/cabin interior - pilow.png" width="64" height="32"/>
  </tile>
  <tile id="49">
   <image source="tiled/ERW-Grassland 2.0/Props/Static props/sheet2-sprites/cabin interior - side table.png" width="32" height="96"/>
  </tile>
  <tile id="50">
   <image source="tiled/ERW-Grassland 2.0/Props/Static props/sheet2-sprites/cabin interior - wooden chest 1 - tissue.png" width="64" height="32"/>
  </tile>
  <tile id="51">
   <image source="tiled/ERW-Grassland 2.0/Props/Static props/sheet2-sprites/cabin interior - wooden chest 1.png" width="64" height="32"/>
  </tile>
  <tile id="52">
   <image source="tiled/ERW-Grassland 2.0/Props/Static props/sheet2-sprites/cabin interior - wooden chest 2 - tissue.png" width="64" height="32"/>
  </tile>
  <tile id="53">
   <image source="tiled/ERW-Grassland 2.0/Props/Static props/sheet2-sprites/cabin interior - wooden chest 2.png" width="64" height="32"/>
  </tile>
  <tile id="54">
   <image source="tiled/ERW-Grassland 2.0/Props/Static props/sheet2-sprites/cabin interior - wooden chest 3 - tissue.png" width="64" height="32"/>
  </tile>
  <tile id="55">
   <image source="tiled/ERW-Grassland 2.0/Props/Static props/sheet2-sprites/cabin interior - wooden chest 3.png" width="64" height="32"/>
  </tile>
  <tile id="56">
   <image source="tiled/ERW-Grassland 2.0/Props/Static props/sheet2-sprites/carriage - broken.png" width="160" height="160"/>
  </tile>
  <tile id="57">
   <image source="tiled/ERW-Grassland 2.0/Props/Static props/sheet2-sprites/carriage - complete - on grass.png" width="160" height="160"/>
  </tile>
  <tile id="58">
   <image source="tiled/ERW-Grassland 2.0/Props/Static props/sheet2-sprites/carriage - complete.png" width="160" height="160"/>
  </tile>
  <tile id="59">
   <image source="tiled/ERW-Grassland 2.0/Props/Static props/sheet2-sprites/carriage - no tent - on grass.png" width="160" height="160"/>
  </tile>
  <tile id="60">
   <image source="tiled/ERW-Grassland 2.0/Props/Static props/sheet2-sprites/carriage - no tent.png" width="160" height="160"/>
  </tile>
  <tile id="61">
   <image source="tiled/ERW-Grassland 2.0/Props/Static props/sheet2-sprites/carriage - no tent1.png" width="160" height="160"/>
  </tile>
  <tile id="62">
   <image source="tiled/ERW-Grassland 2.0/Props/Static props/sheet2-sprites/carriage - no tent2 - on grass.png" width="160" height="160"/>
  </tile>
  <tile id="63">
   <image source="tiled/ERW-Grassland 2.0/Props/Static props/sheet2-sprites/carriage - on grass - broken.png" width="160" height="160"/>
  </tile>
  <tile id="64">
   <image source="tiled/ERW-Grassland 2.0/Props/Static props/sheet2-sprites/carriage - tent support - 1.png" width="32" height="64"/>
  </tile>
  <tile id="65">
   <image source="tiled/ERW-Grassland 2.0/Props/Static props/sheet2-sprites/carriage - tent support - 2.png" width="32" height="64"/>
  </tile>
  <tile id="66">
   <image source="tiled/ERW-Grassland 2.0/Props/Static props/sheet2-sprites/carriage - tent support - 3.png" width="32" height="32"/>
  </tile>
  <tile id="67">
   <image source="tiled/ERW-Grassland 2.0/Props/Static props/sheet2-sprites/carriage - tent support - 4.png" width="32" height="32"/>
  </tile>
  <tile id="68">
   <image source="tiled/ERW-Grassland 2.0/Props/Static props/sheet2-sprites/carriage - tent support - 5.png" width="32" height="32"/>
  </tile>
  <tile id="69">
   <image source="tiled/ERW-Grassland 2.0/Props/Static props/sheet2-sprites/carriage - tent support - 6.png" width="32" height="32"/>
  </tile>
  <tile id="70">
   <image source="tiled/ERW-Grassland 2.0/Props/Static props/sheet2-sprites/grass tufts 1.png" width="64" height="32"/>
  </tile>
  <tile id="71">
   <image source="tiled/ERW-Grassland 2.0/Props/Static props/sheet2-sprites/grass tufts 2.png" width="64" height="32"/>
  </tile>
  <tile id="72">
   <image source="tiled/ERW-Grassland 2.0/Props/Static props/sheet2-sprites/grass tufts 3.png" width="32" height="32"/>
  </tile>
  <tile id="73">
   <image source="tiled/ERW-Grassland 2.0/Props/Static props/sheet2-sprites/grass tufts 4.png" width="96" height="32"/>
  </tile>
  <tile id="74">
   <image source="tiled/ERW-Grassland 2.0/Props/Static props/sheet2-sprites/grass tufts 5.png" width="32" height="32"/>
  </tile>
  <tile id="75">
   <image source="tiled/ERW-Grassland 2.0/Props/Static props/sheet2-sprites/grass tufts 6.png" width="32" height="32"/>
  </tile>
  <tile id="76">
   <image source="tiled/ERW-Grassland 2.0/Props/Static props/sheet2-sprites/grass tufts 7.png" width="32" height="32"/>
  </tile>
  <tile id="77">
   <image source="tiled/ERW-Grassland 2.0/Props/Static props/sheet2-sprites/grass tufts 8.png" width="32" height="32"/>
  </tile>
  <tile id="78">
   <image source="tiled/ERW-Grassland 2.0/Props/Static props/sheet2-sprites/grass tufts 9.png" width="32" height="32"/>
  </tile>
  <tile id="79">
   <image source="tiled/ERW-Grassland 2.0/Props/Static props/sheet2-sprites/grass tufts 10.png" width="32" height="32"/>
  </tile>
  <tile id="80">
   <image source="tiled/ERW-Grassland 2.0/Props/Static props/sheet2-sprites/grass tufts 11.png" width="32" height="32"/>
  </tile>
  <tile id="81">
   <image source="tiled/ERW-Grassland 2.0/Props/Static props/sheet2-sprites/grass tufts 12.png" width="32" height="32"/>
  </tile>
  <tile id="82">
   <image source="tiled/ERW-Grassland 2.0/Props/Static props/sheet2-sprites/grass tufts 13.png" width="32" height="32"/>
  </tile>
  <tile id="83">
   <image source="tiled/ERW-Grassland 2.0/Props/Static props/sheet2-sprites/grass tufts 14.png" width="32" height="32"/>
  </tile>
  <tile id="84">
   <image source="tiled/ERW-Grassland 2.0/Props/Static props/sheet2-sprites/grass tufts 15.png" width="32" height="32"/>
  </tile>
  <tile id="85">
   <image source="tiled/ERW-Grassland 2.0/Props/Static props/sheet2-sprites/grass tufts 16.png" width="32" height="32"/>
  </tile>
  <tile id="86">
   <image source="tiled/ERW-Grassland 2.0/Props/Static props/sheet2-sprites/grass tufts 17.png" width="32" height="32"/>
  </tile>
  <tile id="87">
   <image source="tiled/ERW-Grassland 2.0/Props/Static props/sheet2-sprites/grass tufts 18.png" width="32" height="32"/>
  </tile>
  <tile id="88">
   <image source="tiled/ERW-Grassland 2.0/Props/Static props/sheet2-sprites/grass tufts 19.png" width="64" height="32"/>
  </tile>
  <tile id="89">
   <image source="tiled/ERW-Grassland 2.0/Props/Static props/sheet2-sprites/grass tufts 20.png" width="64" height="32"/>
  </tile>
  <tile id="90">
   <image source="tiled/ERW-Grassland 2.0/Props/Static props/sheet2-sprites/grass tufts 21.png" width="64" height="32"/>
  </tile>
  <tile id="91">
   <image source="tiled/ERW-Grassland 2.0/Props/Static props/sheet2-sprites/grass tufts 22.png" width="352" height="32"/>
  </tile>
  <tile id="92">
   <image source="tiled/ERW-Grassland 2.0/Props/Static props/sheet2-sprites/grass tufts 23.png" width="32" height="32"/>
  </tile>
  <tile id="93">
   <image source="tiled/ERW-Grassland 2.0/Props/Static props/sheet2-sprites/grass tufts 24.png" width="32" height="32"/>
  </tile>
  <tile id="94">
   <image source="tiled/ERW-Grassland 2.0/Props/Static props/sheet2-sprites/grass tufts 25.png" width="32" height="32"/>
  </tile>
  <tile id="95">
   <image source="tiled/ERW-Grassland 2.0/Props/Static props/sheet2-sprites/grass tufts 26.png" width="32" height="32"/>
  </tile>
  <tile id="96">
   <image source="tiled/ERW-Grassland 2.0/Props/Static props/sheet2-sprites/grass tufts 27.png" width="32" height="32"/>
  </tile>
  <tile id="97">
   <image source="tiled/ERW-Grassland 2.0/Props/Static props/sheet2-sprites/grass tufts 28.png" width="32" height="32"/>
  </tile>
  <tile id="98">
   <image source="tiled/ERW-Grassland 2.0/Props/Static props/sheet2-sprites/grass tufts 29.png" width="32" height="32"/>
  </tile>
  <tile id="99">
   <image source="tiled/ERW-Grassland 2.0/Props/Static props/sheet2-sprites/grass tufts 30.png" width="32" height="32"/>
  </tile>
  <tile id="100">
   <image source="tiled/ERW-Grassland 2.0/Props/Static props/sheet2-sprites/grass tufts 31.png" width="32" height="32"/>
  </tile>
  <tile id="101">
   <image source="tiled/ERW-Grassland 2.0/Props/Static props/sheet2-sprites/grass tufts 32.png" width="32" height="32"/>
  </tile>
  <tile id="102">
   <image source="tiled/ERW-Grassland 2.0/Props/Static props/sheet2-sprites/shrine 1 - bowl 1.png" width="32" height="32"/>
  </tile>
  <tile id="103">
   <image source="tiled/ERW-Grassland 2.0/Props/Static props/sheet2-sprites/shrine 1 - bowl 2.png" width="32" height="32"/>
  </tile>
  <tile id="104">
   <image source="tiled/ERW-Grassland 2.0/Props/Static props/sheet2-sprites/shrine 1 - only support1.png" width="64" height="64"/>
  </tile>
  <tile id="105">
   <image source="tiled/ERW-Grassland 2.0/Props/Static props/sheet2-sprites/shrine 1 - only support2 .png" width="64" height="64"/>
  </tile>
  <tile id="106">
   <image source="tiled/ERW-Grassland 2.0/Props/Static props/sheet2-sprites/shrine 1 - support 1 - on grass.png" width="64" height="64"/>
  </tile>
  <tile id="107">
   <image source="tiled/ERW-Grassland 2.0/Props/Static props/sheet2-sprites/shrine 1 - support 2 - on grass.png" width="64" height="64"/>
  </tile>
  <tile id="108">
   <image source="tiled/ERW-Grassland 2.0/Props/Static props/sheet2-sprites/shrine 1 - support 2.png" width="64" height="64"/>
  </tile>
  <tile id="109">
   <image source="tiled/ERW-Grassland 2.0/Props/Static props/sheet2-sprites/shrine 1 - support 3 - on grass.png" width="64" height="64"/>
  </tile>
  <tile id="110">
   <image source="tiled/ERW-Grassland 2.0/Props/Static props/sheet2-sprites/shrine 1 - support 3.png" width="64" height="64"/>
  </tile>
  <tile id="111">
   <image source="tiled/ERW-Grassland 2.0/Props/Static props/sheet2-sprites/shrine 1 - support 4 - 1 - on grass.png" width="64" height="64"/>
  </tile>
  <tile id="112">
   <image source="tiled/ERW-Grassland 2.0/Props/Static props/sheet2-sprites/shrine 1 - support 4 - 1.png" width="64" height="64"/>
  </tile>
  <tile id="113">
   <image source="tiled/ERW-Grassland 2.0/Props/Static props/sheet2-sprites/shrine 1 - support 4 - on grass.png" width="64" height="64"/>
  </tile>
  <tile id="114">
   <image source="tiled/ERW-Grassland 2.0/Props/Static props/sheet2-sprites/shrine 1 - support 4.png" width="64" height="64"/>
  </tile>
  <tile id="115">
   <image source="tiled/ERW-Grassland 2.0/Props/Static props/sheet2-sprites/shrine 1.png" width="64" height="64"/>
  </tile>
  <tile id="116">
   <image source="tiled/ERW-Grassland 2.0/Props/Static props/sheet2-sprites/shrine 2 - base - on grass.png" width="192" height="128"/>
  </tile>
  <tile id="117">
   <image source="tiled/ERW-Grassland 2.0/Props/Static props/sheet2-sprites/shrine 2 - base.png" width="192" height="128"/>
  </tile>
  <tile id="118">
   <image source="tiled/ERW-Grassland 2.0/Props/Static props/sheet2-sprites/shrine 2 - pilar - on grass.png" width="64" height="128"/>
  </tile>
  <tile id="119">
   <image source="tiled/ERW-Grassland 2.0/Props/Static props/sheet2-sprites/shrine 2 - pilar.png" width="64" height="128"/>
  </tile>
  <tile id="120">
   <image source="tiled/ERW-Grassland 2.0/Props/Static props/sheet2-sprites/shrine 2 - smaller pilar - on grass.png" width="64" height="128"/>
  </tile>
  <tile id="121">
   <image source="tiled/ERW-Grassland 2.0/Props/Static props/sheet2-sprites/shrine 2 - smaller pilar.png" width="64" height="128"/>
  </tile>
  <tile id="122">
   <image source="tiled/ERW-Grassland 2.0/Props/Static props/sheet2-sprites/spikes 1.png" width="64" height="32"/>
  </tile>
  <tile id="123">
   <image source="tiled/ERW-Grassland 2.0/Props/Static props/sheet2-sprites/spikes 2.png" width="64" height="64"/>
  </tile>
  <tile id="124">
   <image source="tiled/ERW-Grassland 2.0/Props/Static props/sheet2-sprites/spikes 3.png" width="32" height="64"/>
  </tile>
  <tile id="125">
   <image source="tiled/ERW-Grassland 2.0/Props/Static props/sheet2-sprites/spikes 4.png" width="32" height="64"/>
  </tile>
  <tile id="126">
   <image source="tiled/ERW-Grassland 2.0/Props/Static props/sheet2-sprites/spikes 5.png" width="32" height="32"/>
  </tile>
  <tile id="127">
   <image source="tiled/ERW-Grassland 2.0/Props/Static props/sheet2-sprites/spikes 6.png" width="32" height="32"/>
  </tile>
  <tile id="128">
   <image source="tiled/ERW-Grassland 2.0/Props/Static props/sheet2-sprites/spikes 7.png" width="32" height="32"/>
  </tile>
  <tile id="129">
   <image source="tiled/ERW-Grassland 2.0/Props/Static props/sheet2-sprites/standard - flag.png" width="96" height="128"/>
  </tile>
  <tile id="130">
   <image source="tiled/ERW-Grassland 2.0/Props/Static props/sheet2-sprites/standard - only flag.png" width="64" height="96"/>
  </tile>
  <tile id="131">
   <image source="tiled/ERW-Grassland 2.0/Props/Static props/sheet2-sprites/standard - only gravel portion.png" width="96" height="64"/>
  </tile>
  <tile id="132">
   <image source="tiled/ERW-Grassland 2.0/Props/Static props/sheet2-sprites/standard 2.png" width="96" height="96"/>
  </tile>
  <tile id="133">
   <image source="tiled/ERW-Grassland 2.0/Props/Static props/sheet2-sprites/standard.png" width="96" height="128"/>
  </tile>
  <tile id="134">
   <image source="tiled/ERW-Grassland 2.0/Props/Static props/sheet2-sprites/stronghold - embranchment section - down - for z ordering.png" width="128" height="64"/>
  </tile>
  <tile id="135">
   <image source="tiled/ERW-Grassland 2.0/Props/Static props/sheet2-sprites/stronghold - embranchment section - down - on grass.png" width="128" height="96"/>
  </tile>
  <tile id="136">
   <image source="tiled/ERW-Grassland 2.0/Props/Static props/sheet2-sprites/stronghold - embranchment section - down.png" width="128" height="96"/>
  </tile>
  <tile id="137">
   <image source="tiled/ERW-Grassland 2.0/Props/Static props/sheet2-sprites/stronghold - embranchment section - for z ordering.png" width="192" height="96"/>
  </tile>
  <tile id="138">
   <image source="tiled/ERW-Grassland 2.0/Props/Static props/sheet2-sprites/stronghold - embranchment section - left - for z ordering.png" width="32" height="64"/>
  </tile>
  <tile id="139">
   <image source="tiled/ERW-Grassland 2.0/Props/Static props/sheet2-sprites/stronghold - embranchment section - left - on grass.png" width="64" height="192"/>
  </tile>
  <tile id="140">
   <image source="tiled/ERW-Grassland 2.0/Props/Static props/sheet2-sprites/stronghold - embranchment section - left.png" width="32" height="160"/>
  </tile>
  <tile id="141">
   <image source="tiled/ERW-Grassland 2.0/Props/Static props/sheet2-sprites/stronghold - embranchment section - on grass.png" width="192" height="256"/>
  </tile>
  <tile id="142">
   <image source="tiled/ERW-Grassland 2.0/Props/Static props/sheet2-sprites/stronghold - embranchment section - right - for z ordering.png" width="32" height="64"/>
  </tile>
  <tile id="143">
   <image source="tiled/ERW-Grassland 2.0/Props/Static props/sheet2-sprites/stronghold - embranchment section - right - on grass.png" width="64" height="192"/>
  </tile>
  <tile id="144">
   <image source="tiled/ERW-Grassland 2.0/Props/Static props/sheet2-sprites/stronghold - embranchment section - right.png" width="32" height="160"/>
  </tile>
  <tile id="145">
   <image source="tiled/ERW-Grassland 2.0/Props/Static props/sheet2-sprites/stronghold - embranchment section - up - on grass.png" width="128" height="64"/>
  </tile>
  <tile id="146">
   <image source="tiled/ERW-Grassland 2.0/Props/Static props/sheet2-sprites/stronghold - embranchment section.png" width="192" height="224"/>
  </tile>
  <tile id="147">
   <image source="tiled/ERW-Grassland 2.0/Props/Static props/sheet2-sprites/stronghold - gate - left section - for z ordering.png" width="32" height="32"/>
  </tile>
  <tile id="148">
   <image source="tiled/ERW-Grassland 2.0/Props/Static props/sheet2-sprites/stronghold - gate - left section - on grass.png" width="64" height="224"/>
  </tile>
  <tile id="149">
   <image source="tiled/ERW-Grassland 2.0/Props/Static props/sheet2-sprites/stronghold - gate - right section - for z ordering.png" width="32" height="32"/>
  </tile>
  <tile id="150">
   <image source="tiled/ERW-Grassland 2.0/Props/Static props/sheet2-sprites/stronghold - gate - right section - on grass.png" width="64" height="224"/>
  </tile>
  <tile id="151">
   <image source="tiled/ERW-Grassland 2.0/Props/Static props/sheet2-sprites/stronghold - horizontal - end - on grass.png" width="64" height="160"/>
  </tile>
  <tile id="152">
   <image source="tiled/ERW-Grassland 2.0/Props/Static props/sheet2-sprites/stronghold - horizontal - end.png" width="64" height="160"/>
  </tile>
  <tile id="153">
   <image source="tiled/ERW-Grassland 2.0/Props/Static props/sheet2-sprites/stronghold - horizontal - entrance - on grass.png" width="160" height="192"/>
  </tile>
  <tile id="154">
   <image source="tiled/ERW-Grassland 2.0/Props/Static props/sheet2-sprites/stronghold - horizontal - entrance.png" width="160" height="192"/>
  </tile>
  <tile id="155">
   <image source="tiled/ERW-Grassland 2.0/Props/Static props/sheet2-sprites/stronghold - horizontal - for z ordering.png" width="96" height="64"/>
  </tile>
  <tile id="156">
   <image source="tiled/ERW-Grassland 2.0/Props/Static props/sheet2-sprites/stronghold - horizontal - on grass.png" width="96" height="160"/>
  </tile>
  <tile id="157">
   <image source="tiled/ERW-Grassland 2.0/Props/Static props/sheet2-sprites/stronghold - horizontal.png" width="96" height="160"/>
  </tile>
  <tile id="158">
   <image source="tiled/ERW-Grassland 2.0/Props/Static props/sheet2-sprites/stronghold - horizontal2 - for z ordering.png" width="128" height="64"/>
  </tile>
  <tile id="159">
   <image source="tiled/ERW-Grassland 2.0/Props/Static props/sheet2-sprites/stronghold - horizontal2 - on grass.png" width="128" height="160"/>
  </tile>
  <tile id="160">
   <image source="tiled/ERW-Grassland 2.0/Props/Static props/sheet2-sprites/stronghold - horizontal2.png" width="128" height="160"/>
  </tile>
  <tile id="161">
   <image source="tiled/ERW-Grassland 2.0/Props/Static props/sheet2-sprites/stronghold - vertical - end.png" width="64" height="64"/>
  </tile>
  <tile id="162">
   <image source="tiled/ERW-Grassland 2.0/Props/Static props/sheet2-sprites/stronghold - vertical - end2 - on grass.png" width="128" height="128"/>
  </tile>
  <tile id="163">
   <image source="tiled/ERW-Grassland 2.0/Props/Static props/sheet2-sprites/stronghold - vertical - end2.png" width="128" height="128"/>
  </tile>
  <tile id="164">
   <image source="tiled/ERW-Grassland 2.0/Props/Static props/sheet2-sprites/stronghold - vertical - on grass.png" width="128" height="128"/>
  </tile>
  <tile id="165">
   <image source="tiled/ERW-Grassland 2.0/Props/Static props/sheet2-sprites/stronghold - vertical2 - on grass.png" width="128" height="96"/>
  </tile>
  <tile id="166">
   <image source="tiled/ERW-Grassland 2.0/Props/Static props/sheet2-sprites/tent 1 - on grass.png" width="320" height="288"/>
  </tile>
  <tile id="167">
   <image source="tiled/ERW-Grassland 2.0/Props/Static props/sheet2-sprites/tent 1 - small - on grass.png" width="160" height="160"/>
  </tile>
  <tile id="168">
   <image source="tiled/ERW-Grassland 2.0/Props/Static props/sheet2-sprites/tent 1 - small.png" width="160" height="160"/>
  </tile>
  <tile id="169">
   <image source="tiled/ERW-Grassland 2.0/Props/Static props/sheet2-sprites/tent 1.png" width="320" height="288"/>
  </tile>
  <tile id="170">
   <image source="tiled/ERW-Grassland 2.0/Props/Static props/sheet2-sprites/tent 2 - on grass.png" width="320" height="288"/>
  </tile>
  <tile id="171">
   <image source="tiled/ERW-Grassland 2.0/Props/Static props/sheet2-sprites/tent 2 - small - on grass.png" width="160" height="160"/>
  </tile>
  <tile id="172">
   <image source="tiled/ERW-Grassland 2.0/Props/Static props/sheet2-sprites/tent 2 - small .png" width="160" height="160"/>
  </tile>
  <tile id="173">
   <image source="tiled/ERW-Grassland 2.0/Props/Static props/sheet2-sprites/tent 2.png" width="320" height="288"/>
  </tile>
  <tile id="174">
   <image source="tiled/ERW-Grassland 2.0/Props/Static props/sheet2-sprites/throne - on grass.png" width="192" height="128"/>
  </tile>
  <tile id="175">
   <image source="tiled/ERW-Grassland 2.0/Props/Static props/sheet2-sprites/throne.png" width="192" height="128"/>
  </tile>
  <tile id="176">
   <image source="tiled/ERW-Grassland 2.0/Props/Static props/sheet2-sprites/vendor - bench.png" width="32" height="32"/>
  </tile>
  <tile id="177">
   <image source="tiled/ERW-Grassland 2.0/Props/Static props/sheet2-sprites/vendor - crate 1.png" width="64" height="64"/>
  </tile>
  <tile id="178">
   <image source="tiled/ERW-Grassland 2.0/Props/Static props/sheet2-sprites/vendor - crate 2.png" width="64" height="64"/>
  </tile>
  <tile id="179">
   <image source="tiled/ERW-Grassland 2.0/Props/Static props/sheet2-sprites/vendor - crate 3.png" width="64" height="64"/>
  </tile>
  <tile id="180">
   <image source="tiled/ERW-Grassland 2.0/Props/Static props/sheet2-sprites/vendor - potion 1.png" width="32" height="32"/>
  </tile>
  <tile id="181">
   <image source="tiled/ERW-Grassland 2.0/Props/Static props/sheet2-sprites/vendor - potion 2.png" width="32" height="32"/>
  </tile>
  <tile id="182">
   <image source="tiled/ERW-Grassland 2.0/Props/Static props/sheet2-sprites/vendor - potion 3.png" width="32" height="32"/>
  </tile>
  <tile id="183">
   <image source="tiled/ERW-Grassland 2.0/Props/Static props/sheet2-sprites/vendor - potion 4.png" width="32" height="32"/>
  </tile>
  <tile id="184">
   <image source="tiled/ERW-Grassland 2.0/Props/Static props/sheet2-sprites/vendor - pouch - 1.png" width="32" height="32"/>
  </tile>
  <tile id="185">
   <image source="tiled/ERW-Grassland 2.0/Props/Static props/sheet2-sprites/vendor - pouch - 2.png" width="32" height="32"/>
  </tile>
  <tile id="186">
   <image source="tiled/ERW-Grassland 2.0/Props/Static props/sheet2-sprites/vendor - pouch - 3.png" width="32" height="32"/>
  </tile>
  <tile id="187">
   <image source="tiled/ERW-Grassland 2.0/Props/Static props/sheet2-sprites/vendor - scroll paper - 1.png" width="32" height="32"/>
  </tile>
  <tile id="188">
   <image source="tiled/ERW-Grassland 2.0/Props/Static props/sheet2-sprites/vendor - scroll paper - 2.png" width="32" height="32"/>
  </tile>
  <tile id="189">
   <image source="tiled/ERW-Grassland 2.0/Props/Static props/sheet2-sprites/vendor - vase - 1.png" width="32" height="32"/>
  </tile>
  <tile id="190">
   <image source="tiled/ERW-Grassland 2.0/Props/Static props/sheet2-sprites/vendor - vase - 2.png" width="32" height="32"/>
  </tile>
  <tile id="191">
   <image source="tiled/ERW-Grassland 2.0/Props/Static props/sheet2-sprites/vendor - vase - 3.png" width="32" height="32"/>
  </tile>
  <tile id="192">
   <image source="tiled/ERW-Grassland 2.0/Props/Static props/sheet2-sprites/vendor - vase - 4.png" width="32" height="32"/>
  </tile>
  <tile id="193">
   <image source="tiled/ERW-Grassland 2.0/Props/Static props/sheet2-sprites/vendor - vase - 5.png" width="32" height="32"/>
  </tile>
  <tile id="194">
   <image source="tiled/ERW-Grassland 2.0/Props/Static props/sheet2-sprites/vendor - vase - 6.png" width="32" height="32"/>
  </tile>
  <tile id="195">
   <image source="tiled/ERW-Grassland 2.0/Props/Static props/sheet2-sprites/vendor structure - complete - on grass.png" width="288" height="192"/>
  </tile>
  <tile id="196">
   <image source="tiled/ERW-Grassland 2.0/Props/Static props/sheet2-sprites/vendor structure - complete.png" width="256" height="192"/>
  </tile>
  <tile id="197">
   <image source="tiled/ERW-Grassland 2.0/Props/Static props/sheet2-sprites/vendor structure - naked.png" width="256" height="160"/>
  </tile>
  <tile id="198">
   <image source="tiled/ERW-Grassland 2.0/Props/Static props/sheet2-sprites/vendor structure - tissue on top.png" width="160" height="64"/>
  </tile>
  <tile id="199">
   <image source="tiled/ERW-Grassland 2.0/Props/Static props/sheet2-sprites/vendor structure - wheel.png" width="64" height="64"/>
  </tile>
  <tile id="200">
   <image source="tiled/ERW-Grassland 2.0/Props/Static props/sheet2-sprites/watchtower - back  - base section with neutral shadow.png" width="128" height="64"/>
  </tile>
  <tile id="201">
   <image source="tiled/ERW-Grassland 2.0/Props/Static props/sheet2-sprites/watchtower - back.png" width="128" height="224"/>
  </tile>
  <tile id="202">
   <image source="tiled/ERW-Grassland 2.0/Props/Static props/sheet2-sprites/watchtower - flag.png" width="64" height="64"/>
  </tile>
  <tile id="203">
   <image source="tiled/ERW-Grassland 2.0/Props/Static props/sheet2-sprites/watchtower - front  - base section with neutral shadow.png" width="128" height="64"/>
  </tile>
  <tile id="204">
   <image source="tiled/ERW-Grassland 2.0/Props/Static props/sheet2-sprites/watchtower - front.png" width="128" height="224"/>
  </tile>
  <tile id="205">
   <image source="tiled/ERW-Grassland 2.0/Props/Static props/sheet2-sprites/watchtower - stairs - size 1 - back.png" width="32" height="128"/>
  </tile>
  <tile id="206">
   <image source="tiled/ERW-Grassland 2.0/Props/Static props/sheet2-sprites/watchtower - stairs - size 1 - front.png" width="32" height="128"/>
  </tile>
  <tile id="207">
   <image source="tiled/ERW-Grassland 2.0/Props/Static props/sheet2-sprites/watchtower - stairs - size 2 - back.png" width="32" height="96"/>
  </tile>
  <tile id="208">
   <image source="tiled/ERW-Grassland 2.0/Props/Static props/sheet2-sprites/watchtower - stairs - size 2 - front.png" width="32" height="96"/>
  </tile>
  <tile id="209">
   <image source="tiled/ERW-Grassland 2.0/Props/Static props/sheet2-sprites/watchtower - stairs - size 3 - back.png" width="32" height="64"/>
  </tile>
  <tile id="210">
   <image source="tiled/ERW-Grassland 2.0/Props/Static props/sheet2-sprites/watchtower - stairs - size 3 - front.png" width="32" height="64"/>
  </tile>
  <tile id="211">
   <image source="tiled/ERW-Grassland 2.0/Props/Static props/sheet2-sprites/weapon support - where the weapons hang.png" width="256" height="160"/>
  </tile>
  <tile id="212">
   <image source="tiled/ERW-Grassland 2.0/Props/Static props/sheet2-sprites/weapons - big axe.png" width="32" height="32"/>
  </tile>
  <tile id="213">
   <image source="tiled/ERW-Grassland 2.0/Props/Static props/sheet2-sprites/weapons - hammer.png" width="32" height="64"/>
  </tile>
  <tile id="214">
   <image source="tiled/ERW-Grassland 2.0/Props/Static props/sheet2-sprites/weapons - knife on the table.png" width="32" height="32"/>
  </tile>
  <tile id="215">
   <image source="tiled/ERW-Grassland 2.0/Props/Static props/sheet2-sprites/weapons - machete.png" width="32" height="64"/>
  </tile>
  <tile id="216">
   <image source="tiled/ERW-Grassland 2.0/Props/Static props/sheet2-sprites/weapons - scythe ish.png" width="32" height="64"/>
  </tile>
  <tile id="217">
   <image source="tiled/ERW-Grassland 2.0/Props/Static props/sheet2-sprites/weapons - small axe.png" width="32" height="32"/>
  </tile>
  <tile id="218">
   <image source="tiled/ERW-Grassland 2.0/Props/Static props/sheet2-sprites/weapons - spear.png" width="32" height="64"/>
  </tile>
  <tile id="219">
   <image source="tiled/ERW-Grassland 2.0/Props/Static props/sheet2-sprites/weapons - sword on any floor 1.png" width="64" height="32"/>
  </tile>
  <tile id="220">
   <image source="tiled/ERW-Grassland 2.0/Props/Static props/sheet2-sprites/weapons - sword on any floor 2.png" width="32" height="64"/>
  </tile>
  <tile id="221">
   <image source="tiled/ERW-Grassland 2.0/Props/Static props/sheet2-sprites/weapons - sword on grass 2.png" width="64" height="32"/>
  </tile>
  <tile id="222">
   <image source="tiled/ERW-Grassland 2.0/Props/Static props/sheet2-sprites/weapons - sword on grass 3.png" width="32" height="64"/>
  </tile>
  <tile id="223">
   <image source="tiled/ERW-Grassland 2.0/Props/Static props/sheet2-sprites/weapons - sword on grass.png" width="64" height="32"/>
  </tile>
  <tile id="224">
   <image source="tiled/ERW-Grassland 2.0/Props/Static props/sheet2-sprites/weapons - sword.png" width="32" height="64"/>
  </tile>
  <tile id="225">
   <image source="tiled/ERW-Grassland 2.0/Props/Static props/sheet2-sprites/wood log - big - no rope - 1.png" width="32" height="96"/>
  </tile>
  <tile id="226">
   <image source="tiled/ERW-Grassland 2.0/Props/Static props/sheet2-sprites/wood log - big - no rope - 2.png" width="32" height="96"/>
  </tile>
  <tile id="227">
   <image source="tiled/ERW-Grassland 2.0/Props/Static props/sheet2-sprites/wood log - big - no rope - 3.png" width="32" height="96"/>
  </tile>
  <tile id="228">
   <image source="tiled/ERW-Grassland 2.0/Props/Static props/sheet2-sprites/wood log - big - no rope - 4.png" width="32" height="96"/>
  </tile>
  <tile id="229">
   <image source="tiled/ERW-Grassland 2.0/Props/Static props/sheet2-sprites/wood log - big - no rope - 5.png" width="32" height="96"/>
  </tile>
  <tile id="230">
   <image source="tiled/ERW-Grassland 2.0/Props/Static props/sheet2-sprites/wood log - big - no rope - 6.png" width="32" height="96"/>
  </tile>
  <tile id="231">
   <image source="tiled/ERW-Grassland 2.0/Props/Static props/sheet2-sprites/wood log - big - no rope - 7.png" width="32" height="96"/>
  </tile>
  <tile id="232">
   <image source="tiled/ERW-Grassland 2.0/Props/Static props/sheet2-sprites/wood log - big - no rope - 8.png" width="32" height="96"/>
  </tile>
  <tile id="233">
   <image source="tiled/ERW-Grassland 2.0/Props/Static props/sheet2-sprites/wood log - big - no rope - 9.png" width="32" height="96"/>
  </tile>
  <tile id="234">
   <image source="tiled/ERW-Grassland 2.0/Props/Static props/sheet2-sprites/wood log - big - no rope - 10.png" width="32" height="96"/>
  </tile>
  <tile id="235">
   <image source="tiled/ERW-Grassland 2.0/Props/Static props/sheet2-sprites/wood log - big - no rope - 11.png" width="32" height="96"/>
  </tile>
  <tile id="236">
   <image source="tiled/ERW-Grassland 2.0/Props/Static props/sheet2-sprites/wood log - big - no rope - 12.png" width="32" height="96"/>
  </tile>
  <tile id="237">
   <image source="tiled/ERW-Grassland 2.0/Props/Static props/sheet2-sprites/wood log - big - rope - 1.png" width="32" height="96"/>
  </tile>
  <tile id="238">
   <image source="tiled/ERW-Grassland 2.0/Props/Static props/sheet2-sprites/wood log - big - rope - 2.png" width="32" height="96"/>
  </tile>
  <tile id="239">
   <image source="tiled/ERW-Grassland 2.0/Props/Static props/sheet2-sprites/wood log - big - rope - 3.png" width="32" height="96"/>
  </tile>
  <tile id="240">
   <image source="tiled/ERW-Grassland 2.0/Props/Static props/sheet2-sprites/wood log - big - rope - 4.png" width="32" height="96"/>
  </tile>
  <tile id="241">
   <image source="tiled/ERW-Grassland 2.0/Props/Static props/sheet2-sprites/wood log - big - rope - 5.png" width="32" height="96"/>
  </tile>
  <tile id="242">
   <image source="tiled/ERW-Grassland 2.0/Props/Static props/sheet2-sprites/wood log - big - rope - 6.png" width="32" height="96"/>
  </tile>
  <tile id="243">
   <image source="tiled/ERW-Grassland 2.0/Props/Static props/sheet2-sprites/wood log - big - rope - 7.png" width="32" height="96"/>
  </tile>
  <tile id="244">
   <image source="tiled/ERW-Grassland 2.0/Props/Static props/sheet2-sprites/wood log - big - rope - 8.png" width="32" height="96"/>
  </tile>
  <tile id="245">
   <image source="tiled/ERW-Grassland 2.0/Props/Static props/sheet2-sprites/wood log - big - rope - 9.png" width="32" height="96"/>
  </tile>
  <tile id="246">
   <image source="tiled/ERW-Grassland 2.0/Props/Static props/sheet2-sprites/wood log - big - rope - 10.png" width="32" height="96"/>
  </tile>
  <tile id="247">
   <image source="tiled/ERW-Grassland 2.0/Props/Static props/sheet2-sprites/wood log - big - rope - 11.png" width="32" height="96"/>
  </tile>
  <tile id="248">
   <image source="tiled/ERW-Grassland 2.0/Props/Static props/sheet2-sprites/wood log - big - rope - 12.png" width="32" height="96"/>
  </tile>
  <tile id="249">
   <image source="tiled/ERW-Grassland 2.0/Props/Static props/sheet2-sprites/wood log - big - thiner - 1.png" width="32" height="96"/>
  </tile>
  <tile id="250">
   <image source="tiled/ERW-Grassland 2.0/Props/Static props/sheet2-sprites/wood log - big - thiner - 2.png" width="32" height="96"/>
  </tile>
  <tile id="251">
   <image source="tiled/ERW-Grassland 2.0/Props/Static props/sheet2-sprites/wood log - big - thiner - 3.png" width="32" height="96"/>
  </tile>
  <tile id="252">
   <image source="tiled/ERW-Grassland 2.0/Props/Static props/sheet2-sprites/wood log - big - thiner - 4.png" width="32" height="96"/>
  </tile>
  <tile id="253">
   <image source="tiled/ERW-Grassland 2.0/Props/Static props/sheet2-sprites/wood log - big - thiner - 5.png" width="32" height="96"/>
  </tile>
  <tile id="254">
   <image source="tiled/ERW-Grassland 2.0/Props/Static props/sheet2-sprites/wood log - intermediate - no rope - 1.png" width="32" height="96"/>
  </tile>
  <tile id="255">
   <image source="tiled/ERW-Grassland 2.0/Props/Static props/sheet2-sprites/wood log - intermediate - no rope - 2.png" width="32" height="96"/>
  </tile>
  <tile id="256">
   <image source="tiled/ERW-Grassland 2.0/Props/Static props/sheet2-sprites/wood log - intermediate - no rope - 3.png" width="32" height="96"/>
  </tile>
  <tile id="257">
   <image source="tiled/ERW-Grassland 2.0/Props/Static props/sheet2-sprites/wood log - intermediate - no rope - 4.png" width="32" height="96"/>
  </tile>
  <tile id="258">
   <image source="tiled/ERW-Grassland 2.0/Props/Static props/sheet2-sprites/wood log - intermediate - no rope - 5.png" width="32" height="96"/>
  </tile>
  <tile id="259">
   <image source="tiled/ERW-Grassland 2.0/Props/Static props/sheet2-sprites/wood log - intermediate - no rope - 6.png" width="32" height="96"/>
  </tile>
  <tile id="260">
   <image source="tiled/ERW-Grassland 2.0/Props/Static props/sheet2-sprites/wood log - intermediate - no rope - 7.png" width="32" height="96"/>
  </tile>
  <tile id="261">
   <image source="tiled/ERW-Grassland 2.0/Props/Static props/sheet2-sprites/wood log - intermediate - no rope - 8.png" width="32" height="96"/>
  </tile>
  <tile id="262">
   <image source="tiled/ERW-Grassland 2.0/Props/Static props/sheet2-sprites/wood log - intermediate - no rope - 9.png" width="32" height="96"/>
  </tile>
  <tile id="263">
   <image source="tiled/ERW-Grassland 2.0/Props/Static props/sheet2-sprites/wood log - intermediate - no rope - 10.png" width="32" height="96"/>
  </tile>
  <tile id="264">
   <image source="tiled/ERW-Grassland 2.0/Props/Static props/sheet2-sprites/wood log - intermediate - no rope - 11.png" width="32" height="96"/>
  </tile>
  <tile id="265">
   <image source="tiled/ERW-Grassland 2.0/Props/Static props/sheet2-sprites/wood log - intermediate - no rope - 12.png" width="32" height="96"/>
  </tile>
  <tile id="266">
   <image source="tiled/ERW-Grassland 2.0/Props/Static props/sheet2-sprites/wood log - intermediate - rope - 1.png" width="32" height="96"/>
  </tile>
  <tile id="267">
   <image source="tiled/ERW-Grassland 2.0/Props/Static props/sheet2-sprites/wood log - intermediate - rope - 2.png" width="32" height="96"/>
  </tile>
  <tile id="268">
   <image source="tiled/ERW-Grassland 2.0/Props/Static props/sheet2-sprites/wood log - intermediate - rope - 3.png" width="32" height="96"/>
  </tile>
  <tile id="269">
   <image source="tiled/ERW-Grassland 2.0/Props/Static props/sheet2-sprites/wood log - intermediate - rope - 4.png" width="32" height="96"/>
  </tile>
  <tile id="270">
   <image source="tiled/ERW-Grassland 2.0/Props/Static props/sheet2-sprites/wood log - intermediate - rope - 5.png" width="32" height="96"/>
  </tile>
  <tile id="271">
   <image source="tiled/ERW-Grassland 2.0/Props/Static props/sheet2-sprites/wood log - intermediate - rope - 6.png" width="32" height="96"/>
  </tile>
  <tile id="272">
   <image source="tiled/ERW-Grassland 2.0/Props/Static props/sheet2-sprites/wood log - intermediate - rope - 7.png" width="32" height="96"/>
  </tile>
  <tile id="273">
   <image source="tiled/ERW-Grassland 2.0/Props/Static props/sheet2-sprites/wood log - intermediate - rope - 8.png" width="32" height="96"/>
  </tile>
  <tile id="274">
   <image source="tiled/ERW-Grassland 2.0/Props/Static props/sheet2-sprites/wood log - intermediate - rope - 9.png" width="32" height="96"/>
  </tile>
  <tile id="275">
   <image source="tiled/ERW-Grassland 2.0/Props/Static props/sheet2-sprites/wood log - intermediate - rope - 10.png" width="32" height="96"/>
  </tile>
  <tile id="276">
   <image source="tiled/ERW-Grassland 2.0/Props/Static props/sheet2-sprites/wood log - intermediate - rope - 11.png" width="32" height="96"/>
  </tile>
  <tile id="277">
   <image source="tiled/ERW-Grassland 2.0/Props/Static props/sheet2-sprites/wood log - intermediate - rope - 12.png" width="32" height="96"/>
  </tile>
  <tile id="278">
   <image source="tiled/ERW-Grassland 2.0/Props/Static props/sheet2-sprites/wood log - small - thiner - 1.png" width="32" height="64"/>
  </tile>
  <tile id="279">
   <image source="tiled/ERW-Grassland 2.0/Props/Static props/sheet2-sprites/wood log - small - thiner - 2.png" width="32" height="64"/>
  </tile>
  <tile id="280">
   <image source="tiled/ERW-Grassland 2.0/Props/Static props/sheet2-sprites/wood log - small - thiner - 3.png" width="32" height="64"/>
  </tile>
  <tile id="281">
   <image source="tiled/ERW-Grassland 2.0/Props/Static props/sheet2-sprites/wood log - small - thiner - 4.png" width="32" height="64"/>
  </tile>
  <tile id="282">
   <image source="tiled/ERW-Grassland 2.0/Props/Static props/sheet2-sprites/wood log - small - thiner - 5.png" width="32" height="64"/>
  </tile>
  <tile id="283">
   <image source="tiled/ERW-Grassland 2.0/Props/Static props/sheet2-sprites/wood log - small - thiner - 6.png" width="32" height="64"/>
  </tile>
  <tile id="284">
   <image source="tiled/ERW-Grassland 2.0/Props/Static props/sheet2-sprites/wood log - small - thiner - 7.png" width="32" height="64"/>
  </tile>
  <tile id="285">
   <image source="tiled/ERW-Grassland 2.0/Props/Static props/sheet2-sprites/wood log - small - thiner - 8.png" width="32" height="64"/>
  </tile>
  <tile id="286">
   <image source="tiled/ERW-Grassland 2.0/Props/Static props/sheet2-sprites/wood log - small - thiner - 9.png" width="32" height="64"/>
  </tile>
  <tile id="287">
   <image source="tiled/ERW-Grassland 2.0/Props/Static props/sheet2-sprites/wood log - small - thiner - 10.png" width="32" height="64"/>
  </tile>
  <tile id="288">
   <image source="tiled/ERW-Grassland 2.0/Props/Static props/sheet2-sprites/wood log wall pack - intermediate - 1.png" width="256" height="96"/>
  </tile>
  <tile id="289">
   <image source="tiled/ERW-Grassland 2.0/Props/Static props/sheet2-sprites/wood log wall pack - intermediate - 2.png" width="96" height="96"/>
  </tile>
  <tile id="290">
   <image source="tiled/ERW-Grassland 2.0/Props/Static props/sheet2-sprites/wood log wall pack - intermediate - 3.png" width="96" height="96"/>
  </tile>
  <tile id="291">
   <image source="tiled/ERW-Grassland 2.0/Props/Static props/sheet2-sprites/wood log wall pack - intermediate - 4.png" width="96" height="96"/>
  </tile>
  <tile id="292">
   <image source="tiled/ERW-Grassland 2.0/Props/Static props/sheet2-sprites/wood log wall pack - intermediate - no grass - 1.png" width="256" height="96"/>
  </tile>
  <tile id="293">
   <image source="tiled/ERW-Grassland 2.0/Props/Static props/sheet2-sprites/wood log wall pack - intermediate - no grass - 2.png" width="96" height="96"/>
  </tile>
  <tile id="294">
   <image source="tiled/ERW-Grassland 2.0/Props/Static props/sheet2-sprites/wood log wall pack - intermediate - no grass - 3.png" width="96" height="96"/>
  </tile>
  <tile id="295">
   <image source="tiled/ERW-Grassland 2.0/Props/Static props/sheet2-sprites/wood log wall pack - intermediate - no grass - 4.png" width="96" height="96"/>
  </tile>
  <tile id="296">
   <image source="tiled/ERW-Grassland 2.0/Props/Static props/sheet2-sprites/wooden table - rustic - on grass.png" width="128" height="64"/>
  </tile>
 </tileset>
 <tileset firstgid="7900" name="Atlas-props-sprites" tilewidth="576" tileheight="480" tilecount="363" columns="0">
  <grid orientation="orthogonal" width="1" height="1"/>
  <tile id="0">
   <image source="tiled/ERW-Sea Adventures-GL2 Expansion/props/atlas-props-sprites/barrel - fish_0.png" width="32" height="64"/>
  </tile>
  <tile id="1">
   <image source="tiled/ERW-Sea Adventures-GL2 Expansion/props/atlas-props-sprites/barrel - fish_1.png" width="32" height="64"/>
  </tile>
  <tile id="2">
   <image source="tiled/ERW-Sea Adventures-GL2 Expansion/props/atlas-props-sprites/barrel - fish_2.png" width="32" height="64"/>
  </tile>
  <tile id="3">
   <image source="tiled/ERW-Sea Adventures-GL2 Expansion/props/atlas-props-sprites/barrel - fish_3.png" width="32" height="64"/>
  </tile>
  <tile id="4">
   <image source="tiled/ERW-Sea Adventures-GL2 Expansion/props/atlas-props-sprites/barrel - fish_4.png" width="32" height="64"/>
  </tile>
  <tile id="5">
   <image source="tiled/ERW-Sea Adventures-GL2 Expansion/props/atlas-props-sprites/barrel - fish_5.png" width="32" height="64"/>
  </tile>
  <tile id="6">
   <image source="tiled/ERW-Sea Adventures-GL2 Expansion/props/atlas-props-sprites/barrel_0.png" width="32" height="64"/>
  </tile>
  <tile id="7">
   <image source="tiled/ERW-Sea Adventures-GL2 Expansion/props/atlas-props-sprites/barrel_1.png" width="32" height="64"/>
  </tile>
  <tile id="8">
   <image source="tiled/ERW-Sea Adventures-GL2 Expansion/props/atlas-props-sprites/barrel_2.png" width="32" height="64"/>
  </tile>
  <tile id="9">
   <image source="tiled/ERW-Sea Adventures-GL2 Expansion/props/atlas-props-sprites/barrel_3.png" width="32" height="64"/>
  </tile>
  <tile id="10">
   <image source="tiled/ERW-Sea Adventures-GL2 Expansion/props/atlas-props-sprites/barrels on sand_0.png" width="32" height="64"/>
  </tile>
  <tile id="11">
   <image source="tiled/ERW-Sea Adventures-GL2 Expansion/props/atlas-props-sprites/barrels on sand_1.png" width="32" height="64"/>
  </tile>
  <tile id="12">
   <image source="tiled/ERW-Sea Adventures-GL2 Expansion/props/atlas-props-sprites/barrels on sand_2.png" width="32" height="64"/>
  </tile>
  <tile id="13">
   <image source="tiled/ERW-Sea Adventures-GL2 Expansion/props/atlas-props-sprites/barrels on sand_3.png" width="32" height="64"/>
  </tile>
  <tile id="14">
   <image source="tiled/ERW-Sea Adventures-GL2 Expansion/props/atlas-props-sprites/barrels on sand_4.png" width="32" height="64"/>
  </tile>
  <tile id="15">
   <image source="tiled/ERW-Sea Adventures-GL2 Expansion/props/atlas-props-sprites/barrels on sand_5.png" width="32" height="64"/>
  </tile>
  <tile id="16">
   <image source="tiled/ERW-Sea Adventures-GL2 Expansion/props/atlas-props-sprites/barrels on sand_6.png" width="32" height="64"/>
  </tile>
  <tile id="17">
   <image source="tiled/ERW-Sea Adventures-GL2 Expansion/props/atlas-props-sprites/barrels on sand_7.png" width="32" height="64"/>
  </tile>
  <tile id="18">
   <image source="tiled/ERW-Sea Adventures-GL2 Expansion/props/atlas-props-sprites/barrels on sand_8.png" width="32" height="64"/>
  </tile>
  <tile id="19">
   <image source="tiled/ERW-Sea Adventures-GL2 Expansion/props/atlas-props-sprites/barrels on sand_9.png" width="32" height="64"/>
  </tile>
  <tile id="20">
   <image source="tiled/ERW-Sea Adventures-GL2 Expansion/props/atlas-props-sprites/barrels on sand_10.png" width="32" height="32"/>
  </tile>
  <tile id="21">
   <image source="tiled/ERW-Sea Adventures-GL2 Expansion/props/atlas-props-sprites/barrels on sand_11.png" width="32" height="32"/>
  </tile>
  <tile id="22">
   <image source="tiled/ERW-Sea Adventures-GL2 Expansion/props/atlas-props-sprites/barrels on sand_12.png" width="32" height="32"/>
  </tile>
  <tile id="23">
   <image source="tiled/ERW-Sea Adventures-GL2 Expansion/props/atlas-props-sprites/barrels on sand_13.png" width="32" height="32"/>
  </tile>
  <tile id="24">
   <image source="tiled/ERW-Sea Adventures-GL2 Expansion/props/atlas-props-sprites/barrels on sand_14.png" width="32" height="32"/>
  </tile>
  <tile id="25">
   <image source="tiled/ERW-Sea Adventures-GL2 Expansion/props/atlas-props-sprites/barrels on sand_15.png" width="32" height="32"/>
  </tile>
  <tile id="26">
   <image source="tiled/ERW-Sea Adventures-GL2 Expansion/props/atlas-props-sprites/barrels on sand_16.png" width="32" height="32"/>
  </tile>
  <tile id="27">
   <image source="tiled/ERW-Sea Adventures-GL2 Expansion/props/atlas-props-sprites/barrels on sand_17.png" width="32" height="32"/>
  </tile>
  <tile id="28">
   <image source="tiled/ERW-Sea Adventures-GL2 Expansion/props/atlas-props-sprites/barrels on sand_18.png" width="32" height="32"/>
  </tile>
  <tile id="29">
   <image source="tiled/ERW-Sea Adventures-GL2 Expansion/props/atlas-props-sprites/barrels on sand_19.png" width="32" height="32"/>
  </tile>
  <tile id="30">
   <image source="tiled/ERW-Sea Adventures-GL2 Expansion/props/atlas-props-sprites/barrels on sand_20.png" width="32" height="32"/>
  </tile>
  <tile id="31">
   <image source="tiled/ERW-Sea Adventures-GL2 Expansion/props/atlas-props-sprites/barrels on sand_21.png" width="32" height="32"/>
  </tile>
  <tile id="32">
   <image source="tiled/ERW-Sea Adventures-GL2 Expansion/props/atlas-props-sprites/barrels on sand_22.png" width="32" height="32"/>
  </tile>
  <tile id="33">
   <image source="tiled/ERW-Sea Adventures-GL2 Expansion/props/atlas-props-sprites/barrels on sand_23.png" width="32" height="32"/>
  </tile>
  <tile id="34">
   <image source="tiled/ERW-Sea Adventures-GL2 Expansion/props/atlas-props-sprites/barrels on sand_24.png" width="32" height="32"/>
  </tile>
  <tile id="35">
   <image source="tiled/ERW-Sea Adventures-GL2 Expansion/props/atlas-props-sprites/barrels on sand_25.png" width="32" height="32"/>
  </tile>
  <tile id="36">
   <image source="tiled/ERW-Sea Adventures-GL2 Expansion/props/atlas-props-sprites/barrels on sand_26.png" width="32" height="32"/>
  </tile>
  <tile id="37">
   <image source="tiled/ERW-Sea Adventures-GL2 Expansion/props/atlas-props-sprites/barrels on sand_27.png" width="32" height="32"/>
  </tile>
  <tile id="38">
   <image source="tiled/ERW-Sea Adventures-GL2 Expansion/props/atlas-props-sprites/barrels on sand_28.png" width="32" height="32"/>
  </tile>
  <tile id="39">
   <image source="tiled/ERW-Sea Adventures-GL2 Expansion/props/atlas-props-sprites/barrels on sand_29.png" width="32" height="32"/>
  </tile>
  <tile id="40">
   <image source="tiled/ERW-Sea Adventures-GL2 Expansion/props/atlas-props-sprites/barrels_0.png" width="32" height="64"/>
  </tile>
  <tile id="41">
   <image source="tiled/ERW-Sea Adventures-GL2 Expansion/props/atlas-props-sprites/barrels_1.png" width="32" height="64"/>
  </tile>
  <tile id="42">
   <image source="tiled/ERW-Sea Adventures-GL2 Expansion/props/atlas-props-sprites/barrels_2.png" width="32" height="64"/>
  </tile>
  <tile id="43">
   <image source="tiled/ERW-Sea Adventures-GL2 Expansion/props/atlas-props-sprites/barrels_3.png" width="32" height="64"/>
  </tile>
  <tile id="44">
   <image source="tiled/ERW-Sea Adventures-GL2 Expansion/props/atlas-props-sprites/barrels_4.png" width="32" height="64"/>
  </tile>
  <tile id="45">
   <image source="tiled/ERW-Sea Adventures-GL2 Expansion/props/atlas-props-sprites/barrels_5.png" width="32" height="64"/>
  </tile>
  <tile id="46">
   <image source="tiled/ERW-Sea Adventures-GL2 Expansion/props/atlas-props-sprites/barrels_6.png" width="32" height="64"/>
  </tile>
  <tile id="47">
   <image source="tiled/ERW-Sea Adventures-GL2 Expansion/props/atlas-props-sprites/barrels_7.png" width="32" height="64"/>
  </tile>
  <tile id="48">
   <image source="tiled/ERW-Sea Adventures-GL2 Expansion/props/atlas-props-sprites/barrels_8.png" width="32" height="64"/>
  </tile>
  <tile id="49">
   <image source="tiled/ERW-Sea Adventures-GL2 Expansion/props/atlas-props-sprites/barrels_9.png" width="32" height="64"/>
  </tile>
  <tile id="50">
   <image source="tiled/ERW-Sea Adventures-GL2 Expansion/props/atlas-props-sprites/barricade.png" width="64" height="96"/>
  </tile>
  <tile id="51">
   <image source="tiled/ERW-Sea Adventures-GL2 Expansion/props/atlas-props-sprites/basket with fishes-1.png" width="96" height="64"/>
  </tile>
  <tile id="52">
   <image source="tiled/ERW-Sea Adventures-GL2 Expansion/props/atlas-props-sprites/basket with fishes-2.png" width="32" height="32"/>
  </tile>
  <tile id="53">
   <image source="tiled/ERW-Sea Adventures-GL2 Expansion/props/atlas-props-sprites/basket with fishes-3.png" width="32" height="32"/>
  </tile>
  <tile id="54">
   <image source="tiled/ERW-Sea Adventures-GL2 Expansion/props/atlas-props-sprites/basket with fruits-1.png" width="32" height="64"/>
  </tile>
  <tile id="55">
   <image source="tiled/ERW-Sea Adventures-GL2 Expansion/props/atlas-props-sprites/basket with fruits-2.png" width="32" height="32"/>
  </tile>
  <tile id="56">
   <image source="tiled/ERW-Sea Adventures-GL2 Expansion/props/atlas-props-sprites/basket with fruits-3.png" width="32" height="32"/>
  </tile>
  <tile id="57">
   <image source="tiled/ERW-Sea Adventures-GL2 Expansion/props/atlas-props-sprites/basket with fruits-4.png" width="32" height="64"/>
  </tile>
  <tile id="58">
   <image source="tiled/ERW-Sea Adventures-GL2 Expansion/props/atlas-props-sprites/basket with fruits-5.png" width="32" height="64"/>
  </tile>
  <tile id="59">
   <image source="tiled/ERW-Sea Adventures-GL2 Expansion/props/atlas-props-sprites/basket with fruits-6.png" width="96" height="64"/>
  </tile>
  <tile id="60">
   <image source="tiled/ERW-Sea Adventures-GL2 Expansion/props/atlas-props-sprites/basket with fruits-7.png" width="96" height="64"/>
  </tile>
  <tile id="61">
   <image source="tiled/ERW-Sea Adventures-GL2 Expansion/props/atlas-props-sprites/baskets-1.png" width="32" height="32"/>
  </tile>
  <tile id="62">
   <image source="tiled/ERW-Sea Adventures-GL2 Expansion/props/atlas-props-sprites/baskets-2.png" width="32" height="32"/>
  </tile>
  <tile id="63">
   <image source="tiled/ERW-Sea Adventures-GL2 Expansion/props/atlas-props-sprites/baskets-3.png" width="32" height="64"/>
  </tile>
  <tile id="64">
   <image source="tiled/ERW-Sea Adventures-GL2 Expansion/props/atlas-props-sprites/baskets-4.png" width="32" height="64"/>
  </tile>
  <tile id="65">
   <image source="tiled/ERW-Sea Adventures-GL2 Expansion/props/atlas-props-sprites/baskets-5.png" width="32" height="64"/>
  </tile>
  <tile id="66">
   <image source="tiled/ERW-Sea Adventures-GL2 Expansion/props/atlas-props-sprites/baskets-6.png" width="128" height="64"/>
  </tile>
  <tile id="67">
   <image source="tiled/ERW-Sea Adventures-GL2 Expansion/props/atlas-props-sprites/baskets-7.png" width="96" height="64"/>
  </tile>
  <tile id="68">
   <image source="tiled/ERW-Sea Adventures-GL2 Expansion/props/atlas-props-sprites/bones_0.png" width="32" height="32"/>
  </tile>
  <tile id="69">
   <image source="tiled/ERW-Sea Adventures-GL2 Expansion/props/atlas-props-sprites/bones_1.png" width="32" height="32"/>
  </tile>
  <tile id="70">
   <image source="tiled/ERW-Sea Adventures-GL2 Expansion/props/atlas-props-sprites/bones_2.png" width="32" height="32"/>
  </tile>
  <tile id="71">
   <image source="tiled/ERW-Sea Adventures-GL2 Expansion/props/atlas-props-sprites/bones_3.png" width="32" height="32"/>
  </tile>
  <tile id="72">
   <image source="tiled/ERW-Sea Adventures-GL2 Expansion/props/atlas-props-sprites/bones_4.png" width="32" height="32"/>
  </tile>
  <tile id="73">
   <image source="tiled/ERW-Sea Adventures-GL2 Expansion/props/atlas-props-sprites/bones_5.png" width="32" height="32"/>
  </tile>
  <tile id="74">
   <image source="tiled/ERW-Sea Adventures-GL2 Expansion/props/atlas-props-sprites/bones_6.png" width="32" height="32"/>
  </tile>
  <tile id="75">
   <image source="tiled/ERW-Sea Adventures-GL2 Expansion/props/atlas-props-sprites/bones_7.png" width="32" height="32"/>
  </tile>
  <tile id="76">
   <image source="tiled/ERW-Sea Adventures-GL2 Expansion/props/atlas-props-sprites/bones_8.png" width="32" height="32"/>
  </tile>
  <tile id="77">
   <image source="tiled/ERW-Sea Adventures-GL2 Expansion/props/atlas-props-sprites/bones_9.png" width="32" height="32"/>
  </tile>
  <tile id="78">
   <image source="tiled/ERW-Sea Adventures-GL2 Expansion/props/atlas-props-sprites/bones_10.png" width="32" height="32"/>
  </tile>
  <tile id="79">
   <image source="tiled/ERW-Sea Adventures-GL2 Expansion/props/atlas-props-sprites/bones_11.png" width="32" height="32"/>
  </tile>
  <tile id="80">
   <image source="tiled/ERW-Sea Adventures-GL2 Expansion/props/atlas-props-sprites/bones_12.png" width="32" height="32"/>
  </tile>
  <tile id="81">
   <image source="tiled/ERW-Sea Adventures-GL2 Expansion/props/atlas-props-sprites/bones_13.png" width="32" height="32"/>
  </tile>
  <tile id="82">
   <image source="tiled/ERW-Sea Adventures-GL2 Expansion/props/atlas-props-sprites/bones_14.png" width="32" height="32"/>
  </tile>
  <tile id="83">
   <image source="tiled/ERW-Sea Adventures-GL2 Expansion/props/atlas-props-sprites/bones_15.png" width="64" height="64"/>
  </tile>
  <tile id="84">
   <image source="tiled/ERW-Sea Adventures-GL2 Expansion/props/atlas-props-sprites/bones_16.png" width="32" height="64"/>
  </tile>
  <tile id="85">
   <image source="tiled/ERW-Sea Adventures-GL2 Expansion/props/atlas-props-sprites/bones_17.png" width="32" height="64"/>
  </tile>
  <tile id="86">
   <image source="tiled/ERW-Sea Adventures-GL2 Expansion/props/atlas-props-sprites/bones_18.png" width="32" height="64"/>
  </tile>
  <tile id="87">
   <image source="tiled/ERW-Sea Adventures-GL2 Expansion/props/atlas-props-sprites/bones_19.png" width="32" height="64"/>
  </tile>
  <tile id="88">
   <image source="tiled/ERW-Sea Adventures-GL2 Expansion/props/atlas-props-sprites/bones_20.png" width="32" height="64"/>
  </tile>
  <tile id="89">
   <image source="tiled/ERW-Sea Adventures-GL2 Expansion/props/atlas-props-sprites/bones_21.png" width="32" height="32"/>
  </tile>
  <tile id="90">
   <image source="tiled/ERW-Sea Adventures-GL2 Expansion/props/atlas-props-sprites/bones_22.png" width="32" height="32"/>
  </tile>
  <tile id="91">
   <image source="tiled/ERW-Sea Adventures-GL2 Expansion/props/atlas-props-sprites/bucket_0.png" width="32" height="32"/>
  </tile>
  <tile id="92">
   <image source="tiled/ERW-Sea Adventures-GL2 Expansion/props/atlas-props-sprites/bucket_1.png" width="32" height="32"/>
  </tile>
  <tile id="93">
   <image source="tiled/ERW-Sea Adventures-GL2 Expansion/props/atlas-props-sprites/bucket_2.png" width="32" height="32"/>
  </tile>
  <tile id="94">
   <image source="tiled/ERW-Sea Adventures-GL2 Expansion/props/atlas-props-sprites/bucket_3.png" width="32" height="32"/>
  </tile>
  <tile id="95">
   <image source="tiled/ERW-Sea Adventures-GL2 Expansion/props/atlas-props-sprites/bucket_4.png" width="32" height="32"/>
  </tile>
  <tile id="96">
   <image source="tiled/ERW-Sea Adventures-GL2 Expansion/props/atlas-props-sprites/chest_0.png" width="64" height="64"/>
  </tile>
  <tile id="97">
   <image source="tiled/ERW-Sea Adventures-GL2 Expansion/props/atlas-props-sprites/chest_1.png" width="64" height="64"/>
  </tile>
  <tile id="98">
   <image source="tiled/ERW-Sea Adventures-GL2 Expansion/props/atlas-props-sprites/chest_2.png" width="64" height="64"/>
  </tile>
  <tile id="99">
   <image source="tiled/ERW-Sea Adventures-GL2 Expansion/props/atlas-props-sprites/chest_3.png" width="64" height="32"/>
  </tile>
  <tile id="100">
   <image source="tiled/ERW-Sea Adventures-GL2 Expansion/props/atlas-props-sprites/coconut_0.png" width="32" height="32"/>
  </tile>
  <tile id="101">
   <image source="tiled/ERW-Sea Adventures-GL2 Expansion/props/atlas-props-sprites/coconut_1.png" width="32" height="32"/>
  </tile>
  <tile id="102">
   <image source="tiled/ERW-Sea Adventures-GL2 Expansion/props/atlas-props-sprites/coconut_2.png" width="32" height="32"/>
  </tile>
  <tile id="103">
   <image source="tiled/ERW-Sea Adventures-GL2 Expansion/props/atlas-props-sprites/coconut_3.png" width="32" height="32"/>
  </tile>
  <tile id="104">
   <image source="tiled/ERW-Sea Adventures-GL2 Expansion/props/atlas-props-sprites/coconut_4.png" width="32" height="32"/>
  </tile>
  <tile id="105">
   <image source="tiled/ERW-Sea Adventures-GL2 Expansion/props/atlas-props-sprites/coconut_5.png" width="32" height="32"/>
  </tile>
  <tile id="106">
   <image source="tiled/ERW-Sea Adventures-GL2 Expansion/props/atlas-props-sprites/coconut_6.png" width="32" height="32"/>
  </tile>
  <tile id="107">
   <image source="tiled/ERW-Sea Adventures-GL2 Expansion/props/atlas-props-sprites/coconut_7.png" width="32" height="32"/>
  </tile>
  <tile id="108">
   <image source="tiled/ERW-Sea Adventures-GL2 Expansion/props/atlas-props-sprites/coconut_8.png" width="32" height="32"/>
  </tile>
  <tile id="109">
   <image source="tiled/ERW-Sea Adventures-GL2 Expansion/props/atlas-props-sprites/coconut_9.png" width="32" height="32"/>
  </tile>
  <tile id="110">
   <image source="tiled/ERW-Sea Adventures-GL2 Expansion/props/atlas-props-sprites/coconut_10.png" width="32" height="32"/>
  </tile>
  <tile id="111">
   <image source="tiled/ERW-Sea Adventures-GL2 Expansion/props/atlas-props-sprites/coconut_11.png" width="32" height="32"/>
  </tile>
  <tile id="112">
   <image source="tiled/ERW-Sea Adventures-GL2 Expansion/props/atlas-props-sprites/coconut_12.png" width="32" height="32"/>
  </tile>
  <tile id="113">
   <image source="tiled/ERW-Sea Adventures-GL2 Expansion/props/atlas-props-sprites/coconut_13.png" width="32" height="32"/>
  </tile>
  <tile id="114">
   <image source="tiled/ERW-Sea Adventures-GL2 Expansion/props/atlas-props-sprites/coconut_14.png" width="32" height="32"/>
  </tile>
  <tile id="115">
   <image source="tiled/ERW-Sea Adventures-GL2 Expansion/props/atlas-props-sprites/coconut_15.png" width="32" height="32"/>
  </tile>
  <tile id="116">
   <image source="tiled/ERW-Sea Adventures-GL2 Expansion/props/atlas-props-sprites/crates - fish_0.png" width="32" height="64"/>
  </tile>
  <tile id="117">
   <image source="tiled/ERW-Sea Adventures-GL2 Expansion/props/atlas-props-sprites/crates - fish_1.png" width="32" height="64"/>
  </tile>
  <tile id="118">
   <image source="tiled/ERW-Sea Adventures-GL2 Expansion/props/atlas-props-sprites/crates - fish_2.png" width="32" height="64"/>
  </tile>
  <tile id="119">
   <image source="tiled/ERW-Sea Adventures-GL2 Expansion/props/atlas-props-sprites/crates - fish_3.png" width="32" height="64"/>
  </tile>
  <tile id="120">
   <image source="tiled/ERW-Sea Adventures-GL2 Expansion/props/atlas-props-sprites/crates - fish_4.png" width="32" height="64"/>
  </tile>
  <tile id="121">
   <image source="tiled/ERW-Sea Adventures-GL2 Expansion/props/atlas-props-sprites/crates - fish_5.png" width="32" height="64"/>
  </tile>
  <tile id="122">
   <image source="tiled/ERW-Sea Adventures-GL2 Expansion/props/atlas-props-sprites/crates on sand_0.png" width="32" height="64"/>
  </tile>
  <tile id="123">
   <image source="tiled/ERW-Sea Adventures-GL2 Expansion/props/atlas-props-sprites/crates on sand_1.png" width="32" height="64"/>
  </tile>
  <tile id="124">
   <image source="tiled/ERW-Sea Adventures-GL2 Expansion/props/atlas-props-sprites/crates on sand_2.png" width="32" height="64"/>
  </tile>
  <tile id="125">
   <image source="tiled/ERW-Sea Adventures-GL2 Expansion/props/atlas-props-sprites/crates on sand_3.png" width="32" height="64"/>
  </tile>
  <tile id="126">
   <image source="tiled/ERW-Sea Adventures-GL2 Expansion/props/atlas-props-sprites/crates on sand_4.png" width="32" height="64"/>
  </tile>
  <tile id="127">
   <image source="tiled/ERW-Sea Adventures-GL2 Expansion/props/atlas-props-sprites/crates on sand_5.png" width="32" height="64"/>
  </tile>
  <tile id="128">
   <image source="tiled/ERW-Sea Adventures-GL2 Expansion/props/atlas-props-sprites/crates on sand_6.png" width="32" height="64"/>
  </tile>
  <tile id="129">
   <image source="tiled/ERW-Sea Adventures-GL2 Expansion/props/atlas-props-sprites/crates on sand_7.png" width="32" height="64"/>
  </tile>
  <tile id="130">
   <image source="tiled/ERW-Sea Adventures-GL2 Expansion/props/atlas-props-sprites/crates on sand_8.png" width="32" height="64"/>
  </tile>
  <tile id="131">
   <image source="tiled/ERW-Sea Adventures-GL2 Expansion/props/atlas-props-sprites/crates on sand_9.png" width="32" height="64"/>
  </tile>
  <tile id="132">
   <image source="tiled/ERW-Sea Adventures-GL2 Expansion/props/atlas-props-sprites/crates on sand_10.png" width="32" height="64"/>
  </tile>
  <tile id="133">
   <image source="tiled/ERW-Sea Adventures-GL2 Expansion/props/atlas-props-sprites/crates on sand_11.png" width="32" height="32"/>
  </tile>
  <tile id="134">
   <image source="tiled/ERW-Sea Adventures-GL2 Expansion/props/atlas-props-sprites/crates on sand_12.png" width="32" height="32"/>
  </tile>
  <tile id="135">
   <image source="tiled/ERW-Sea Adventures-GL2 Expansion/props/atlas-props-sprites/crates on sand_13.png" width="32" height="32"/>
  </tile>
  <tile id="136">
   <image source="tiled/ERW-Sea Adventures-GL2 Expansion/props/atlas-props-sprites/crates on sand_14.png" width="32" height="32"/>
  </tile>
  <tile id="137">
   <image source="tiled/ERW-Sea Adventures-GL2 Expansion/props/atlas-props-sprites/crates on sand_15.png" width="32" height="32"/>
  </tile>
  <tile id="138">
   <image source="tiled/ERW-Sea Adventures-GL2 Expansion/props/atlas-props-sprites/crates on sand_16.png" width="32" height="32"/>
  </tile>
  <tile id="139">
   <image source="tiled/ERW-Sea Adventures-GL2 Expansion/props/atlas-props-sprites/crates on sand_17.png" width="32" height="32"/>
  </tile>
  <tile id="140">
   <image source="tiled/ERW-Sea Adventures-GL2 Expansion/props/atlas-props-sprites/crates on sand_18.png" width="32" height="32"/>
  </tile>
  <tile id="141">
   <image source="tiled/ERW-Sea Adventures-GL2 Expansion/props/atlas-props-sprites/crates on sand_19.png" width="32" height="32"/>
  </tile>
  <tile id="142">
   <image source="tiled/ERW-Sea Adventures-GL2 Expansion/props/atlas-props-sprites/crates on sand_20.png" width="32" height="32"/>
  </tile>
  <tile id="143">
   <image source="tiled/ERW-Sea Adventures-GL2 Expansion/props/atlas-props-sprites/crates on sand_21.png" width="32" height="32"/>
  </tile>
  <tile id="144">
   <image source="tiled/ERW-Sea Adventures-GL2 Expansion/props/atlas-props-sprites/crates on sand_22.png" width="32" height="32"/>
  </tile>
  <tile id="145">
   <image source="tiled/ERW-Sea Adventures-GL2 Expansion/props/atlas-props-sprites/crates on sand_23.png" width="32" height="32"/>
  </tile>
  <tile id="146">
   <image source="tiled/ERW-Sea Adventures-GL2 Expansion/props/atlas-props-sprites/crates on sand_24.png" width="32" height="32"/>
  </tile>
  <tile id="147">
   <image source="tiled/ERW-Sea Adventures-GL2 Expansion/props/atlas-props-sprites/crates on sand_25.png" width="32" height="32"/>
  </tile>
  <tile id="148">
   <image source="tiled/ERW-Sea Adventures-GL2 Expansion/props/atlas-props-sprites/crates on sand_26.png" width="32" height="32"/>
  </tile>
  <tile id="149">
   <image source="tiled/ERW-Sea Adventures-GL2 Expansion/props/atlas-props-sprites/crates on sand_27.png" width="32" height="32"/>
  </tile>
  <tile id="150">
   <image source="tiled/ERW-Sea Adventures-GL2 Expansion/props/atlas-props-sprites/crates on sand_28.png" width="32" height="32"/>
  </tile>
  <tile id="151">
   <image source="tiled/ERW-Sea Adventures-GL2 Expansion/props/atlas-props-sprites/crates on sand_29.png" width="32" height="32"/>
  </tile>
  <tile id="152">
   <image source="tiled/ERW-Sea Adventures-GL2 Expansion/props/atlas-props-sprites/crates on sand_30.png" width="32" height="32"/>
  </tile>
  <tile id="153">
   <image source="tiled/ERW-Sea Adventures-GL2 Expansion/props/atlas-props-sprites/crates on sand_31.png" width="32" height="32"/>
  </tile>
  <tile id="154">
   <image source="tiled/ERW-Sea Adventures-GL2 Expansion/props/atlas-props-sprites/crates on sand_32.png" width="32" height="32"/>
  </tile>
  <tile id="155">
   <image source="tiled/ERW-Sea Adventures-GL2 Expansion/props/atlas-props-sprites/crates with fruits_0.png" width="32" height="64"/>
  </tile>
  <tile id="156">
   <image source="tiled/ERW-Sea Adventures-GL2 Expansion/props/atlas-props-sprites/crates with fruits_1.png" width="32" height="64"/>
  </tile>
  <tile id="157">
   <image source="tiled/ERW-Sea Adventures-GL2 Expansion/props/atlas-props-sprites/crates with fruits_2.png" width="32" height="64"/>
  </tile>
  <tile id="158">
   <image source="tiled/ERW-Sea Adventures-GL2 Expansion/props/atlas-props-sprites/crates_0.png" width="32" height="64"/>
  </tile>
  <tile id="159">
   <image source="tiled/ERW-Sea Adventures-GL2 Expansion/props/atlas-props-sprites/crates_1.png" width="32" height="64"/>
  </tile>
  <tile id="160">
   <image source="tiled/ERW-Sea Adventures-GL2 Expansion/props/atlas-props-sprites/crates_2.png" width="32" height="64"/>
  </tile>
  <tile id="161">
   <image source="tiled/ERW-Sea Adventures-GL2 Expansion/props/atlas-props-sprites/crates_3.png" width="32" height="64"/>
  </tile>
  <tile id="162">
   <image source="tiled/ERW-Sea Adventures-GL2 Expansion/props/atlas-props-sprites/crates_4.png" width="32" height="64"/>
  </tile>
  <tile id="163">
   <image source="tiled/ERW-Sea Adventures-GL2 Expansion/props/atlas-props-sprites/crates_5.png" width="32" height="64"/>
  </tile>
  <tile id="164">
   <image source="tiled/ERW-Sea Adventures-GL2 Expansion/props/atlas-props-sprites/crates_6.png" width="32" height="64"/>
  </tile>
  <tile id="165">
   <image source="tiled/ERW-Sea Adventures-GL2 Expansion/props/atlas-props-sprites/crates_7.png" width="32" height="64"/>
  </tile>
  <tile id="166">
   <image source="tiled/ERW-Sea Adventures-GL2 Expansion/props/atlas-props-sprites/crates_8.png" width="32" height="64"/>
  </tile>
  <tile id="167">
   <image source="tiled/ERW-Sea Adventures-GL2 Expansion/props/atlas-props-sprites/crates_9.png" width="32" height="64"/>
  </tile>
  <tile id="168">
   <image source="tiled/ERW-Sea Adventures-GL2 Expansion/props/atlas-props-sprites/crates_10.png" width="32" height="64"/>
  </tile>
  <tile id="169">
   <image source="tiled/ERW-Sea Adventures-GL2 Expansion/props/atlas-props-sprites/crates-opened_0.png" width="32" height="64"/>
  </tile>
  <tile id="170">
   <image source="tiled/ERW-Sea Adventures-GL2 Expansion/props/atlas-props-sprites/crates-opened_1.png" width="32" height="64"/>
  </tile>
  <tile id="171">
   <image source="tiled/ERW-Sea Adventures-GL2 Expansion/props/atlas-props-sprites/crates-opened_2.png" width="32" height="64"/>
  </tile>
  <tile id="172">
   <image source="tiled/ERW-Sea Adventures-GL2 Expansion/props/atlas-props-sprites/crates-opened_3.png" width="32" height="64"/>
  </tile>
  <tile id="173">
   <image source="tiled/ERW-Sea Adventures-GL2 Expansion/props/atlas-props-sprites/crates-opened_4.png" width="32" height="64"/>
  </tile>
  <tile id="174">
   <image source="tiled/ERW-Sea Adventures-GL2 Expansion/props/atlas-props-sprites/cratess-1.png" width="64" height="64"/>
  </tile>
  <tile id="175">
   <image source="tiled/ERW-Sea Adventures-GL2 Expansion/props/atlas-props-sprites/cratess-2.png" width="32" height="64"/>
  </tile>
  <tile id="176">
   <image source="tiled/ERW-Sea Adventures-GL2 Expansion/props/atlas-props-sprites/fish_0.png" width="32" height="32"/>
  </tile>
  <tile id="177">
   <image source="tiled/ERW-Sea Adventures-GL2 Expansion/props/atlas-props-sprites/fish_1.png" width="32" height="32"/>
  </tile>
  <tile id="178">
   <image source="tiled/ERW-Sea Adventures-GL2 Expansion/props/atlas-props-sprites/fish_2.png" width="32" height="32"/>
  </tile>
  <tile id="179">
   <image source="tiled/ERW-Sea Adventures-GL2 Expansion/props/atlas-props-sprites/fish_3.png" width="32" height="32"/>
  </tile>
  <tile id="180">
   <image source="tiled/ERW-Sea Adventures-GL2 Expansion/props/atlas-props-sprites/fish_4.png" width="32" height="32"/>
  </tile>
  <tile id="181">
   <image source="tiled/ERW-Sea Adventures-GL2 Expansion/props/atlas-props-sprites/fish_5.png" width="32" height="32"/>
  </tile>
  <tile id="182">
   <image source="tiled/ERW-Sea Adventures-GL2 Expansion/props/atlas-props-sprites/fish_6.png" width="32" height="32"/>
  </tile>
  <tile id="183">
   <image source="tiled/ERW-Sea Adventures-GL2 Expansion/props/atlas-props-sprites/fish_7.png" width="32" height="32"/>
  </tile>
  <tile id="184">
   <image source="tiled/ERW-Sea Adventures-GL2 Expansion/props/atlas-props-sprites/fish_8.png" width="32" height="32"/>
  </tile>
  <tile id="185">
   <image source="tiled/ERW-Sea Adventures-GL2 Expansion/props/atlas-props-sprites/fish_9.png" width="32" height="32"/>
  </tile>
  <tile id="186">
   <image source="tiled/ERW-Sea Adventures-GL2 Expansion/props/atlas-props-sprites/fish_10.png" width="32" height="32"/>
  </tile>
  <tile id="187">
   <image source="tiled/ERW-Sea Adventures-GL2 Expansion/props/atlas-props-sprites/fish_11.png" width="32" height="32"/>
  </tile>
  <tile id="188">
   <image source="tiled/ERW-Sea Adventures-GL2 Expansion/props/atlas-props-sprites/fish_12.png" width="32" height="32"/>
  </tile>
  <tile id="189">
   <image source="tiled/ERW-Sea Adventures-GL2 Expansion/props/atlas-props-sprites/fish_13.png" width="32" height="32"/>
  </tile>
  <tile id="190">
   <image source="tiled/ERW-Sea Adventures-GL2 Expansion/props/atlas-props-sprites/fish_14.png" width="32" height="32"/>
  </tile>
  <tile id="191">
   <image source="tiled/ERW-Sea Adventures-GL2 Expansion/props/atlas-props-sprites/fish_15.png" width="64" height="32"/>
  </tile>
  <tile id="192">
   <image source="tiled/ERW-Sea Adventures-GL2 Expansion/props/atlas-props-sprites/fish_16.png" width="64" height="32"/>
  </tile>
  <tile id="193">
   <image source="tiled/ERW-Sea Adventures-GL2 Expansion/props/atlas-props-sprites/fish_17.png" width="64" height="32"/>
  </tile>
  <tile id="194">
   <image source="tiled/ERW-Sea Adventures-GL2 Expansion/props/atlas-props-sprites/fish_18.png" width="64" height="32"/>
  </tile>
  <tile id="195">
   <image source="tiled/ERW-Sea Adventures-GL2 Expansion/props/atlas-props-sprites/fossil.png" width="512" height="192"/>
  </tile>
  <tile id="196">
   <image source="tiled/ERW-Sea Adventures-GL2 Expansion/props/atlas-props-sprites/fossil-sand.png" width="512" height="192"/>
  </tile>
  <tile id="197">
   <image source="tiled/ERW-Sea Adventures-GL2 Expansion/props/atlas-props-sprites/fruits-apple1.png" width="32" height="32"/>
  </tile>
  <tile id="198">
   <image source="tiled/ERW-Sea Adventures-GL2 Expansion/props/atlas-props-sprites/fruits-apple2.png" width="32" height="32"/>
  </tile>
  <tile id="199">
   <image source="tiled/ERW-Sea Adventures-GL2 Expansion/props/atlas-props-sprites/fruits-avocado1.png" width="32" height="32"/>
  </tile>
  <tile id="200">
   <image source="tiled/ERW-Sea Adventures-GL2 Expansion/props/atlas-props-sprites/fruits-avocado2.png" width="32" height="32"/>
  </tile>
  <tile id="201">
   <image source="tiled/ERW-Sea Adventures-GL2 Expansion/props/atlas-props-sprites/fruits-banana1.png" width="32" height="32"/>
  </tile>
  <tile id="202">
   <image source="tiled/ERW-Sea Adventures-GL2 Expansion/props/atlas-props-sprites/fruits-banana2.png" width="32" height="32"/>
  </tile>
  <tile id="203">
   <image source="tiled/ERW-Sea Adventures-GL2 Expansion/props/atlas-props-sprites/fruits-banana3.png" width="32" height="32"/>
  </tile>
  <tile id="204">
   <image source="tiled/ERW-Sea Adventures-GL2 Expansion/props/atlas-props-sprites/fruits-grapes1.png" width="32" height="32"/>
  </tile>
  <tile id="205">
   <image source="tiled/ERW-Sea Adventures-GL2 Expansion/props/atlas-props-sprites/fruits-grapes2.png" width="32" height="32"/>
  </tile>
  <tile id="206">
   <image source="tiled/ERW-Sea Adventures-GL2 Expansion/props/atlas-props-sprites/fruits-grapes3.png" width="32" height="32"/>
  </tile>
  <tile id="207">
   <image source="tiled/ERW-Sea Adventures-GL2 Expansion/props/atlas-props-sprites/fruits-lemon1.png" width="32" height="32"/>
  </tile>
  <tile id="208">
   <image source="tiled/ERW-Sea Adventures-GL2 Expansion/props/atlas-props-sprites/fruits-lemon2.png" width="32" height="32"/>
  </tile>
  <tile id="209">
   <image source="tiled/ERW-Sea Adventures-GL2 Expansion/props/atlas-props-sprites/fruits-orange1.png" width="32" height="32"/>
  </tile>
  <tile id="210">
   <image source="tiled/ERW-Sea Adventures-GL2 Expansion/props/atlas-props-sprites/fruits-orange2.png" width="32" height="32"/>
  </tile>
  <tile id="211">
   <image source="tiled/ERW-Sea Adventures-GL2 Expansion/props/atlas-props-sprites/fruits-papaya1.png" width="32" height="32"/>
  </tile>
  <tile id="212">
   <image source="tiled/ERW-Sea Adventures-GL2 Expansion/props/atlas-props-sprites/fruits-papaya2.png" width="32" height="32"/>
  </tile>
  <tile id="213">
   <image source="tiled/ERW-Sea Adventures-GL2 Expansion/props/atlas-props-sprites/fruits-pear.png" width="32" height="32"/>
  </tile>
  <tile id="214">
   <image source="tiled/ERW-Sea Adventures-GL2 Expansion/props/atlas-props-sprites/fruits-pineapple.png" width="32" height="32"/>
  </tile>
  <tile id="215">
   <image source="tiled/ERW-Sea Adventures-GL2 Expansion/props/atlas-props-sprites/fruits-pinepaple.png" width="32" height="32"/>
  </tile>
  <tile id="216">
   <image source="tiled/ERW-Sea Adventures-GL2 Expansion/props/atlas-props-sprites/fruits-pumpkin1.png" width="32" height="32"/>
  </tile>
  <tile id="217">
   <image source="tiled/ERW-Sea Adventures-GL2 Expansion/props/atlas-props-sprites/fruits-pumpkin2.png" width="32" height="32"/>
  </tile>
  <tile id="218">
   <image source="tiled/ERW-Sea Adventures-GL2 Expansion/props/atlas-props-sprites/fruits-strawberry.png" width="32" height="32"/>
  </tile>
  <tile id="219">
   <image source="tiled/ERW-Sea Adventures-GL2 Expansion/props/atlas-props-sprites/fruits-watermelon1.png" width="32" height="32"/>
  </tile>
  <tile id="220">
   <image source="tiled/ERW-Sea Adventures-GL2 Expansion/props/atlas-props-sprites/fruits-watermelon2.png" width="32" height="32"/>
  </tile>
  <tile id="221">
   <image source="tiled/ERW-Sea Adventures-GL2 Expansion/props/atlas-props-sprites/house or shop-pirate.png" width="384" height="224"/>
  </tile>
  <tile id="222">
   <image source="tiled/ERW-Sea Adventures-GL2 Expansion/props/atlas-props-sprites/house or shop-shadow.png" width="384" height="64"/>
  </tile>
  <tile id="223">
   <image source="tiled/ERW-Sea Adventures-GL2 Expansion/props/atlas-props-sprites/house-fisherman house.png" width="224" height="288"/>
  </tile>
  <tile id="224">
   <image source="tiled/ERW-Sea Adventures-GL2 Expansion/props/atlas-props-sprites/house-fisherman house-1.png" width="32" height="64"/>
  </tile>
  <tile id="225">
   <image source="tiled/ERW-Sea Adventures-GL2 Expansion/props/atlas-props-sprites/house-fisherman house-2.png" width="32" height="64"/>
  </tile>
  <tile id="226">
   <image source="tiled/ERW-Sea Adventures-GL2 Expansion/props/atlas-props-sprites/house-fisherman house-3.png" width="32" height="64"/>
  </tile>
  <tile id="227">
   <image source="tiled/ERW-Sea Adventures-GL2 Expansion/props/atlas-props-sprites/house-fisherman house-4.png" width="32" height="96"/>
  </tile>
  <tile id="228">
   <image source="tiled/ERW-Sea Adventures-GL2 Expansion/props/atlas-props-sprites/house-fisherman house-5.png" width="64" height="96"/>
  </tile>
  <tile id="229">
   <image source="tiled/ERW-Sea Adventures-GL2 Expansion/props/atlas-props-sprites/house-fisherman house-6.png" width="64" height="96"/>
  </tile>
  <tile id="230">
   <image source="tiled/ERW-Sea Adventures-GL2 Expansion/props/atlas-props-sprites/lighthouse cabin.png" width="192" height="256"/>
  </tile>
  <tile id="231">
   <image source="tiled/ERW-Sea Adventures-GL2 Expansion/props/atlas-props-sprites/lighthouse cabin-grass.png" width="192" height="32"/>
  </tile>
  <tile id="232">
   <image source="tiled/ERW-Sea Adventures-GL2 Expansion/props/atlas-props-sprites/lighthouse cabin-sand.png" width="192" height="32"/>
  </tile>
  <tile id="233">
   <image source="tiled/ERW-Sea Adventures-GL2 Expansion/props/atlas-props-sprites/lighthouse grass.png" width="160" height="128"/>
  </tile>
  <tile id="234">
   <image source="tiled/ERW-Sea Adventures-GL2 Expansion/props/atlas-props-sprites/lighthouse sand.png" width="160" height="128"/>
  </tile>
  <tile id="235">
   <image source="tiled/ERW-Sea Adventures-GL2 Expansion/props/atlas-props-sprites/lighthouse shadow - grass.png" width="160" height="128"/>
  </tile>
  <tile id="236">
   <image source="tiled/ERW-Sea Adventures-GL2 Expansion/props/atlas-props-sprites/lighthouse shadow - sand.png" width="160" height="128"/>
  </tile>
  <tile id="237">
   <image source="tiled/ERW-Sea Adventures-GL2 Expansion/props/atlas-props-sprites/lighthouse shadow.png" width="160" height="128"/>
  </tile>
  <tile id="238">
   <image source="tiled/ERW-Sea Adventures-GL2 Expansion/props/atlas-props-sprites/lighthouse.png" width="160" height="480"/>
  </tile>
  <tile id="239">
   <image source="tiled/ERW-Sea Adventures-GL2 Expansion/props/atlas-props-sprites/little stalls_0.png" width="128" height="160"/>
  </tile>
  <tile id="240">
   <image source="tiled/ERW-Sea Adventures-GL2 Expansion/props/atlas-props-sprites/little stalls_1.png" width="192" height="160"/>
  </tile>
  <tile id="241">
   <image source="tiled/ERW-Sea Adventures-GL2 Expansion/props/atlas-props-sprites/little stalls_2.png" width="128" height="160"/>
  </tile>
  <tile id="242">
   <image source="tiled/ERW-Sea Adventures-GL2 Expansion/props/atlas-props-sprites/little stalls_3.png" width="160" height="128"/>
  </tile>
  <tile id="243">
   <image source="tiled/ERW-Sea Adventures-GL2 Expansion/props/atlas-props-sprites/little stalls_4.png" width="160" height="128"/>
  </tile>
  <tile id="244">
   <image source="tiled/ERW-Sea Adventures-GL2 Expansion/props/atlas-props-sprites/little stalls_5.png" width="128" height="160"/>
  </tile>
  <tile id="245">
   <image source="tiled/ERW-Sea Adventures-GL2 Expansion/props/atlas-props-sprites/little stalls_6.png" width="192" height="160"/>
  </tile>
  <tile id="246">
   <image source="tiled/ERW-Sea Adventures-GL2 Expansion/props/atlas-props-sprites/little stalls_7.png" width="128" height="160"/>
  </tile>
  <tile id="247">
   <image source="tiled/ERW-Sea Adventures-GL2 Expansion/props/atlas-props-sprites/palm tree - 1.png" width="96" height="160"/>
  </tile>
  <tile id="248">
   <image source="tiled/ERW-Sea Adventures-GL2 Expansion/props/atlas-props-sprites/palm tree - 2.png" width="96" height="160"/>
  </tile>
  <tile id="249">
   <image source="tiled/ERW-Sea Adventures-GL2 Expansion/props/atlas-props-sprites/palm tree - 3.png" width="160" height="192"/>
  </tile>
  <tile id="250">
   <image source="tiled/ERW-Sea Adventures-GL2 Expansion/props/atlas-props-sprites/palm tree - 4.png" width="128" height="160"/>
  </tile>
  <tile id="251">
   <image source="tiled/ERW-Sea Adventures-GL2 Expansion/props/atlas-props-sprites/palm tree - 5.png" width="96" height="160"/>
  </tile>
  <tile id="252">
   <image source="tiled/ERW-Sea Adventures-GL2 Expansion/props/atlas-props-sprites/palm tree - 6.png" width="96" height="192"/>
  </tile>
  <tile id="253">
   <image source="tiled/ERW-Sea Adventures-GL2 Expansion/props/atlas-props-sprites/palm tree - leaves-1.png" width="96" height="96"/>
  </tile>
  <tile id="254">
   <image source="tiled/ERW-Sea Adventures-GL2 Expansion/props/atlas-props-sprites/palm tree - leaves-2.png" width="96" height="96"/>
  </tile>
  <tile id="255">
   <image source="tiled/ERW-Sea Adventures-GL2 Expansion/props/atlas-props-sprites/palm tree - leaves-3.png" width="128" height="96"/>
  </tile>
  <tile id="256">
   <image source="tiled/ERW-Sea Adventures-GL2 Expansion/props/atlas-props-sprites/palm tree - shadow -1.png" width="96" height="64"/>
  </tile>
  <tile id="257">
   <image source="tiled/ERW-Sea Adventures-GL2 Expansion/props/atlas-props-sprites/palm tree - shadow -2.png" width="96" height="64"/>
  </tile>
  <tile id="258">
   <image source="tiled/ERW-Sea Adventures-GL2 Expansion/props/atlas-props-sprites/palm tree - shadow -3.png" width="128" height="64"/>
  </tile>
  <tile id="259">
   <image source="tiled/ERW-Sea Adventures-GL2 Expansion/props/atlas-props-sprites/palm tree - shadow -4.png" width="128" height="64"/>
  </tile>
  <tile id="260">
   <image source="tiled/ERW-Sea Adventures-GL2 Expansion/props/atlas-props-sprites/palm tree - shadow -5.png" width="96" height="64"/>
  </tile>
  <tile id="261">
   <image source="tiled/ERW-Sea Adventures-GL2 Expansion/props/atlas-props-sprites/palm tree - shadow -6.png" width="96" height="64"/>
  </tile>
  <tile id="262">
   <image source="tiled/ERW-Sea Adventures-GL2 Expansion/props/atlas-props-sprites/palm tree - trunk-1.png" width="64" height="96"/>
  </tile>
  <tile id="263">
   <image source="tiled/ERW-Sea Adventures-GL2 Expansion/props/atlas-props-sprites/palm tree - trunk-2.png" width="64" height="96"/>
  </tile>
  <tile id="264">
   <image source="tiled/ERW-Sea Adventures-GL2 Expansion/props/atlas-props-sprites/palm tree - trunk-3.png" width="96" height="128"/>
  </tile>
  <tile id="265">
   <image source="tiled/ERW-Sea Adventures-GL2 Expansion/props/atlas-props-sprites/palm tree - trunk-4.png" width="96" height="96"/>
  </tile>
  <tile id="266">
   <image source="tiled/ERW-Sea Adventures-GL2 Expansion/props/atlas-props-sprites/palm tree - trunk-5.png" width="64" height="128"/>
  </tile>
  <tile id="267">
   <image source="tiled/ERW-Sea Adventures-GL2 Expansion/props/atlas-props-sprites/palm tree - trunk-6.png" width="64" height="128"/>
  </tile>
  <tile id="268">
   <image source="tiled/ERW-Sea Adventures-GL2 Expansion/props/atlas-props-sprites/rocks on sand_0.png" width="32" height="32"/>
  </tile>
  <tile id="269">
   <image source="tiled/ERW-Sea Adventures-GL2 Expansion/props/atlas-props-sprites/rocks on sand_1.png" width="32" height="32"/>
  </tile>
  <tile id="270">
   <image source="tiled/ERW-Sea Adventures-GL2 Expansion/props/atlas-props-sprites/rocks on sand_2.png" width="32" height="32"/>
  </tile>
  <tile id="271">
   <image source="tiled/ERW-Sea Adventures-GL2 Expansion/props/atlas-props-sprites/rocks on sand_3.png" width="32" height="32"/>
  </tile>
  <tile id="272">
   <image source="tiled/ERW-Sea Adventures-GL2 Expansion/props/atlas-props-sprites/rocks on sand_4.png" width="32" height="32"/>
  </tile>
  <tile id="273">
   <image source="tiled/ERW-Sea Adventures-GL2 Expansion/props/atlas-props-sprites/rocks on sand_5.png" width="32" height="32"/>
  </tile>
  <tile id="274">
   <image source="tiled/ERW-Sea Adventures-GL2 Expansion/props/atlas-props-sprites/rocks on sand_6.png" width="32" height="32"/>
  </tile>
  <tile id="275">
   <image source="tiled/ERW-Sea Adventures-GL2 Expansion/props/atlas-props-sprites/rocks on sand_7.png" width="32" height="32"/>
  </tile>
  <tile id="276">
   <image source="tiled/ERW-Sea Adventures-GL2 Expansion/props/atlas-props-sprites/rocks on sand_8.png" width="32" height="32"/>
  </tile>
  <tile id="277">
   <image source="tiled/ERW-Sea Adventures-GL2 Expansion/props/atlas-props-sprites/rocks on sand_9.png" width="32" height="32"/>
  </tile>
  <tile id="278">
   <image source="tiled/ERW-Sea Adventures-GL2 Expansion/props/atlas-props-sprites/rocks on sand_10.png" width="32" height="32"/>
  </tile>
  <tile id="279">
   <image source="tiled/ERW-Sea Adventures-GL2 Expansion/props/atlas-props-sprites/rocks on sand_11.png" width="32" height="32"/>
  </tile>
  <tile id="280">
   <image source="tiled/ERW-Sea Adventures-GL2 Expansion/props/atlas-props-sprites/rocks on sand_12.png" width="32" height="32"/>
  </tile>
  <tile id="281">
   <image source="tiled/ERW-Sea Adventures-GL2 Expansion/props/atlas-props-sprites/rocks on sand_13.png" width="32" height="32"/>
  </tile>
  <tile id="282">
   <image source="tiled/ERW-Sea Adventures-GL2 Expansion/props/atlas-props-sprites/rocks on sand_14.png" width="32" height="32"/>
  </tile>
  <tile id="283">
   <image source="tiled/ERW-Sea Adventures-GL2 Expansion/props/atlas-props-sprites/rocks on sand_15.png" width="32" height="32"/>
  </tile>
  <tile id="284">
   <image source="tiled/ERW-Sea Adventures-GL2 Expansion/props/atlas-props-sprites/rocks on sand_16.png" width="32" height="32"/>
  </tile>
  <tile id="285">
   <image source="tiled/ERW-Sea Adventures-GL2 Expansion/props/atlas-props-sprites/rocks on sand_17.png" width="32" height="32"/>
  </tile>
  <tile id="286">
   <image source="tiled/ERW-Sea Adventures-GL2 Expansion/props/atlas-props-sprites/rocks on sand_18.png" width="32" height="32"/>
  </tile>
  <tile id="287">
   <image source="tiled/ERW-Sea Adventures-GL2 Expansion/props/atlas-props-sprites/rocks on sand_19.png" width="32" height="32"/>
  </tile>
  <tile id="288">
   <image source="tiled/ERW-Sea Adventures-GL2 Expansion/props/atlas-props-sprites/rocks on sand_20.png" width="32" height="32"/>
  </tile>
  <tile id="289">
   <image source="tiled/ERW-Sea Adventures-GL2 Expansion/props/atlas-props-sprites/rocks on sand_21.png" width="32" height="32"/>
  </tile>
  <tile id="290">
   <image source="tiled/ERW-Sea Adventures-GL2 Expansion/props/atlas-props-sprites/rocks on sand_22.png" width="32" height="32"/>
  </tile>
  <tile id="291">
   <image source="tiled/ERW-Sea Adventures-GL2 Expansion/props/atlas-props-sprites/rocks on sand_23.png" width="32" height="32"/>
  </tile>
  <tile id="292">
   <image source="tiled/ERW-Sea Adventures-GL2 Expansion/props/atlas-props-sprites/rocks on sand_24.png" width="64" height="32"/>
  </tile>
  <tile id="293">
   <image source="tiled/ERW-Sea Adventures-GL2 Expansion/props/atlas-props-sprites/rocks on sand_25.png" width="64" height="32"/>
  </tile>
  <tile id="294">
   <image source="tiled/ERW-Sea Adventures-GL2 Expansion/props/atlas-props-sprites/rocks on sand_26.png" width="96" height="64"/>
  </tile>
  <tile id="295">
   <image source="tiled/ERW-Sea Adventures-GL2 Expansion/props/atlas-props-sprites/rocks on sand_27.png" width="96" height="64"/>
  </tile>
  <tile id="296">
   <image source="tiled/ERW-Sea Adventures-GL2 Expansion/props/atlas-props-sprites/rocks on sand_28.png" width="64" height="64"/>
  </tile>
  <tile id="297">
   <image source="tiled/ERW-Sea Adventures-GL2 Expansion/props/atlas-props-sprites/rocks on sand_29.png" width="64" height="64"/>
  </tile>
  <tile id="298">
   <image source="tiled/ERW-Sea Adventures-GL2 Expansion/props/atlas-props-sprites/rocks on sand_30.png" width="64" height="64"/>
  </tile>
  <tile id="299">
   <image source="tiled/ERW-Sea Adventures-GL2 Expansion/props/atlas-props-sprites/rocks on sand_31.png" width="64" height="64"/>
  </tile>
  <tile id="300">
   <image source="tiled/ERW-Sea Adventures-GL2 Expansion/props/atlas-props-sprites/rocks on sand_32.png" width="96" height="64"/>
  </tile>
  <tile id="301">
   <image source="tiled/ERW-Sea Adventures-GL2 Expansion/props/atlas-props-sprites/rocks_0.png" width="32" height="32"/>
  </tile>
  <tile id="302">
   <image source="tiled/ERW-Sea Adventures-GL2 Expansion/props/atlas-props-sprites/rocks_1.png" width="32" height="32"/>
  </tile>
  <tile id="303">
   <image source="tiled/ERW-Sea Adventures-GL2 Expansion/props/atlas-props-sprites/rocks_2.png" width="32" height="32"/>
  </tile>
  <tile id="304">
   <image source="tiled/ERW-Sea Adventures-GL2 Expansion/props/atlas-props-sprites/rocks_3.png" width="32" height="32"/>
  </tile>
  <tile id="305">
   <image source="tiled/ERW-Sea Adventures-GL2 Expansion/props/atlas-props-sprites/rocks_4.png" width="32" height="32"/>
  </tile>
  <tile id="306">
   <image source="tiled/ERW-Sea Adventures-GL2 Expansion/props/atlas-props-sprites/rocks_5.png" width="32" height="32"/>
  </tile>
  <tile id="307">
   <image source="tiled/ERW-Sea Adventures-GL2 Expansion/props/atlas-props-sprites/rocks_6.png" width="32" height="32"/>
  </tile>
  <tile id="308">
   <image source="tiled/ERW-Sea Adventures-GL2 Expansion/props/atlas-props-sprites/rocks_7.png" width="32" height="32"/>
  </tile>
  <tile id="309">
   <image source="tiled/ERW-Sea Adventures-GL2 Expansion/props/atlas-props-sprites/rocks_8.png" width="32" height="32"/>
  </tile>
  <tile id="310">
   <image source="tiled/ERW-Sea Adventures-GL2 Expansion/props/atlas-props-sprites/rocks_9.png" width="32" height="32"/>
  </tile>
  <tile id="311">
   <image source="tiled/ERW-Sea Adventures-GL2 Expansion/props/atlas-props-sprites/rocks_10.png" width="32" height="32"/>
  </tile>
  <tile id="312">
   <image source="tiled/ERW-Sea Adventures-GL2 Expansion/props/atlas-props-sprites/rocks_11.png" width="32" height="32"/>
  </tile>
  <tile id="313">
   <image source="tiled/ERW-Sea Adventures-GL2 Expansion/props/atlas-props-sprites/rocks_12.png" width="32" height="32"/>
  </tile>
  <tile id="314">
   <image source="tiled/ERW-Sea Adventures-GL2 Expansion/props/atlas-props-sprites/rocks_13.png" width="32" height="32"/>
  </tile>
  <tile id="315">
   <image source="tiled/ERW-Sea Adventures-GL2 Expansion/props/atlas-props-sprites/rocks_14.png" width="32" height="32"/>
  </tile>
  <tile id="316">
   <image source="tiled/ERW-Sea Adventures-GL2 Expansion/props/atlas-props-sprites/rocks_15.png" width="32" height="32"/>
  </tile>
  <tile id="317">
   <image source="tiled/ERW-Sea Adventures-GL2 Expansion/props/atlas-props-sprites/rocky skull structure.png" width="576" height="256"/>
  </tile>
  <tile id="318">
   <image source="tiled/ERW-Sea Adventures-GL2 Expansion/props/atlas-props-sprites/rocky skull structure-grass.png" width="576" height="256"/>
  </tile>
  <tile id="319">
   <image source="tiled/ERW-Sea Adventures-GL2 Expansion/props/atlas-props-sprites/rocky skull structure-sand.png" width="576" height="256"/>
  </tile>
  <tile id="320">
   <image source="tiled/ERW-Sea Adventures-GL2 Expansion/props/atlas-props-sprites/rocky skull.png" width="128" height="128"/>
  </tile>
  <tile id="321">
   <image source="tiled/ERW-Sea Adventures-GL2 Expansion/props/atlas-props-sprites/rocky skull-grass.png" width="128" height="128"/>
  </tile>
  <tile id="322">
   <image source="tiled/ERW-Sea Adventures-GL2 Expansion/props/atlas-props-sprites/rocky skull-sand.png" width="128" height="128"/>
  </tile>
  <tile id="323">
   <image source="tiled/ERW-Sea Adventures-GL2 Expansion/props/atlas-props-sprites/rope on floor_0.png" width="32" height="32"/>
  </tile>
  <tile id="324">
   <image source="tiled/ERW-Sea Adventures-GL2 Expansion/props/atlas-props-sprites/rope on floor_1.png" width="32" height="32"/>
  </tile>
  <tile id="325">
   <image source="tiled/ERW-Sea Adventures-GL2 Expansion/props/atlas-props-sprites/rope on floor_2.png" width="32" height="32"/>
  </tile>
  <tile id="326">
   <image source="tiled/ERW-Sea Adventures-GL2 Expansion/props/atlas-props-sprites/rope on floor_3.png" width="32" height="32"/>
  </tile>
  <tile id="327">
   <image source="tiled/ERW-Sea Adventures-GL2 Expansion/props/atlas-props-sprites/rope on floor_4.png" width="32" height="32"/>
  </tile>
  <tile id="328">
   <image source="tiled/ERW-Sea Adventures-GL2 Expansion/props/atlas-props-sprites/rope on floor_5.png" width="32" height="32"/>
  </tile>
  <tile id="329">
   <image source="tiled/ERW-Sea Adventures-GL2 Expansion/props/atlas-props-sprites/shells and pearls_0.png" width="32" height="32"/>
  </tile>
  <tile id="330">
   <image source="tiled/ERW-Sea Adventures-GL2 Expansion/props/atlas-props-sprites/shells and pearls_1.png" width="32" height="32"/>
  </tile>
  <tile id="331">
   <image source="tiled/ERW-Sea Adventures-GL2 Expansion/props/atlas-props-sprites/shells and pearls_2.png" width="32" height="32"/>
  </tile>
  <tile id="332">
   <image source="tiled/ERW-Sea Adventures-GL2 Expansion/props/atlas-props-sprites/shells and pearls_3.png" width="32" height="32"/>
  </tile>
  <tile id="333">
   <image source="tiled/ERW-Sea Adventures-GL2 Expansion/props/atlas-props-sprites/shells and pearls_4.png" width="32" height="32"/>
  </tile>
  <tile id="334">
   <image source="tiled/ERW-Sea Adventures-GL2 Expansion/props/atlas-props-sprites/shells and pearls_5.png" width="32" height="32"/>
  </tile>
  <tile id="335">
   <image source="tiled/ERW-Sea Adventures-GL2 Expansion/props/atlas-props-sprites/shells and pearls_6.png" width="32" height="32"/>
  </tile>
  <tile id="336">
   <image source="tiled/ERW-Sea Adventures-GL2 Expansion/props/atlas-props-sprites/shells and pearls_7.png" width="32" height="32"/>
  </tile>
  <tile id="337">
   <image source="tiled/ERW-Sea Adventures-GL2 Expansion/props/atlas-props-sprites/shells and pearls_8.png" width="32" height="32"/>
  </tile>
  <tile id="338">
   <image source="tiled/ERW-Sea Adventures-GL2 Expansion/props/atlas-props-sprites/shells and pearls_9.png" width="32" height="32"/>
  </tile>
  <tile id="339">
   <image source="tiled/ERW-Sea Adventures-GL2 Expansion/props/atlas-props-sprites/shells and pearls_10.png" width="32" height="32"/>
  </tile>
  <tile id="340">
   <image source="tiled/ERW-Sea Adventures-GL2 Expansion/props/atlas-props-sprites/shells and pearls_11.png" width="32" height="32"/>
  </tile>
  <tile id="341">
   <image source="tiled/ERW-Sea Adventures-GL2 Expansion/props/atlas-props-sprites/shop-blacksmith-vendor.png" width="256" height="288"/>
  </tile>
  <tile id="342">
   <image source="tiled/ERW-Sea Adventures-GL2 Expansion/props/atlas-props-sprites/shop-blacksmith-vendor-empty.png" width="256" height="288"/>
  </tile>
  <tile id="343">
   <image source="tiled/ERW-Sea Adventures-GL2 Expansion/props/atlas-props-sprites/shop-blacksmith-vendor-sign-armor.png" width="64" height="32"/>
  </tile>
  <tile id="344">
   <image source="tiled/ERW-Sea Adventures-GL2 Expansion/props/atlas-props-sprites/shop-blacksmith-vendor-sign-empty.png" width="64" height="32"/>
  </tile>
  <tile id="345">
   <image source="tiled/ERW-Sea Adventures-GL2 Expansion/props/atlas-props-sprites/shop-blacksmith-vendor-sign-potions.png" width="64" height="32"/>
  </tile>
  <tile id="346">
   <image source="tiled/ERW-Sea Adventures-GL2 Expansion/props/atlas-props-sprites/shop-blacksmith-vendor-sign-shield.png" width="64" height="32"/>
  </tile>
  <tile id="347">
   <image source="tiled/ERW-Sea Adventures-GL2 Expansion/props/atlas-props-sprites/shop-blacksmith-vendor-sign-weapon.png" width="64" height="32"/>
  </tile>
  <tile id="348">
   <image source="tiled/ERW-Sea Adventures-GL2 Expansion/props/atlas-props-sprites/Slice 34.png" width="128" height="64"/>
  </tile>
  <tile id="349">
   <image source="tiled/ERW-Sea Adventures-GL2 Expansion/props/atlas-props-sprites/Slice 35.png" width="192" height="64"/>
  </tile>
  <tile id="350">
   <image source="tiled/ERW-Sea Adventures-GL2 Expansion/props/atlas-props-sprites/Slice 38.png" width="192" height="64"/>
  </tile>
  <tile id="351">
   <image source="tiled/ERW-Sea Adventures-GL2 Expansion/props/atlas-props-sprites/Slice 39.png" width="160" height="96"/>
  </tile>
  <tile id="352">
   <image source="tiled/ERW-Sea Adventures-GL2 Expansion/props/atlas-props-sprites/Slice 51.png" width="96" height="96"/>
  </tile>
  <tile id="353">
   <image source="tiled/ERW-Sea Adventures-GL2 Expansion/props/atlas-props-sprites/stall-detail.png" width="64" height="64"/>
  </tile>
  <tile id="354">
   <image source="tiled/ERW-Sea Adventures-GL2 Expansion/props/atlas-props-sprites/stranded boat2-1.png" width="64" height="64"/>
  </tile>
  <tile id="355">
   <image source="tiled/ERW-Sea Adventures-GL2 Expansion/props/atlas-props-sprites/stranded boat2-2.png" width="64" height="64"/>
  </tile>
  <tile id="356">
   <image source="tiled/ERW-Sea Adventures-GL2 Expansion/props/atlas-props-sprites/stranded boat2-sand.png" width="96" height="64"/>
  </tile>
  <tile id="357">
   <image source="tiled/ERW-Sea Adventures-GL2 Expansion/props/atlas-props-sprites/stranded boat-sand.png" width="128" height="64"/>
  </tile>
  <tile id="358">
   <image source="tiled/ERW-Sea Adventures-GL2 Expansion/props/atlas-props-sprites/stranded ship.png" width="512" height="288"/>
  </tile>
  <tile id="359">
   <image source="tiled/ERW-Sea Adventures-GL2 Expansion/props/atlas-props-sprites/stranded ship-grass.png" width="512" height="288"/>
  </tile>
  <tile id="360">
   <image source="tiled/ERW-Sea Adventures-GL2 Expansion/props/atlas-props-sprites/stranded ship-sand.png" width="512" height="288"/>
  </tile>
  <tile id="361">
   <image source="tiled/ERW-Sea Adventures-GL2 Expansion/props/atlas-props-sprites/tent.png" width="288" height="352"/>
  </tile>
  <tile id="362">
   <image source="tiled/ERW-Sea Adventures-GL2 Expansion/props/atlas-props-sprites/watchtower.png" width="160" height="224"/>
  </tile>
 </tileset>
 <tileset firstgid="8263" name="props(as sprites)" tilewidth="224" tileheight="192" tilecount="271" columns="0">
  <grid orientation="orthogonal" width="1" height="1"/>
  <tile id="0">
   <image source="tiled/ERW - The Village/tilesets and props/props-sprites/barrels_0.png" width="32" height="64"/>
  </tile>
  <tile id="1">
   <image source="tiled/ERW - The Village/tilesets and props/props-sprites/barrels_1.png" width="32" height="64"/>
  </tile>
  <tile id="2">
   <image source="tiled/ERW - The Village/tilesets and props/props-sprites/barrels_2.png" width="32" height="64"/>
  </tile>
  <tile id="3">
   <image source="tiled/ERW - The Village/tilesets and props/props-sprites/barrels_3.png" width="32" height="64"/>
  </tile>
  <tile id="4">
   <image source="tiled/ERW - The Village/tilesets and props/props-sprites/barrels_4.png" width="32" height="64"/>
  </tile>
  <tile id="5">
   <image source="tiled/ERW - The Village/tilesets and props/props-sprites/barrels_5.png" width="32" height="64"/>
  </tile>
  <tile id="6">
   <image source="tiled/ERW - The Village/tilesets and props/props-sprites/barrels_6.png" width="32" height="64"/>
  </tile>
  <tile id="7">
   <image source="tiled/ERW - The Village/tilesets and props/props-sprites/barrels_7.png" width="32" height="64"/>
  </tile>
  <tile id="8">
   <image source="tiled/ERW - The Village/tilesets and props/props-sprites/barrels_8.png" width="32" height="64"/>
  </tile>
  <tile id="9">
   <image source="tiled/ERW - The Village/tilesets and props/props-sprites/barrels_9.png" width="32" height="64"/>
  </tile>
  <tile id="10">
   <image source="tiled/ERW - The Village/tilesets and props/props-sprites/barrels_10.png" width="32" height="64"/>
  </tile>
  <tile id="11">
   <image source="tiled/ERW - The Village/tilesets and props/props-sprites/barrels_11.png" width="32" height="64"/>
  </tile>
  <tile id="12">
   <image source="tiled/ERW - The Village/tilesets and props/props-sprites/barrels_12.png" width="32" height="64"/>
  </tile>
  <tile id="13">
   <image source="tiled/ERW - The Village/tilesets and props/props-sprites/barrels_13.png" width="32" height="64"/>
  </tile>
  <tile id="14">
   <image source="tiled/ERW - The Village/tilesets and props/props-sprites/barrels_14.png" width="32" height="64"/>
  </tile>
  <tile id="15">
   <image source="tiled/ERW - The Village/tilesets and props/props-sprites/barrels_15.png" width="32" height="64"/>
  </tile>
  <tile id="16">
   <image source="tiled/ERW - The Village/tilesets and props/props-sprites/barrels_16.png" width="32" height="64"/>
  </tile>
  <tile id="17">
   <image source="tiled/ERW - The Village/tilesets and props/props-sprites/barrels_17.png" width="32" height="32"/>
  </tile>
  <tile id="18">
   <image source="tiled/ERW - The Village/tilesets and props/props-sprites/barrels_18.png" width="32" height="32"/>
  </tile>
  <tile id="19">
   <image source="tiled/ERW - The Village/tilesets and props/props-sprites/barrels_19.png" width="32" height="32"/>
  </tile>
  <tile id="20">
   <image source="tiled/ERW - The Village/tilesets and props/props-sprites/barrels-pack_0.png" width="64" height="64"/>
  </tile>
  <tile id="21">
   <image source="tiled/ERW - The Village/tilesets and props/props-sprites/barrels-pack_1.png" width="96" height="64"/>
  </tile>
  <tile id="22">
   <image source="tiled/ERW - The Village/tilesets and props/props-sprites/barrels-pack_2.png" width="96" height="64"/>
  </tile>
  <tile id="23">
   <image source="tiled/ERW - The Village/tilesets and props/props-sprites/barrels-pack_3.png" width="64" height="64"/>
  </tile>
  <tile id="24">
   <image source="tiled/ERW - The Village/tilesets and props/props-sprites/barrels-pack_4.png" width="96" height="64"/>
  </tile>
  <tile id="25">
   <image source="tiled/ERW - The Village/tilesets and props/props-sprites/barrels-pack_5.png" width="64" height="64"/>
  </tile>
  <tile id="26">
   <image source="tiled/ERW - The Village/tilesets and props/props-sprites/bucket1.png" width="32" height="32"/>
  </tile>
  <tile id="27">
   <image source="tiled/ERW - The Village/tilesets and props/props-sprites/bucket2.png" width="32" height="32"/>
  </tile>
  <tile id="28">
   <image source="tiled/ERW - The Village/tilesets and props/props-sprites/bucket3.png" width="32" height="32"/>
  </tile>
  <tile id="29">
   <image source="tiled/ERW - The Village/tilesets and props/props-sprites/bucket4.png" width="32" height="32"/>
  </tile>
  <tile id="30">
   <image source="tiled/ERW - The Village/tilesets and props/props-sprites/clothes-line_0.png" width="96" height="64"/>
  </tile>
  <tile id="31">
   <image source="tiled/ERW - The Village/tilesets and props/props-sprites/clothes-line_1.png" width="96" height="64"/>
  </tile>
  <tile id="32">
   <image source="tiled/ERW - The Village/tilesets and props/props-sprites/clothes-line_14.png" width="96" height="64"/>
  </tile>
  <tile id="33">
   <image source="tiled/ERW - The Village/tilesets and props/props-sprites/clothes-line_15.png" width="96" height="64"/>
  </tile>
  <tile id="34">
   <image source="tiled/ERW - The Village/tilesets and props/props-sprites/clothes-line_16.png" width="96" height="64"/>
  </tile>
  <tile id="35">
   <image source="tiled/ERW - The Village/tilesets and props/props-sprites/clothes-line_17.png" width="96" height="64"/>
  </tile>
  <tile id="36">
   <image source="tiled/ERW - The Village/tilesets and props/props-sprites/cloths_0.png" width="32" height="32"/>
  </tile>
  <tile id="37">
   <image source="tiled/ERW - The Village/tilesets and props/props-sprites/cloths_1.png" width="32" height="32"/>
  </tile>
  <tile id="38">
   <image source="tiled/ERW - The Village/tilesets and props/props-sprites/cloths_2.png" width="32" height="32"/>
  </tile>
  <tile id="39">
   <image source="tiled/ERW - The Village/tilesets and props/props-sprites/cloths_3.png" width="32" height="32"/>
  </tile>
  <tile id="40">
   <image source="tiled/ERW - The Village/tilesets and props/props-sprites/cloths_4.png" width="32" height="32"/>
  </tile>
  <tile id="41">
   <image source="tiled/ERW - The Village/tilesets and props/props-sprites/cloths_5.png" width="32" height="32"/>
  </tile>
  <tile id="42">
   <image source="tiled/ERW - The Village/tilesets and props/props-sprites/cloths_6.png" width="32" height="32"/>
  </tile>
  <tile id="43">
   <image source="tiled/ERW - The Village/tilesets and props/props-sprites/cloths_7.png" width="32" height="32"/>
  </tile>
  <tile id="44">
   <image source="tiled/ERW - The Village/tilesets and props/props-sprites/crates_0.png" width="32" height="32"/>
  </tile>
  <tile id="45">
   <image source="tiled/ERW - The Village/tilesets and props/props-sprites/crates_1.png" width="32" height="32"/>
  </tile>
  <tile id="46">
   <image source="tiled/ERW - The Village/tilesets and props/props-sprites/crates_2.png" width="32" height="32"/>
  </tile>
  <tile id="47">
   <image source="tiled/ERW - The Village/tilesets and props/props-sprites/crates_3.png" width="32" height="32"/>
  </tile>
  <tile id="48">
   <image source="tiled/ERW - The Village/tilesets and props/props-sprites/crates_4.png" width="32" height="32"/>
  </tile>
  <tile id="49">
   <image source="tiled/ERW - The Village/tilesets and props/props-sprites/crates_5.png" width="32" height="32"/>
  </tile>
  <tile id="50">
   <image source="tiled/ERW - The Village/tilesets and props/props-sprites/crates_6.png" width="32" height="32"/>
  </tile>
  <tile id="51">
   <image source="tiled/ERW - The Village/tilesets and props/props-sprites/crates_7.png" width="32" height="32"/>
  </tile>
  <tile id="52">
   <image source="tiled/ERW - The Village/tilesets and props/props-sprites/crates_8.png" width="32" height="32"/>
  </tile>
  <tile id="53">
   <image source="tiled/ERW - The Village/tilesets and props/props-sprites/crates_9.png" width="32" height="32"/>
  </tile>
  <tile id="54">
   <image source="tiled/ERW - The Village/tilesets and props/props-sprites/crates_10.png" width="32" height="32"/>
  </tile>
  <tile id="55">
   <image source="tiled/ERW - The Village/tilesets and props/props-sprites/crates_11.png" width="32" height="32"/>
  </tile>
  <tile id="56">
   <image source="tiled/ERW - The Village/tilesets and props/props-sprites/crates-pack_0.png" width="64" height="64"/>
  </tile>
  <tile id="57">
   <image source="tiled/ERW - The Village/tilesets and props/props-sprites/crates-pack_1.png" width="64" height="64"/>
  </tile>
  <tile id="58">
   <image source="tiled/ERW - The Village/tilesets and props/props-sprites/crates-pack_2.png" width="96" height="64"/>
  </tile>
  <tile id="59">
   <image source="tiled/ERW - The Village/tilesets and props/props-sprites/crates-pack_3.png" width="96" height="64"/>
  </tile>
  <tile id="60">
   <image source="tiled/ERW - The Village/tilesets and props/props-sprites/crates-pack_4.png" width="64" height="96"/>
  </tile>
  <tile id="61">
   <image source="tiled/ERW - The Village/tilesets and props/props-sprites/crates-pack_5.png" width="96" height="96"/>
  </tile>
  <tile id="62">
   <image source="tiled/ERW - The Village/tilesets and props/props-sprites/crates-pack_6.png" width="96" height="64"/>
  </tile>
  <tile id="63">
   <image source="tiled/ERW - The Village/tilesets and props/props-sprites/crates-pack_7.png" width="64" height="64"/>
  </tile>
  <tile id="64">
   <image source="tiled/ERW - The Village/tilesets and props/props-sprites/grain-crate_0.png" width="64" height="64"/>
  </tile>
  <tile id="65">
   <image source="tiled/ERW - The Village/tilesets and props/props-sprites/grain-crate_1.png" width="32" height="32"/>
  </tile>
  <tile id="66">
   <image source="tiled/ERW - The Village/tilesets and props/props-sprites/grain-crate_2.png" width="32" height="32"/>
  </tile>
  <tile id="67">
   <image source="tiled/ERW - The Village/tilesets and props/props-sprites/grain-crate_3.png" width="32" height="64"/>
  </tile>
  <tile id="68">
   <image source="tiled/ERW - The Village/tilesets and props/props-sprites/grain-crate_4.png" width="32" height="64"/>
  </tile>
  <tile id="69">
   <image source="tiled/ERW - The Village/tilesets and props/props-sprites/grain-crate_5.png" width="64" height="64"/>
  </tile>
  <tile id="70">
   <image source="tiled/ERW - The Village/tilesets and props/props-sprites/grain-sacks_0.png" width="32" height="32"/>
  </tile>
  <tile id="71">
   <image source="tiled/ERW - The Village/tilesets and props/props-sprites/grain-sacks_1.png" width="32" height="32"/>
  </tile>
  <tile id="72">
   <image source="tiled/ERW - The Village/tilesets and props/props-sprites/grain-sacks_2.png" width="32" height="32"/>
  </tile>
  <tile id="73">
   <image source="tiled/ERW - The Village/tilesets and props/props-sprites/grain-sacks-pack_0.png" width="64" height="64"/>
  </tile>
  <tile id="74">
   <image source="tiled/ERW - The Village/tilesets and props/props-sprites/grain-sacks-pack_1.png" width="64" height="64"/>
  </tile>
  <tile id="75">
   <image source="tiled/ERW - The Village/tilesets and props/props-sprites/grain-sacks-pack_2.png" width="64" height="64"/>
  </tile>
  <tile id="76">
   <image source="tiled/ERW - The Village/tilesets and props/props-sprites/grain-sacks-pack_3.png" width="64" height="64"/>
  </tile>
  <tile id="77">
   <image source="tiled/ERW - The Village/tilesets and props/props-sprites/grain-sacks-pack_4.png" width="64" height="64"/>
  </tile>
  <tile id="78">
   <image source="tiled/ERW - The Village/tilesets and props/props-sprites/hay_0.png" width="32" height="32"/>
  </tile>
  <tile id="79">
   <image source="tiled/ERW - The Village/tilesets and props/props-sprites/hay_1.png" width="32" height="32"/>
  </tile>
  <tile id="80">
   <image source="tiled/ERW - The Village/tilesets and props/props-sprites/hay_2.png" width="32" height="32"/>
  </tile>
  <tile id="81">
   <image source="tiled/ERW - The Village/tilesets and props/props-sprites/hay_3.png" width="32" height="32"/>
  </tile>
  <tile id="82">
   <image source="tiled/ERW - The Village/tilesets and props/props-sprites/hay_4.png" width="64" height="32"/>
  </tile>
  <tile id="83">
   <image source="tiled/ERW - The Village/tilesets and props/props-sprites/hay_5.png" width="32" height="32"/>
  </tile>
  <tile id="84">
   <image source="tiled/ERW - The Village/tilesets and props/props-sprites/hay_6.png" width="64" height="32"/>
  </tile>
  <tile id="85">
   <image source="tiled/ERW - The Village/tilesets and props/props-sprites/hay_7.png" width="32" height="32"/>
  </tile>
  <tile id="86">
   <image source="tiled/ERW - The Village/tilesets and props/props-sprites/hay_8.png" width="32" height="64"/>
  </tile>
  <tile id="87">
   <image source="tiled/ERW - The Village/tilesets and props/props-sprites/hay_9.png" width="32" height="32"/>
  </tile>
  <tile id="88">
   <image source="tiled/ERW - The Village/tilesets and props/props-sprites/lamp-post1.png" width="64" height="96"/>
  </tile>
  <tile id="89">
   <image source="tiled/ERW - The Village/tilesets and props/props-sprites/lamp-post2.png" width="64" height="96"/>
  </tile>
  <tile id="90">
   <image source="tiled/ERW - The Village/tilesets and props/props-sprites/logs_0.png" width="32" height="64"/>
  </tile>
  <tile id="91">
   <image source="tiled/ERW - The Village/tilesets and props/props-sprites/logs_1.png" width="32" height="64"/>
  </tile>
  <tile id="92">
   <image source="tiled/ERW - The Village/tilesets and props/props-sprites/logs_2.png" width="64" height="64"/>
  </tile>
  <tile id="93">
   <image source="tiled/ERW - The Village/tilesets and props/props-sprites/logs_3.png" width="64" height="64"/>
  </tile>
  <tile id="94">
   <image source="tiled/ERW - The Village/tilesets and props/props-sprites/logs_4.png" width="64" height="64"/>
  </tile>
  <tile id="95">
   <image source="tiled/ERW - The Village/tilesets and props/props-sprites/logs_5.png" width="64" height="64"/>
  </tile>
  <tile id="96">
   <image source="tiled/ERW - The Village/tilesets and props/props-sprites/logs_6.png" width="64" height="64"/>
  </tile>
  <tile id="97">
   <image source="tiled/ERW - The Village/tilesets and props/props-sprites/logs_7.png" width="64" height="64"/>
  </tile>
  <tile id="98">
   <image source="tiled/ERW - The Village/tilesets and props/props-sprites/logs_8.png" width="64" height="32"/>
  </tile>
  <tile id="99">
   <image source="tiled/ERW - The Village/tilesets and props/props-sprites/logs_9.png" width="64" height="32"/>
  </tile>
  <tile id="100">
   <image source="tiled/ERW - The Village/tilesets and props/props-sprites/logs_10.png" width="32" height="32"/>
  </tile>
  <tile id="101">
   <image source="tiled/ERW - The Village/tilesets and props/props-sprites/logs_11.png" width="32" height="32"/>
  </tile>
  <tile id="102">
   <image source="tiled/ERW - The Village/tilesets and props/props-sprites/logs_12.png" width="32" height="32"/>
  </tile>
  <tile id="103">
   <image source="tiled/ERW - The Village/tilesets and props/props-sprites/logs_13.png" width="32" height="32"/>
  </tile>
  <tile id="104">
   <image source="tiled/ERW - The Village/tilesets and props/props-sprites/mail_0.png" width="32" height="64"/>
  </tile>
  <tile id="105">
   <image source="tiled/ERW - The Village/tilesets and props/props-sprites/mail_1.png" width="32" height="64"/>
  </tile>
  <tile id="106">
   <image source="tiled/ERW - The Village/tilesets and props/props-sprites/mail_2.png" width="32" height="64"/>
  </tile>
  <tile id="107">
   <image source="tiled/ERW - The Village/tilesets and props/props-sprites/pennant-bunting_0.png" width="160" height="64"/>
  </tile>
  <tile id="108">
   <image source="tiled/ERW - The Village/tilesets and props/props-sprites/pennant-bunting_1.png" width="160" height="32"/>
  </tile>
  <tile id="109">
   <image source="tiled/ERW - The Village/tilesets and props/props-sprites/pennant-bunting_2.png" width="224" height="32"/>
  </tile>
  <tile id="110">
   <image source="tiled/ERW - The Village/tilesets and props/props-sprites/pennant-bunting_3.png" width="128" height="64"/>
  </tile>
  <tile id="111">
   <image source="tiled/ERW - The Village/tilesets and props/props-sprites/pennant-bunting_4.png" width="160" height="64"/>
  </tile>
  <tile id="112">
   <image source="tiled/ERW - The Village/tilesets and props/props-sprites/pine-tree_0.png" width="128" height="192"/>
  </tile>
  <tile id="113">
   <image source="tiled/ERW - The Village/tilesets and props/props-sprites/pine-tree_1.png" width="128" height="192"/>
  </tile>
  <tile id="114">
   <image source="tiled/ERW - The Village/tilesets and props/props-sprites/pine-tree_2.png" width="128" height="192"/>
  </tile>
  <tile id="115">
   <image source="tiled/ERW - The Village/tilesets and props/props-sprites/pine-tree_3.png" width="128" height="160"/>
  </tile>
  <tile id="116">
   <image source="tiled/ERW - The Village/tilesets and props/props-sprites/pine-tree_4.png" width="128" height="160"/>
  </tile>
  <tile id="117">
   <image source="tiled/ERW - The Village/tilesets and props/props-sprites/pine-tree_5.png" width="128" height="160"/>
  </tile>
  <tile id="118">
   <image source="tiled/ERW - The Village/tilesets and props/props-sprites/pine-tree_6.png" width="128" height="160"/>
  </tile>
  <tile id="119">
   <image source="tiled/ERW - The Village/tilesets and props/props-sprites/pine-tree_7.png" width="128" height="160"/>
  </tile>
  <tile id="120">
   <image source="tiled/ERW - The Village/tilesets and props/props-sprites/pine-tree_8.png" width="128" height="160"/>
  </tile>
  <tile id="121">
   <image source="tiled/ERW - The Village/tilesets and props/props-sprites/pine-tree_9.png" width="128" height="128"/>
  </tile>
  <tile id="122">
   <image source="tiled/ERW - The Village/tilesets and props/props-sprites/pine-tree_10.png" width="128" height="128"/>
  </tile>
  <tile id="123">
   <image source="tiled/ERW - The Village/tilesets and props/props-sprites/pine-tree_11.png" width="128" height="128"/>
  </tile>
  <tile id="124">
   <image source="tiled/ERW - The Village/tilesets and props/props-sprites/pine-tree_12.png" width="64" height="64"/>
  </tile>
  <tile id="125">
   <image source="tiled/ERW - The Village/tilesets and props/props-sprites/pine-tree-shadow1.png" width="128" height="64"/>
  </tile>
  <tile id="126">
   <image source="tiled/ERW - The Village/tilesets and props/props-sprites/pine-tree-shadow2.png" width="128" height="64"/>
  </tile>
  <tile id="127">
   <image source="tiled/ERW - The Village/tilesets and props/props-sprites/pot_0.png" width="32" height="32"/>
  </tile>
  <tile id="128">
   <image source="tiled/ERW - The Village/tilesets and props/props-sprites/pot_1.png" width="32" height="32"/>
  </tile>
  <tile id="129">
   <image source="tiled/ERW - The Village/tilesets and props/props-sprites/pot_2.png" width="32" height="32"/>
  </tile>
  <tile id="130">
   <image source="tiled/ERW - The Village/tilesets and props/props-sprites/pot_3.png" width="32" height="32"/>
  </tile>
  <tile id="131">
   <image source="tiled/ERW - The Village/tilesets and props/props-sprites/pot_4.png" width="32" height="32"/>
  </tile>
  <tile id="132">
   <image source="tiled/ERW - The Village/tilesets and props/props-sprites/pot_5.png" width="32" height="32"/>
  </tile>
  <tile id="133">
   <image source="tiled/ERW - The Village/tilesets and props/props-sprites/pot_6.png" width="32" height="32"/>
  </tile>
  <tile id="134">
   <image source="tiled/ERW - The Village/tilesets and props/props-sprites/pot_7.png" width="32" height="32"/>
  </tile>
  <tile id="135">
   <image source="tiled/ERW - The Village/tilesets and props/props-sprites/pot_8.png" width="32" height="32"/>
  </tile>
  <tile id="136">
   <image source="tiled/ERW - The Village/tilesets and props/props-sprites/pot_9.png" width="32" height="32"/>
  </tile>
  <tile id="137">
   <image source="tiled/ERW - The Village/tilesets and props/props-sprites/pot_10.png" width="32" height="32"/>
  </tile>
  <tile id="138">
   <image source="tiled/ERW - The Village/tilesets and props/props-sprites/pot_11.png" width="32" height="32"/>
  </tile>
  <tile id="139">
   <image source="tiled/ERW - The Village/tilesets and props/props-sprites/potted-1plant_0.png" width="32" height="64"/>
  </tile>
  <tile id="140">
   <image source="tiled/ERW - The Village/tilesets and props/props-sprites/potted-1plant_1.png" width="32" height="64"/>
  </tile>
  <tile id="141">
   <image source="tiled/ERW - The Village/tilesets and props/props-sprites/potted-1plant_2.png" width="32" height="64"/>
  </tile>
  <tile id="142">
   <image source="tiled/ERW - The Village/tilesets and props/props-sprites/potted-1plant_3.png" width="32" height="64"/>
  </tile>
  <tile id="143">
   <image source="tiled/ERW - The Village/tilesets and props/props-sprites/potted-1plant_4.png" width="32" height="64"/>
  </tile>
  <tile id="144">
   <image source="tiled/ERW - The Village/tilesets and props/props-sprites/potted-1plant_5.png" width="32" height="64"/>
  </tile>
  <tile id="145">
   <image source="tiled/ERW - The Village/tilesets and props/props-sprites/potted-1plant_6.png" width="32" height="64"/>
  </tile>
  <tile id="146">
   <image source="tiled/ERW - The Village/tilesets and props/props-sprites/potted-1plant_7.png" width="32" height="64"/>
  </tile>
  <tile id="147">
   <image source="tiled/ERW - The Village/tilesets and props/props-sprites/potted-1plant_8.png" width="64" height="64"/>
  </tile>
  <tile id="148">
   <image source="tiled/ERW - The Village/tilesets and props/props-sprites/potted-9plant_9.png" width="64" height="64"/>
  </tile>
  <tile id="149">
   <image source="tiled/ERW - The Village/tilesets and props/props-sprites/potted-flower_0.png" width="32" height="32"/>
  </tile>
  <tile id="150">
   <image source="tiled/ERW - The Village/tilesets and props/props-sprites/potted-flower_1.png" width="32" height="32"/>
  </tile>
  <tile id="151">
   <image source="tiled/ERW - The Village/tilesets and props/props-sprites/potted-flower_2.png" width="32" height="32"/>
  </tile>
  <tile id="152">
   <image source="tiled/ERW - The Village/tilesets and props/props-sprites/potted-flower_3.png" width="32" height="32"/>
  </tile>
  <tile id="153">
   <image source="tiled/ERW - The Village/tilesets and props/props-sprites/potted-flower_4.png" width="32" height="32"/>
  </tile>
  <tile id="154">
   <image source="tiled/ERW - The Village/tilesets and props/props-sprites/potted-flower_5.png" width="32" height="32"/>
  </tile>
  <tile id="155">
   <image source="tiled/ERW - The Village/tilesets and props/props-sprites/potted-flower_6.png" width="32" height="32"/>
  </tile>
  <tile id="156">
   <image source="tiled/ERW - The Village/tilesets and props/props-sprites/potted-flower_7.png" width="32" height="32"/>
  </tile>
  <tile id="157">
   <image source="tiled/ERW - The Village/tilesets and props/props-sprites/potted-flower_8.png" width="32" height="32"/>
  </tile>
  <tile id="158">
   <image source="tiled/ERW - The Village/tilesets and props/props-sprites/potted-flower_9.png" width="32" height="64"/>
  </tile>
  <tile id="159">
   <image source="tiled/ERW - The Village/tilesets and props/props-sprites/potted-flower_10.png" width="32" height="64"/>
  </tile>
  <tile id="160">
   <image source="tiled/ERW - The Village/tilesets and props/props-sprites/potted-flower_11.png" width="32" height="64"/>
  </tile>
  <tile id="161">
   <image source="tiled/ERW - The Village/tilesets and props/props-sprites/potted-flower_12.png" width="32" height="64"/>
  </tile>
  <tile id="162">
   <image source="tiled/ERW - The Village/tilesets and props/props-sprites/potted-flower_13.png" width="32" height="64"/>
  </tile>
  <tile id="163">
   <image source="tiled/ERW - The Village/tilesets and props/props-sprites/potted-plant_0.png" width="32" height="64"/>
  </tile>
  <tile id="164">
   <image source="tiled/ERW - The Village/tilesets and props/props-sprites/potted-plant_1.png" width="32" height="64"/>
  </tile>
  <tile id="165">
   <image source="tiled/ERW - The Village/tilesets and props/props-sprites/potted-plant_2.png" width="32" height="64"/>
  </tile>
  <tile id="166">
   <image source="tiled/ERW - The Village/tilesets and props/props-sprites/potted-plant_3.png" width="32" height="64"/>
  </tile>
  <tile id="167">
   <image source="tiled/ERW - The Village/tilesets and props/props-sprites/potted-plant_4.png" width="32" height="64"/>
  </tile>
  <tile id="168">
   <image source="tiled/ERW - The Village/tilesets and props/props-sprites/potted-plant_5.png" width="32" height="64"/>
  </tile>
  <tile id="169">
   <image source="tiled/ERW - The Village/tilesets and props/props-sprites/potted-plant_6.png" width="32" height="64"/>
  </tile>
  <tile id="170">
   <image source="tiled/ERW - The Village/tilesets and props/props-sprites/potted-plant_7.png" width="32" height="64"/>
  </tile>
  <tile id="171">
   <image source="tiled/ERW - The Village/tilesets and props/props-sprites/potted-plant_8.png" width="32" height="64"/>
  </tile>
  <tile id="172">
   <image source="tiled/ERW - The Village/tilesets and props/props-sprites/potted-plant_9.png" width="32" height="64"/>
  </tile>
  <tile id="173">
   <image source="tiled/ERW - The Village/tilesets and props/props-sprites/potted-plant_10.png" width="32" height="64"/>
  </tile>
  <tile id="174">
   <image source="tiled/ERW - The Village/tilesets and props/props-sprites/potted-plant_11.png" width="32" height="64"/>
  </tile>
  <tile id="175">
   <image source="tiled/ERW - The Village/tilesets and props/props-sprites/potted-plant_12.png" width="32" height="64"/>
  </tile>
  <tile id="176">
   <image source="tiled/ERW - The Village/tilesets and props/props-sprites/potted-plant_13.png" width="32" height="64"/>
  </tile>
  <tile id="177">
   <image source="tiled/ERW - The Village/tilesets and props/props-sprites/potted-plant_14.png" width="32" height="64"/>
  </tile>
  <tile id="178">
   <image source="tiled/ERW - The Village/tilesets and props/props-sprites/potted-plant_15.png" width="32" height="64"/>
  </tile>
  <tile id="179">
   <image source="tiled/ERW - The Village/tilesets and props/props-sprites/potted-plant_16.png" width="64" height="64"/>
  </tile>
  <tile id="180">
   <image source="tiled/ERW - The Village/tilesets and props/props-sprites/potted-plant_17.png" width="64" height="64"/>
  </tile>
  <tile id="181">
   <image source="tiled/ERW - The Village/tilesets and props/props-sprites/potted-plant_18.png" width="64" height="64"/>
  </tile>
  <tile id="182">
   <image source="tiled/ERW - The Village/tilesets and props/props-sprites/potted-plant_19.png" width="64" height="64"/>
  </tile>
  <tile id="183">
   <image source="tiled/ERW - The Village/tilesets and props/props-sprites/potted-plant-pack_0.png" width="64" height="96"/>
  </tile>
  <tile id="184">
   <image source="tiled/ERW - The Village/tilesets and props/props-sprites/potted-plant-pack_1.png" width="64" height="96"/>
  </tile>
  <tile id="185">
   <image source="tiled/ERW - The Village/tilesets and props/props-sprites/potted-plant-pack_2.png" width="64" height="96"/>
  </tile>
  <tile id="186">
   <image source="tiled/ERW - The Village/tilesets and props/props-sprites/potted-plant-pack_3.png" width="64" height="96"/>
  </tile>
  <tile id="187">
   <image source="tiled/ERW - The Village/tilesets and props/props-sprites/potted-plant-pack_4.png" width="96" height="96"/>
  </tile>
  <tile id="188">
   <image source="tiled/ERW - The Village/tilesets and props/props-sprites/potted-plant-pack_5.png" width="96" height="64"/>
  </tile>
  <tile id="189">
   <image source="tiled/ERW - The Village/tilesets and props/props-sprites/potted-plant-pack_6.png" width="64" height="64"/>
  </tile>
  <tile id="190">
   <image source="tiled/ERW - The Village/tilesets and props/props-sprites/potted-plant-pack_7.png" width="64" height="64"/>
  </tile>
  <tile id="191">
   <image source="tiled/ERW - The Village/tilesets and props/props-sprites/potted-plant-pack_8.png" width="64" height="64"/>
  </tile>
  <tile id="192">
   <image source="tiled/ERW - The Village/tilesets and props/props-sprites/potted-plant-pack_9.png" width="64" height="64"/>
  </tile>
  <tile id="193">
   <image source="tiled/ERW - The Village/tilesets and props/props-sprites/potted-plant-pack_10.png" width="64" height="64"/>
  </tile>
  <tile id="194">
   <image source="tiled/ERW - The Village/tilesets and props/props-sprites/potted-plant-plant-only_0.png" width="32" height="64"/>
  </tile>
  <tile id="195">
   <image source="tiled/ERW - The Village/tilesets and props/props-sprites/potted-plant-plant-only_1.png" width="32" height="64"/>
  </tile>
  <tile id="196">
   <image source="tiled/ERW - The Village/tilesets and props/props-sprites/potted-plant-plant-only_2.png" width="32" height="64"/>
  </tile>
  <tile id="197">
   <image source="tiled/ERW - The Village/tilesets and props/props-sprites/potted-plant-plant-only_3.png" width="32" height="64"/>
  </tile>
  <tile id="198">
   <image source="tiled/ERW - The Village/tilesets and props/props-sprites/potted-plant-plant-only_4.png" width="32" height="64"/>
  </tile>
  <tile id="199">
   <image source="tiled/ERW - The Village/tilesets and props/props-sprites/potted-plant-plant-only_5.png" width="32" height="64"/>
  </tile>
  <tile id="200">
   <image source="tiled/ERW - The Village/tilesets and props/props-sprites/potted-plant-plant-only_6.png" width="32" height="64"/>
  </tile>
  <tile id="201">
   <image source="tiled/ERW - The Village/tilesets and props/props-sprites/potted-plant-plant-only_7.png" width="32" height="64"/>
  </tile>
  <tile id="202">
   <image source="tiled/ERW - The Village/tilesets and props/props-sprites/potted-plant-plant-only_8.png" width="32" height="64"/>
  </tile>
  <tile id="203">
   <image source="tiled/ERW - The Village/tilesets and props/props-sprites/potted-plant-plant-only_9.png" width="32" height="64"/>
  </tile>
  <tile id="204">
   <image source="tiled/ERW - The Village/tilesets and props/props-sprites/potted-plant-plant-only_10.png" width="32" height="64"/>
  </tile>
  <tile id="205">
   <image source="tiled/ERW - The Village/tilesets and props/props-sprites/potted-plant-plant-only_11.png" width="32" height="64"/>
  </tile>
  <tile id="206">
   <image source="tiled/ERW - The Village/tilesets and props/props-sprites/potted-plant-plant-only_12.png" width="32" height="64"/>
  </tile>
  <tile id="207">
   <image source="tiled/ERW - The Village/tilesets and props/props-sprites/potted-plant-plant-only_13.png" width="32" height="64"/>
  </tile>
  <tile id="208">
   <image source="tiled/ERW - The Village/tilesets and props/props-sprites/potted-plant-plant-only_14.png" width="32" height="64"/>
  </tile>
  <tile id="209">
   <image source="tiled/ERW - The Village/tilesets and props/props-sprites/potted-plant-plant-only_15.png" width="32" height="64"/>
  </tile>
  <tile id="210">
   <image source="tiled/ERW - The Village/tilesets and props/props-sprites/potted-plant-plant-only_16.png" width="32" height="64"/>
  </tile>
  <tile id="211">
   <image source="tiled/ERW - The Village/tilesets and props/props-sprites/potted-plant-plant-only_17.png" width="32" height="64"/>
  </tile>
  <tile id="212">
   <image source="tiled/ERW - The Village/tilesets and props/props-sprites/potted-plant-plant-only_18.png" width="32" height="64"/>
  </tile>
  <tile id="213">
   <image source="tiled/ERW - The Village/tilesets and props/props-sprites/potted-plant-plant-only_19.png" width="32" height="64"/>
  </tile>
  <tile id="214">
   <image source="tiled/ERW - The Village/tilesets and props/props-sprites/potted-plant-plant-only_20.png" width="32" height="64"/>
  </tile>
  <tile id="215">
   <image source="tiled/ERW - The Village/tilesets and props/props-sprites/potted-plant-plant-only_21.png" width="32" height="64"/>
  </tile>
  <tile id="216">
   <image source="tiled/ERW - The Village/tilesets and props/props-sprites/potted-plant-plant-only_22.png" width="32" height="64"/>
  </tile>
  <tile id="217">
   <image source="tiled/ERW - The Village/tilesets and props/props-sprites/potted-plant-plant-only_23.png" width="32" height="64"/>
  </tile>
  <tile id="218">
   <image source="tiled/ERW - The Village/tilesets and props/props-sprites/potted-plant-plant-only_24.png" width="64" height="64"/>
  </tile>
  <tile id="219">
   <image source="tiled/ERW - The Village/tilesets and props/props-sprites/potted-plant-plant-only_25.png" width="64" height="64"/>
  </tile>
  <tile id="220">
   <image source="tiled/ERW - The Village/tilesets and props/props-sprites/potted-plant-plant-only_26.png" width="64" height="64"/>
  </tile>
  <tile id="221">
   <image source="tiled/ERW - The Village/tilesets and props/props-sprites/potted-plant-plant-only_27.png" width="64" height="64"/>
  </tile>
  <tile id="222">
   <image source="tiled/ERW - The Village/tilesets and props/props-sprites/potted-plant-plant-only_28.png" width="64" height="64"/>
  </tile>
  <tile id="223">
   <image source="tiled/ERW - The Village/tilesets and props/props-sprites/potted-plant-plant-only_29.png" width="64" height="64"/>
  </tile>
  <tile id="225">
   <image source="tiled/ERW - The Village/tilesets and props/props-sprites/quest-2board_0.png" width="64" height="64"/>
  </tile>
  <tile id="226">
   <image source="tiled/ERW - The Village/tilesets and props/props-sprites/quest-2board_1.png" width="64" height="64"/>
  </tile>
  <tile id="227">
   <image source="tiled/ERW - The Village/tilesets and props/props-sprites/quest-2board_2.png" width="64" height="64"/>
  </tile>
  <tile id="228">
   <image source="tiled/ERW - The Village/tilesets and props/props-sprites/quest-2board_3.png" width="64" height="64"/>
  </tile>
  <tile id="229">
   <image source="tiled/ERW - The Village/tilesets and props/props-sprites/quest-2board_4.png" width="64" height="64"/>
  </tile>
  <tile id="230">
   <image source="tiled/ERW - The Village/tilesets and props/props-sprites/questboard_1.png" width="64" height="64"/>
  </tile>
  <tile id="231">
   <image source="tiled/ERW - The Village/tilesets and props/props-sprites/questboard_2.png" width="64" height="64"/>
  </tile>
  <tile id="232">
   <image source="tiled/ERW - The Village/tilesets and props/props-sprites/questboard_3.png" width="64" height="64"/>
  </tile>
  <tile id="233">
   <image source="tiled/ERW - The Village/tilesets and props/props-sprites/questboard_4.png" width="64" height="64"/>
  </tile>
  <tile id="234">
   <image source="tiled/ERW - The Village/tilesets and props/props-sprites/questboard_papers_1.png" width="64" height="32"/>
  </tile>
  <tile id="235">
   <image source="tiled/ERW - The Village/tilesets and props/props-sprites/questboard_papers_2.png" width="32" height="32"/>
  </tile>
  <tile id="236">
   <image source="tiled/ERW - The Village/tilesets and props/props-sprites/questboard_papers_3.png" width="32" height="32"/>
  </tile>
  <tile id="237">
   <image source="tiled/ERW - The Village/tilesets and props/props-sprites/questboard_papers_4.png" width="32" height="32"/>
  </tile>
  <tile id="238">
   <image source="tiled/ERW - The Village/tilesets and props/props-sprites/questboard_papers_5.png" width="32" height="32"/>
  </tile>
  <tile id="239">
   <image source="tiled/ERW - The Village/tilesets and props/props-sprites/questboard_papers_6.png" width="64" height="32"/>
  </tile>
  <tile id="240">
   <image source="tiled/ERW - The Village/tilesets and props/props-sprites/table1.png" width="160" height="128"/>
  </tile>
  <tile id="241">
   <image source="tiled/ERW - The Village/tilesets and props/props-sprites/table--1.png" width="96" height="64"/>
  </tile>
  <tile id="242">
   <image source="tiled/ERW - The Village/tilesets and props/props-sprites/table2.png" width="96" height="64"/>
  </tile>
  <tile id="243">
   <image source="tiled/ERW - The Village/tilesets and props/props-sprites/table--2.png" width="96" height="64"/>
  </tile>
  <tile id="244">
   <image source="tiled/ERW - The Village/tilesets and props/props-sprites/table3.png" width="128" height="96"/>
  </tile>
  <tile id="245">
   <image source="tiled/ERW - The Village/tilesets and props/props-sprites/table--3.png" width="96" height="64"/>
  </tile>
  <tile id="246">
   <image source="tiled/ERW - The Village/tilesets and props/props-sprites/table4.png" width="96" height="64"/>
  </tile>
  <tile id="247">
   <image source="tiled/ERW - The Village/tilesets and props/props-sprites/table--4.png" width="96" height="64"/>
  </tile>
  <tile id="248">
   <image source="tiled/ERW - The Village/tilesets and props/props-sprites/table-bench1.png" width="32" height="32"/>
  </tile>
  <tile id="249">
   <image source="tiled/ERW - The Village/tilesets and props/props-sprites/table-bench2.png" width="32" height="32"/>
  </tile>
  <tile id="250">
   <image source="tiled/ERW - The Village/tilesets and props/props-sprites/towel_0.png" width="32" height="32"/>
  </tile>
  <tile id="251">
   <image source="tiled/ERW - The Village/tilesets and props/props-sprites/towel_1.png" width="32" height="32"/>
  </tile>
  <tile id="252">
   <image source="tiled/ERW - The Village/tilesets and props/props-sprites/towel_2.png" width="32" height="32"/>
  </tile>
  <tile id="253">
   <image source="tiled/ERW - The Village/tilesets and props/props-sprites/towel_3.png" width="32" height="32"/>
  </tile>
  <tile id="254">
   <image source="tiled/ERW - The Village/tilesets and props/props-sprites/towel_4.png" width="32" height="32"/>
  </tile>
  <tile id="255">
   <image source="tiled/ERW - The Village/tilesets and props/props-sprites/towel_5.png" width="32" height="32"/>
  </tile>
  <tile id="256">
   <image source="tiled/ERW - The Village/tilesets and props/props-sprites/towel_6.png" width="32" height="32"/>
  </tile>
  <tile id="257">
   <image source="tiled/ERW - The Village/tilesets and props/props-sprites/towel_7.png" width="32" height="32"/>
  </tile>
  <tile id="258">
   <image source="tiled/ERW - The Village/tilesets and props/props-sprites/tufts-of-grass_0.png" width="64" height="32"/>
  </tile>
  <tile id="259">
   <image source="tiled/ERW - The Village/tilesets and props/props-sprites/tufts-of-grass_1.png" width="32" height="32"/>
  </tile>
  <tile id="260">
   <image source="tiled/ERW - The Village/tilesets and props/props-sprites/tufts-of-grass_2.png" width="96" height="32"/>
  </tile>
  <tile id="261">
   <image source="tiled/ERW - The Village/tilesets and props/props-sprites/tufts-of-grass_3.png" width="32" height="32"/>
  </tile>
  <tile id="262">
   <image source="tiled/ERW - The Village/tilesets and props/props-sprites/tufts-of-grass_4.png" width="32" height="32"/>
  </tile>
  <tile id="263">
   <image source="tiled/ERW - The Village/tilesets and props/props-sprites/tufts-of-grass_5.png" width="32" height="32"/>
  </tile>
  <tile id="264">
   <image source="tiled/ERW - The Village/tilesets and props/props-sprites/tufts-of-grass_6.png" width="32" height="32"/>
  </tile>
  <tile id="265">
   <image source="tiled/ERW - The Village/tilesets and props/props-sprites/tufts-of-grass_7.png" width="32" height="32"/>
  </tile>
  <tile id="266">
   <image source="tiled/ERW - The Village/tilesets and props/props-sprites/tufts-of-grass_8.png" width="64" height="32"/>
  </tile>
  <tile id="267">
   <image source="tiled/ERW - The Village/tilesets and props/props-sprites/tufts-of-grass_9.png" width="64" height="32"/>
  </tile>
  <tile id="268">
   <image source="tiled/ERW - The Village/tilesets and props/props-sprites/washbasin1.png" width="32" height="32"/>
  </tile>
  <tile id="269">
   <image source="tiled/ERW - The Village/tilesets and props/props-sprites/washbasin2.png" width="32" height="32"/>
  </tile>
  <tile id="270">
   <image source="tiled/ERW - The Village/tilesets and props/props-sprites/washbasin3.png" width="32" height="32"/>
  </tile>
  <tile id="271">
   <image source="tiled/ERW - The Village/tilesets and props/props-sprites/washbasin4.png" width="32" height="32"/>
  </tile>
 </tileset>
 <tileset firstgid="8535" name="Tileset - Terrain - new grass2" tilewidth="32" tileheight="32" tilecount="3960" columns="55">
  <image source="tiled/ERW-Grassland 2.0/Tilesets/Tileset-Terrain-new grass.png" width="1760" height="2304"/>
  <tile id="416" probability="0.25"/>
  <tile id="417" probability="0.25"/>
  <tile id="418" probability="0.25"/>
  <tile id="419" probability="0.25"/>
  <tile id="420" probability="0.25"/>
  <tile id="421" probability="0.25"/>
  <tile id="422" probability="0.25"/>
  <tile id="423" probability="0.25"/>
  <tile id="424" probability="0.25"/>
  <tile id="425" probability="0.25"/>
  <tile id="471" probability="0.25"/>
  <tile id="472" probability="0.25"/>
  <tile id="473" probability="0.25"/>
  <tile id="474" probability="0.25"/>
  <tile id="475" probability="0.25"/>
  <tile id="476" probability="0.25"/>
  <tile id="477" probability="0.25"/>
  <tile id="478" probability="0.25"/>
  <tile id="479" probability="0.25"/>
  <tile id="480" probability="0.25"/>
  <tile id="648" probability="0.25"/>
  <tile id="649" probability="0.25"/>
  <tile id="650" probability="0.25"/>
  <tile id="651" probability="0.25"/>
  <tile id="652" probability="0.25"/>
  <tile id="653" probability="0.25"/>
  <tile id="654" probability="0.25"/>
  <tile id="655" probability="0.25"/>
  <tile id="656" probability="0.25"/>
  <tile id="657" probability="0.25"/>
  <tile id="1131" probability="0.25"/>
  <tile id="1132" probability="0.25"/>
  <tile id="1133" probability="0.25"/>
  <tile id="1134" probability="0.25"/>
  <tile id="1135" probability="0.25"/>
  <tile id="1136" probability="0.25"/>
  <tile id="1137" probability="0.25"/>
  <tile id="1138" probability="0.25"/>
  <tile id="1139" probability="0.25"/>
  <tile id="1140" probability="0.25"/>
  <tile id="1141" probability="0.25"/>
  <tile id="1142" probability="0.25"/>
  <tile id="1186" probability="0.25"/>
  <tile id="1187" probability="0.25"/>
  <tile id="1188" probability="0.25"/>
  <tile id="1189" probability="0.25"/>
  <tile id="1190" probability="0.25"/>
  <tile id="1191" probability="0.25"/>
  <tile id="1192" probability="0.25"/>
  <tile id="1193" probability="0.25"/>
  <tile id="1194" probability="0.25"/>
  <tile id="1195" probability="0.25"/>
  <tile id="1196" probability="0.25"/>
  <tile id="1197" probability="0.25"/>
  <tile id="2335" probability="0.2"/>
  <tile id="2336" probability="0.2"/>
  <tile id="2337" probability="0.2"/>
  <tile id="2338" probability="0.2"/>
  <tile id="2339" probability="0.2"/>
  <tile id="2340" probability="0.2"/>
  <tile id="2341" probability="0.2"/>
  <tile id="2342" probability="0.2"/>
  <tile id="2343" probability="0.2"/>
  <tile id="2344" probability="0.2"/>
  <tile id="2345" probability="0.2"/>
  <tile id="2346" probability="0.2"/>
  <tile id="2390" probability="0.2"/>
  <tile id="2391" probability="0.2"/>
  <tile id="2392" probability="0.2"/>
  <tile id="2393" probability="0.2"/>
  <tile id="2394" probability="0.2"/>
  <tile id="2395" probability="0.2"/>
  <tile id="2396" probability="0.2"/>
  <tile id="2397" probability="0.2"/>
  <tile id="2398" probability="0.2"/>
  <tile id="2399" probability="0.2"/>
  <tile id="2400" probability="0.2"/>
  <tile id="2401" probability="0.2"/>
  <tile id="2445" probability="0.2"/>
  <tile id="2446" probability="0.2"/>
  <tile id="2447" probability="0.2"/>
  <tile id="2448" probability="0.2"/>
  <tile id="2449" probability="0.2"/>
  <tile id="2450" probability="0.2"/>
  <tile id="2451" probability="0.2"/>
  <tile id="2452" probability="0.2"/>
  <tile id="2453" probability="0.2"/>
  <tile id="2454" probability="0.2"/>
  <tile id="2455" probability="0.2"/>
  <tile id="2456" probability="0.2"/>
  <tile id="2628" probability="0.15"/>
  <tile id="2629" probability="0.15"/>
  <tile id="2630" probability="0.15"/>
  <tile id="2631" probability="0.15"/>
  <tile id="2632" probability="0.15"/>
  <tile id="2633" probability="0.15"/>
  <tile id="2634" probability="0.15"/>
  <tile id="2635" probability="0.15"/>
  <tile id="2636" probability="0.15"/>
  <tile id="2637" probability="0.15"/>
  <tile id="2638" probability="0.15"/>
  <tile id="2639" probability="0.15"/>
  <tile id="2683" probability="0.15"/>
  <tile id="2684" probability="0.15"/>
  <tile id="2685" probability="0.15"/>
  <tile id="2686" probability="0.15"/>
  <tile id="2687" probability="0.15"/>
  <tile id="2688" probability="0.15"/>
  <tile id="2689" probability="0.15"/>
  <tile id="2690" probability="0.15"/>
  <tile id="2691" probability="0.15"/>
  <tile id="2692" probability="0.15"/>
  <tile id="2693" probability="0.15"/>
  <tile id="2694" probability="0.15"/>
  <tile id="2738" probability="0.15"/>
  <tile id="2739" probability="0.15"/>
  <tile id="2740" probability="0.15"/>
  <tile id="2741" probability="0.15"/>
  <tile id="2742" probability="0.15"/>
  <tile id="2743" probability="0.15"/>
  <tile id="2744" probability="0.15"/>
  <tile id="2745" probability="0.15"/>
  <tile id="2746" probability="0.15"/>
  <tile id="2747" probability="0.15"/>
  <tile id="2748" probability="0.15"/>
  <tile id="2749" probability="0.15"/>
  <tile id="2793" probability="0.15"/>
  <tile id="2794" probability="0.15"/>
  <tile id="2795" probability="0.15"/>
  <tile id="2796" probability="0.15"/>
  <tile id="2797" probability="0.15"/>
  <tile id="2798" probability="0.15"/>
  <tile id="2799" probability="0.15"/>
  <tile id="2800" probability="0.15"/>
  <tile id="2801" probability="0.15"/>
  <tile id="2802" probability="0.15"/>
  <tile id="2803" probability="0.15"/>
  <tile id="2804" probability="0.15"/>
  <tile id="2848" probability="0.15"/>
  <tile id="2849" probability="0.15"/>
  <tile id="2850" probability="0.15"/>
  <tile id="2851" probability="0.15"/>
  <tile id="2852" probability="0.15"/>
  <tile id="2853" probability="0.15"/>
  <tile id="2854" probability="0.15"/>
  <tile id="2855" probability="0.15"/>
  <tile id="2856" probability="0.15"/>
  <tile id="2857" probability="0.15"/>
  <tile id="2858" probability="0.15"/>
  <tile id="2859" probability="0.15"/>
  <wangsets>
   <wangset name="wall2" type="corner" tile="277">
    <wangcolor name="grass2 to grass" color="#ff0000" tile="277" probability="1"/>
    <wangcolor name="grass to neutral transition" color="#00ff00" tile="2807" probability="1"/>
    <wangtile tileid="55" wangid="0,1,0,0,0,1,0,0"/>
    <wangtile tileid="56" wangid="0,0,0,1,0,0,0,0"/>
    <wangtile tileid="57" wangid="0,0,0,1,0,1,0,0"/>
    <wangtile tileid="58" wangid="0,0,0,0,0,1,0,0"/>
    <wangtile tileid="59" wangid="0,0,0,1,0,0,0,1"/>
    <wangtile tileid="110" wangid="0,0,0,1,0,0,0,0"/>
    <wangtile tileid="111" wangid="0,1,0,1,0,1,0,0"/>
    <wangtile tileid="112" wangid="0,1,0,1,0,1,0,1"/>
    <wangtile tileid="113" wangid="0,0,0,1,0,1,0,1"/>
    <wangtile tileid="114" wangid="0,0,0,0,0,1,0,0"/>
    <wangtile tileid="165" wangid="0,1,0,1,0,0,0,0"/>
    <wangtile tileid="166" wangid="0,1,0,1,0,1,0,1"/>
    <wangtile tileid="167" wangid="0,1,0,1,0,1,0,1"/>
    <wangtile tileid="168" wangid="0,1,0,1,0,1,0,1"/>
    <wangtile tileid="169" wangid="0,0,0,0,0,1,0,1"/>
    <wangtile tileid="220" wangid="0,1,0,0,0,0,0,0"/>
    <wangtile tileid="221" wangid="0,1,0,1,0,0,0,1"/>
    <wangtile tileid="222" wangid="0,1,0,1,0,1,0,1"/>
    <wangtile tileid="223" wangid="0,1,0,0,0,1,0,1"/>
    <wangtile tileid="224" wangid="0,0,0,0,0,0,0,1"/>
    <wangtile tileid="276" wangid="0,1,0,0,0,0,0,0"/>
    <wangtile tileid="277" wangid="0,1,0,0,0,0,0,1"/>
    <wangtile tileid="278" wangid="0,0,0,0,0,0,0,1"/>
    <wangtile tileid="330" wangid="0,1,0,1,0,0,0,0"/>
    <wangtile tileid="331" wangid="0,0,0,0,0,1,0,1"/>
    <wangtile tileid="332" wangid="0,0,0,1,0,1,0,0"/>
    <wangtile tileid="333" wangid="0,0,0,1,0,1,0,0"/>
    <wangtile tileid="385" wangid="0,1,0,1,0,0,0,0"/>
    <wangtile tileid="386" wangid="0,0,0,0,0,1,0,1"/>
    <wangtile tileid="387" wangid="0,1,0,0,0,0,0,1"/>
    <wangtile tileid="388" wangid="0,1,0,0,0,0,0,1"/>
    <wangtile tileid="440" wangid="0,1,0,1,0,0,0,0"/>
    <wangtile tileid="441" wangid="0,0,0,0,0,1,0,1"/>
    <wangtile tileid="442" wangid="0,0,0,1,0,1,0,0"/>
    <wangtile tileid="443" wangid="0,0,0,1,0,1,0,0"/>
    <wangtile tileid="497" wangid="0,1,0,0,0,0,0,1"/>
    <wangtile tileid="498" wangid="0,1,0,0,0,0,0,1"/>
    <wangtile tileid="2585" wangid="0,2,0,0,0,2,0,0"/>
    <wangtile tileid="2586" wangid="0,0,0,2,0,0,0,0"/>
    <wangtile tileid="2587" wangid="0,0,0,2,0,2,0,0"/>
    <wangtile tileid="2588" wangid="0,0,0,0,0,2,0,0"/>
    <wangtile tileid="2589" wangid="0,0,0,2,0,0,0,2"/>
    <wangtile tileid="2640" wangid="0,0,0,2,0,0,0,0"/>
    <wangtile tileid="2641" wangid="0,2,0,2,0,2,0,0"/>
    <wangtile tileid="2642" wangid="0,2,0,2,0,2,0,2"/>
    <wangtile tileid="2643" wangid="0,0,0,2,0,2,0,2"/>
    <wangtile tileid="2644" wangid="0,0,0,0,0,2,0,0"/>
    <wangtile tileid="2695" wangid="0,2,0,2,0,0,0,0"/>
    <wangtile tileid="2696" wangid="0,2,0,2,0,2,0,2"/>
    <wangtile tileid="2697" wangid="0,2,0,2,0,2,0,2"/>
    <wangtile tileid="2698" wangid="0,2,0,2,0,2,0,2"/>
    <wangtile tileid="2699" wangid="0,0,0,0,0,2,0,2"/>
    <wangtile tileid="2750" wangid="0,2,0,0,0,0,0,0"/>
    <wangtile tileid="2751" wangid="0,2,0,2,0,0,0,2"/>
    <wangtile tileid="2752" wangid="0,2,0,2,0,2,0,2"/>
    <wangtile tileid="2753" wangid="0,2,0,0,0,2,0,2"/>
    <wangtile tileid="2754" wangid="0,0,0,0,0,0,0,2"/>
    <wangtile tileid="2806" wangid="0,2,0,0,0,0,0,0"/>
    <wangtile tileid="2807" wangid="0,2,0,0,0,0,0,2"/>
    <wangtile tileid="2808" wangid="0,0,0,0,0,0,0,2"/>
    <wangtile tileid="2860" wangid="0,2,0,2,0,0,0,0"/>
    <wangtile tileid="2861" wangid="0,0,0,0,0,2,0,2"/>
    <wangtile tileid="2862" wangid="0,0,0,2,0,2,0,0"/>
    <wangtile tileid="2863" wangid="0,0,0,2,0,2,0,0"/>
    <wangtile tileid="2915" wangid="0,2,0,2,0,0,0,0"/>
    <wangtile tileid="2916" wangid="0,0,0,0,0,2,0,2"/>
    <wangtile tileid="2917" wangid="0,2,0,0,0,0,0,2"/>
    <wangtile tileid="2918" wangid="0,2,0,0,0,0,0,2"/>
    <wangtile tileid="2970" wangid="0,2,0,2,0,0,0,0"/>
    <wangtile tileid="2971" wangid="0,0,0,0,0,2,0,2"/>
    <wangtile tileid="2972" wangid="0,0,0,2,0,2,0,0"/>
    <wangtile tileid="2973" wangid="0,0,0,2,0,2,0,0"/>
    <wangtile tileid="3027" wangid="0,2,0,0,0,0,0,2"/>
    <wangtile tileid="3028" wangid="0,2,0,0,0,0,0,2"/>
   </wangset>
   <wangset name="tall grass - cartoonish style" type="corner" tile="1228">
    <wangcolor name="style 1" color="#ff0000" tile="1118" probability="1"/>
    <wangcolor name="style 2" color="#00ff00" tile="1178" probability="1"/>
    <wangcolor name="style 3" color="#0000ff" tile="1183" probability="1"/>
    <wangtile tileid="1006" wangid="0,1,0,0,0,1,0,0"/>
    <wangtile tileid="1007" wangid="0,0,0,1,0,0,0,0"/>
    <wangtile tileid="1008" wangid="0,0,0,1,0,1,0,0"/>
    <wangtile tileid="1009" wangid="0,0,0,0,0,1,0,0"/>
    <wangtile tileid="1010" wangid="0,0,0,1,0,0,0,1"/>
    <wangtile tileid="1011" wangid="0,2,0,0,0,2,0,0"/>
    <wangtile tileid="1012" wangid="0,0,0,2,0,0,0,0"/>
    <wangtile tileid="1013" wangid="0,0,0,2,0,2,0,0"/>
    <wangtile tileid="1014" wangid="0,0,0,0,0,2,0,0"/>
    <wangtile tileid="1015" wangid="0,0,0,2,0,0,0,2"/>
    <wangtile tileid="1016" wangid="0,3,0,0,0,3,0,0"/>
    <wangtile tileid="1017" wangid="0,0,0,3,0,0,0,0"/>
    <wangtile tileid="1018" wangid="0,0,0,3,0,3,0,0"/>
    <wangtile tileid="1019" wangid="0,0,0,0,0,3,0,0"/>
    <wangtile tileid="1020" wangid="0,0,0,3,0,0,0,3"/>
    <wangtile tileid="1061" wangid="0,0,0,1,0,0,0,0"/>
    <wangtile tileid="1062" wangid="0,1,0,1,0,1,0,0"/>
    <wangtile tileid="1063" wangid="0,1,0,1,0,1,0,1"/>
    <wangtile tileid="1064" wangid="0,0,0,1,0,1,0,1"/>
    <wangtile tileid="1065" wangid="0,0,0,0,0,1,0,0"/>
    <wangtile tileid="1066" wangid="0,0,0,2,0,0,0,0"/>
    <wangtile tileid="1067" wangid="0,2,0,2,0,2,0,0"/>
    <wangtile tileid="1068" wangid="0,2,0,2,0,2,0,2"/>
    <wangtile tileid="1069" wangid="0,0,0,2,0,2,0,2"/>
    <wangtile tileid="1070" wangid="0,0,0,0,0,2,0,0"/>
    <wangtile tileid="1071" wangid="0,0,0,3,0,0,0,0"/>
    <wangtile tileid="1072" wangid="0,3,0,3,0,3,0,0"/>
    <wangtile tileid="1073" wangid="0,3,0,3,0,3,0,3"/>
    <wangtile tileid="1074" wangid="0,0,0,3,0,3,0,3"/>
    <wangtile tileid="1075" wangid="0,0,0,0,0,3,0,0"/>
    <wangtile tileid="1116" wangid="0,1,0,1,0,0,0,0"/>
    <wangtile tileid="1117" wangid="0,1,0,1,0,1,0,1"/>
    <wangtile tileid="1118" wangid="0,1,0,1,0,1,0,1"/>
    <wangtile tileid="1119" wangid="0,1,0,1,0,1,0,1"/>
    <wangtile tileid="1120" wangid="0,0,0,0,0,1,0,1"/>
    <wangtile tileid="1121" wangid="0,2,0,2,0,0,0,0"/>
    <wangtile tileid="1122" wangid="0,2,0,2,0,2,0,2"/>
    <wangtile tileid="1123" wangid="0,2,0,2,0,2,0,2"/>
    <wangtile tileid="1124" wangid="0,2,0,2,0,2,0,2"/>
    <wangtile tileid="1125" wangid="0,0,0,0,0,2,0,2"/>
    <wangtile tileid="1126" wangid="0,3,0,3,0,0,0,0"/>
    <wangtile tileid="1127" wangid="0,3,0,3,0,3,0,3"/>
    <wangtile tileid="1128" wangid="0,3,0,3,0,3,0,3"/>
    <wangtile tileid="1129" wangid="0,3,0,3,0,3,0,3"/>
    <wangtile tileid="1130" wangid="0,0,0,0,0,3,0,3"/>
    <wangtile tileid="1171" wangid="0,1,0,0,0,0,0,0"/>
    <wangtile tileid="1172" wangid="0,1,0,1,0,0,0,1"/>
    <wangtile tileid="1173" wangid="0,1,0,1,0,1,0,1"/>
    <wangtile tileid="1174" wangid="0,1,0,0,0,1,0,1"/>
    <wangtile tileid="1175" wangid="0,0,0,0,0,0,0,1"/>
    <wangtile tileid="1176" wangid="0,2,0,0,0,0,0,0"/>
    <wangtile tileid="1177" wangid="0,2,0,2,0,0,0,2"/>
    <wangtile tileid="1178" wangid="0,2,0,2,0,2,0,2"/>
    <wangtile tileid="1179" wangid="0,2,0,0,0,2,0,2"/>
    <wangtile tileid="1180" wangid="0,0,0,0,0,0,0,2"/>
    <wangtile tileid="1181" wangid="0,3,0,0,0,0,0,0"/>
    <wangtile tileid="1182" wangid="0,3,0,3,0,0,0,3"/>
    <wangtile tileid="1183" wangid="0,3,0,3,0,3,0,3"/>
    <wangtile tileid="1184" wangid="0,3,0,0,0,3,0,3"/>
    <wangtile tileid="1185" wangid="0,0,0,0,0,0,0,3"/>
    <wangtile tileid="1226" wangid="0,0,0,1,0,1,0,0"/>
    <wangtile tileid="1227" wangid="0,1,0,0,0,0,0,0"/>
    <wangtile tileid="1228" wangid="0,1,0,0,0,0,0,1"/>
    <wangtile tileid="1229" wangid="0,0,0,0,0,0,0,1"/>
    <wangtile tileid="1230" wangid="0,1,0,1,0,0,0,0"/>
    <wangtile tileid="1231" wangid="0,0,0,2,0,2,0,0"/>
    <wangtile tileid="1232" wangid="0,2,0,0,0,0,0,0"/>
    <wangtile tileid="1233" wangid="0,2,0,0,0,0,0,2"/>
    <wangtile tileid="1234" wangid="0,0,0,0,0,0,0,2"/>
    <wangtile tileid="1235" wangid="0,2,0,2,0,0,0,0"/>
    <wangtile tileid="1236" wangid="0,0,0,3,0,3,0,0"/>
    <wangtile tileid="1237" wangid="0,3,0,0,0,0,0,0"/>
    <wangtile tileid="1238" wangid="0,3,0,0,0,0,0,3"/>
    <wangtile tileid="1239" wangid="0,0,0,0,0,0,0,3"/>
    <wangtile tileid="1240" wangid="0,3,0,3,0,0,0,0"/>
    <wangtile tileid="1281" wangid="0,1,0,0,0,0,0,1"/>
    <wangtile tileid="1282" wangid="0,1,0,1,0,1,0,1"/>
    <wangtile tileid="1283" wangid="0,1,0,1,0,1,0,1"/>
    <wangtile tileid="1284" wangid="0,1,0,1,0,1,0,1"/>
    <wangtile tileid="1285" wangid="0,0,0,0,0,1,0,1"/>
    <wangtile tileid="1286" wangid="0,2,0,0,0,0,0,2"/>
    <wangtile tileid="1287" wangid="0,2,0,2,0,2,0,2"/>
    <wangtile tileid="1288" wangid="0,2,0,2,0,2,0,2"/>
    <wangtile tileid="1289" wangid="0,2,0,2,0,2,0,2"/>
    <wangtile tileid="1290" wangid="0,0,0,0,0,2,0,2"/>
    <wangtile tileid="1291" wangid="0,3,0,0,0,0,0,3"/>
    <wangtile tileid="1292" wangid="0,3,0,3,0,3,0,3"/>
    <wangtile tileid="1293" wangid="0,3,0,3,0,3,0,3"/>
    <wangtile tileid="1294" wangid="0,3,0,3,0,3,0,3"/>
    <wangtile tileid="1295" wangid="0,0,0,0,0,3,0,3"/>
    <wangtile tileid="1336" wangid="0,1,0,1,0,1,0,1"/>
    <wangtile tileid="1337" wangid="0,1,0,1,0,1,0,1"/>
    <wangtile tileid="1338" wangid="0,1,0,1,0,1,0,1"/>
    <wangtile tileid="1339" wangid="0,1,0,1,0,1,0,1"/>
    <wangtile tileid="1340" wangid="0,1,0,1,0,1,0,1"/>
    <wangtile tileid="1341" wangid="0,2,0,2,0,2,0,2"/>
    <wangtile tileid="1342" wangid="0,2,0,2,0,2,0,2"/>
    <wangtile tileid="1343" wangid="0,2,0,2,0,2,0,2"/>
    <wangtile tileid="1344" wangid="0,2,0,2,0,2,0,2"/>
    <wangtile tileid="1345" wangid="0,2,0,2,0,2,0,2"/>
    <wangtile tileid="1346" wangid="0,3,0,3,0,3,0,3"/>
    <wangtile tileid="1347" wangid="0,3,0,3,0,3,0,3"/>
    <wangtile tileid="1348" wangid="0,3,0,3,0,3,0,3"/>
    <wangtile tileid="1349" wangid="0,3,0,3,0,3,0,3"/>
    <wangtile tileid="1350" wangid="0,3,0,3,0,3,0,3"/>
    <wangtile tileid="1391" wangid="0,1,0,1,0,1,0,1"/>
    <wangtile tileid="1392" wangid="0,1,0,1,0,1,0,1"/>
    <wangtile tileid="1393" wangid="0,1,0,1,0,1,0,1"/>
    <wangtile tileid="1394" wangid="0,1,0,1,0,1,0,1"/>
    <wangtile tileid="1395" wangid="0,1,0,1,0,1,0,1"/>
    <wangtile tileid="1396" wangid="0,2,0,2,0,2,0,2"/>
    <wangtile tileid="1397" wangid="0,2,0,2,0,2,0,2"/>
    <wangtile tileid="1398" wangid="0,2,0,2,0,2,0,2"/>
    <wangtile tileid="1399" wangid="0,2,0,2,0,2,0,2"/>
    <wangtile tileid="1400" wangid="0,2,0,2,0,2,0,2"/>
    <wangtile tileid="1401" wangid="0,3,0,3,0,3,0,3"/>
    <wangtile tileid="1402" wangid="0,3,0,3,0,3,0,3"/>
    <wangtile tileid="1403" wangid="0,3,0,3,0,3,0,3"/>
    <wangtile tileid="1404" wangid="0,3,0,3,0,3,0,3"/>
    <wangtile tileid="1405" wangid="0,3,0,3,0,3,0,3"/>
    <wangtile tileid="1446" wangid="0,1,0,1,0,1,0,1"/>
    <wangtile tileid="1447" wangid="0,1,0,1,0,1,0,1"/>
    <wangtile tileid="1448" wangid="0,1,0,1,0,1,0,1"/>
    <wangtile tileid="1449" wangid="0,1,0,1,0,1,0,1"/>
    <wangtile tileid="1450" wangid="0,1,0,1,0,1,0,1"/>
    <wangtile tileid="1451" wangid="0,2,0,2,0,2,0,2"/>
    <wangtile tileid="1452" wangid="0,2,0,2,0,2,0,2"/>
    <wangtile tileid="1453" wangid="0,2,0,2,0,2,0,2"/>
    <wangtile tileid="1454" wangid="0,2,0,2,0,2,0,2"/>
    <wangtile tileid="1455" wangid="0,2,0,2,0,2,0,2"/>
    <wangtile tileid="1456" wangid="0,3,0,3,0,3,0,3"/>
    <wangtile tileid="1457" wangid="0,3,0,3,0,3,0,3"/>
    <wangtile tileid="1458" wangid="0,3,0,3,0,3,0,3"/>
    <wangtile tileid="1459" wangid="0,3,0,3,0,3,0,3"/>
    <wangtile tileid="1460" wangid="0,3,0,3,0,3,0,3"/>
    <wangtile tileid="1501" wangid="0,1,0,1,0,1,0,1"/>
    <wangtile tileid="1502" wangid="0,1,0,1,0,1,0,1"/>
    <wangtile tileid="1503" wangid="0,1,0,1,0,1,0,1"/>
    <wangtile tileid="1504" wangid="0,1,0,1,0,1,0,1"/>
    <wangtile tileid="1505" wangid="0,1,0,1,0,1,0,1"/>
    <wangtile tileid="1506" wangid="0,2,0,2,0,2,0,2"/>
    <wangtile tileid="1507" wangid="0,2,0,2,0,2,0,2"/>
    <wangtile tileid="1508" wangid="0,2,0,2,0,2,0,2"/>
    <wangtile tileid="1509" wangid="0,2,0,2,0,2,0,2"/>
    <wangtile tileid="1510" wangid="0,2,0,2,0,2,0,2"/>
    <wangtile tileid="1511" wangid="0,3,0,3,0,3,0,3"/>
    <wangtile tileid="1512" wangid="0,3,0,3,0,3,0,3"/>
    <wangtile tileid="1513" wangid="0,3,0,3,0,3,0,3"/>
    <wangtile tileid="1514" wangid="0,3,0,3,0,3,0,3"/>
    <wangtile tileid="1515" wangid="0,3,0,3,0,3,0,3"/>
    <wangtile tileid="1556" wangid="0,1,0,1,0,1,0,1"/>
    <wangtile tileid="1557" wangid="0,1,0,1,0,1,0,1"/>
    <wangtile tileid="1558" wangid="0,1,0,1,0,1,0,1"/>
    <wangtile tileid="1559" wangid="0,1,0,1,0,1,0,1"/>
    <wangtile tileid="1560" wangid="0,1,0,1,0,1,0,1"/>
    <wangtile tileid="1561" wangid="0,2,0,2,0,2,0,2"/>
    <wangtile tileid="1562" wangid="0,2,0,2,0,2,0,2"/>
    <wangtile tileid="1563" wangid="0,2,0,2,0,2,0,2"/>
    <wangtile tileid="1564" wangid="0,2,0,2,0,2,0,2"/>
    <wangtile tileid="1565" wangid="0,2,0,2,0,2,0,2"/>
    <wangtile tileid="1566" wangid="0,3,0,3,0,3,0,3"/>
    <wangtile tileid="1567" wangid="0,3,0,3,0,3,0,3"/>
    <wangtile tileid="1568" wangid="0,3,0,3,0,3,0,3"/>
    <wangtile tileid="1569" wangid="0,3,0,3,0,3,0,3"/>
    <wangtile tileid="1570" wangid="0,3,0,3,0,3,0,3"/>
    <wangtile tileid="1611" wangid="0,1,0,1,0,1,0,1"/>
    <wangtile tileid="1612" wangid="0,1,0,1,0,1,0,1"/>
    <wangtile tileid="1613" wangid="0,1,0,1,0,1,0,1"/>
    <wangtile tileid="1614" wangid="0,1,0,1,0,1,0,1"/>
    <wangtile tileid="1616" wangid="0,2,0,2,0,2,0,2"/>
    <wangtile tileid="1617" wangid="0,2,0,2,0,2,0,2"/>
    <wangtile tileid="1618" wangid="0,2,0,2,0,2,0,2"/>
    <wangtile tileid="1619" wangid="0,2,0,2,0,2,0,2"/>
    <wangtile tileid="1621" wangid="0,3,0,3,0,3,0,3"/>
    <wangtile tileid="1622" wangid="0,3,0,3,0,3,0,3"/>
    <wangtile tileid="1623" wangid="0,3,0,3,0,3,0,3"/>
    <wangtile tileid="1624" wangid="0,3,0,3,0,3,0,3"/>
    <wangtile tileid="1625" wangid="0,3,0,3,0,3,0,3"/>
    <wangtile tileid="1666" wangid="0,1,0,1,0,1,0,1"/>
    <wangtile tileid="1667" wangid="0,1,0,1,0,1,0,1"/>
    <wangtile tileid="1668" wangid="0,1,0,1,0,1,0,1"/>
    <wangtile tileid="1669" wangid="0,1,0,1,0,1,0,1"/>
    <wangtile tileid="1671" wangid="0,2,0,2,0,2,0,2"/>
    <wangtile tileid="1672" wangid="0,2,0,2,0,2,0,2"/>
    <wangtile tileid="1673" wangid="0,2,0,2,0,2,0,2"/>
    <wangtile tileid="1674" wangid="0,2,0,2,0,2,0,2"/>
    <wangtile tileid="1676" wangid="0,3,0,3,0,3,0,3"/>
    <wangtile tileid="1677" wangid="0,3,0,3,0,3,0,3"/>
    <wangtile tileid="1678" wangid="0,3,0,3,0,3,0,3"/>
    <wangtile tileid="1679" wangid="0,3,0,3,0,3,0,3"/>
    <wangtile tileid="1680" wangid="0,3,0,3,0,3,0,3"/>
    <wangtile tileid="1721" wangid="0,1,0,1,0,1,0,1"/>
    <wangtile tileid="1722" wangid="0,1,0,1,0,1,0,1"/>
    <wangtile tileid="1723" wangid="0,1,0,1,0,1,0,1"/>
    <wangtile tileid="1724" wangid="0,1,0,1,0,1,0,1"/>
    <wangtile tileid="1726" wangid="0,2,0,2,0,2,0,2"/>
    <wangtile tileid="1727" wangid="0,2,0,2,0,2,0,2"/>
    <wangtile tileid="1728" wangid="0,2,0,2,0,2,0,2"/>
    <wangtile tileid="1729" wangid="0,2,0,2,0,2,0,2"/>
    <wangtile tileid="1731" wangid="0,3,0,3,0,3,0,3"/>
    <wangtile tileid="1732" wangid="0,3,0,3,0,3,0,3"/>
    <wangtile tileid="1733" wangid="0,3,0,3,0,3,0,3"/>
    <wangtile tileid="1734" wangid="0,3,0,3,0,3,0,3"/>
    <wangtile tileid="1735" wangid="0,3,0,3,0,3,0,3"/>
   </wangset>
   <wangset name="wall3" type="corner" tile="3302">
    <wangcolor name="dirt to neutral" color="#ff0000" tile="3302" probability="1"/>
    <wangcolor name="dirt to grass" color="#00ff00" tile="3588" probability="1"/>
    <wangtile tileid="3080" wangid="0,1,0,0,0,1,0,0"/>
    <wangtile tileid="3081" wangid="0,0,0,1,0,0,0,0"/>
    <wangtile tileid="3082" wangid="0,0,0,1,0,1,0,0"/>
    <wangtile tileid="3083" wangid="0,0,0,0,0,1,0,0"/>
    <wangtile tileid="3084" wangid="0,0,0,1,0,0,0,1"/>
    <wangtile tileid="3135" wangid="0,0,0,1,0,0,0,0"/>
    <wangtile tileid="3136" wangid="0,1,0,1,0,1,0,0"/>
    <wangtile tileid="3137" wangid="0,1,0,1,0,1,0,1"/>
    <wangtile tileid="3138" wangid="0,0,0,1,0,1,0,1"/>
    <wangtile tileid="3139" wangid="0,0,0,0,0,1,0,0"/>
    <wangtile tileid="3190" wangid="0,1,0,1,0,0,0,0"/>
    <wangtile tileid="3191" wangid="0,1,0,1,0,1,0,1"/>
    <wangtile tileid="3192" wangid="0,1,0,1,0,1,0,1"/>
    <wangtile tileid="3193" wangid="0,1,0,1,0,1,0,1"/>
    <wangtile tileid="3194" wangid="0,0,0,0,0,1,0,1"/>
    <wangtile tileid="3245" wangid="0,1,0,0,0,0,0,0"/>
    <wangtile tileid="3246" wangid="0,1,0,1,0,0,0,1"/>
    <wangtile tileid="3247" wangid="0,1,0,1,0,1,0,1"/>
    <wangtile tileid="3248" wangid="0,1,0,0,0,1,0,1"/>
    <wangtile tileid="3249" wangid="0,0,0,0,0,0,0,1"/>
    <wangtile tileid="3301" wangid="0,1,0,0,0,0,0,0"/>
    <wangtile tileid="3302" wangid="0,1,0,0,0,0,0,1"/>
    <wangtile tileid="3303" wangid="0,0,0,0,0,0,0,1"/>
    <wangtile tileid="3355" wangid="0,1,0,1,0,0,0,0"/>
    <wangtile tileid="3356" wangid="0,0,0,0,0,1,0,1"/>
    <wangtile tileid="3357" wangid="0,0,0,1,0,1,0,0"/>
    <wangtile tileid="3358" wangid="0,0,0,1,0,1,0,0"/>
    <wangtile tileid="3366" wangid="0,2,0,0,0,2,0,0"/>
    <wangtile tileid="3367" wangid="0,0,0,2,0,0,0,0"/>
    <wangtile tileid="3368" wangid="0,0,0,2,0,2,0,0"/>
    <wangtile tileid="3369" wangid="0,0,0,0,0,2,0,0"/>
    <wangtile tileid="3370" wangid="0,0,0,2,0,0,0,2"/>
    <wangtile tileid="3410" wangid="0,1,0,1,0,0,0,0"/>
    <wangtile tileid="3411" wangid="0,0,0,0,0,1,0,1"/>
    <wangtile tileid="3412" wangid="0,1,0,0,0,0,0,1"/>
    <wangtile tileid="3413" wangid="0,1,0,0,0,0,0,1"/>
    <wangtile tileid="3421" wangid="0,0,0,2,0,0,0,0"/>
    <wangtile tileid="3422" wangid="0,2,0,2,0,2,0,0"/>
    <wangtile tileid="3423" wangid="0,2,0,2,0,2,0,2"/>
    <wangtile tileid="3424" wangid="0,0,0,2,0,2,0,2"/>
    <wangtile tileid="3425" wangid="0,0,0,0,0,2,0,0"/>
    <wangtile tileid="3465" wangid="0,1,0,1,0,0,0,0"/>
    <wangtile tileid="3466" wangid="0,0,0,0,0,1,0,1"/>
    <wangtile tileid="3467" wangid="0,0,0,1,0,1,0,0"/>
    <wangtile tileid="3468" wangid="0,0,0,1,0,1,0,0"/>
    <wangtile tileid="3476" wangid="0,2,0,2,0,0,0,0"/>
    <wangtile tileid="3477" wangid="0,2,0,2,0,2,0,2"/>
    <wangtile tileid="3478" wangid="0,2,0,2,0,2,0,2"/>
    <wangtile tileid="3479" wangid="0,2,0,2,0,2,0,2"/>
    <wangtile tileid="3480" wangid="0,0,0,0,0,2,0,2"/>
    <wangtile tileid="3522" wangid="0,1,0,0,0,0,0,1"/>
    <wangtile tileid="3523" wangid="0,1,0,0,0,0,0,1"/>
    <wangtile tileid="3531" wangid="0,2,0,0,0,0,0,0"/>
    <wangtile tileid="3532" wangid="0,2,0,2,0,0,0,2"/>
    <wangtile tileid="3533" wangid="0,2,0,2,0,2,0,2"/>
    <wangtile tileid="3534" wangid="0,2,0,0,0,2,0,2"/>
    <wangtile tileid="3535" wangid="0,0,0,0,0,0,0,2"/>
    <wangtile tileid="3587" wangid="0,2,0,0,0,0,0,0"/>
    <wangtile tileid="3588" wangid="0,2,0,0,0,0,0,2"/>
    <wangtile tileid="3589" wangid="0,0,0,0,0,0,0,2"/>
    <wangtile tileid="3641" wangid="0,2,0,2,0,0,0,0"/>
    <wangtile tileid="3642" wangid="0,0,0,0,0,2,0,2"/>
    <wangtile tileid="3643" wangid="0,0,0,2,0,2,0,0"/>
    <wangtile tileid="3644" wangid="0,0,0,2,0,2,0,0"/>
    <wangtile tileid="3696" wangid="0,2,0,2,0,0,0,0"/>
    <wangtile tileid="3697" wangid="0,0,0,0,0,2,0,2"/>
    <wangtile tileid="3698" wangid="0,2,0,0,0,0,0,2"/>
    <wangtile tileid="3699" wangid="0,2,0,0,0,0,0,2"/>
    <wangtile tileid="3751" wangid="0,2,0,2,0,0,0,0"/>
    <wangtile tileid="3752" wangid="0,0,0,0,0,2,0,2"/>
    <wangtile tileid="3753" wangid="0,0,0,2,0,2,0,0"/>
    <wangtile tileid="3754" wangid="0,0,0,2,0,2,0,0"/>
    <wangtile tileid="3808" wangid="0,2,0,0,0,0,0,2"/>
    <wangtile tileid="3809" wangid="0,2,0,0,0,0,0,2"/>
   </wangset>
   <wangset name="grass2 - extra shade to main grass" type="corner" tile="245">
    <wangcolor name="" color="#ff0000" tile="245" probability="1"/>
    <wangtile tileid="135" wangid="0,1,0,0,0,1,0,0"/>
    <wangtile tileid="136" wangid="0,0,0,1,0,0,0,0"/>
    <wangtile tileid="137" wangid="0,0,0,1,0,1,0,0"/>
    <wangtile tileid="138" wangid="0,0,0,0,0,1,0,0"/>
    <wangtile tileid="139" wangid="0,0,0,1,0,0,0,1"/>
    <wangtile tileid="190" wangid="0,0,0,1,0,0,0,0"/>
    <wangtile tileid="191" wangid="0,1,0,1,0,1,0,0"/>
    <wangtile tileid="192" wangid="0,1,0,1,0,1,0,1"/>
    <wangtile tileid="193" wangid="0,0,0,1,0,1,0,1"/>
    <wangtile tileid="194" wangid="0,0,0,0,0,1,0,0"/>
    <wangtile tileid="245" wangid="0,1,0,1,0,0,0,0"/>
    <wangtile tileid="246" wangid="0,1,0,1,0,1,0,1"/>
    <wangtile tileid="247" wangid="0,1,0,1,0,1,0,1"/>
    <wangtile tileid="248" wangid="0,1,0,1,0,1,0,1"/>
    <wangtile tileid="249" wangid="0,0,0,0,0,1,0,1"/>
    <wangtile tileid="300" wangid="0,1,0,0,0,0,0,0"/>
    <wangtile tileid="301" wangid="0,1,0,1,0,0,0,1"/>
    <wangtile tileid="302" wangid="0,1,0,1,0,1,0,1"/>
    <wangtile tileid="303" wangid="0,1,0,0,0,1,0,1"/>
    <wangtile tileid="304" wangid="0,0,0,0,0,0,0,1"/>
    <wangtile tileid="355" wangid="0,0,0,1,0,1,0,0"/>
    <wangtile tileid="356" wangid="0,1,0,0,0,0,0,0"/>
    <wangtile tileid="357" wangid="0,1,0,0,0,0,0,1"/>
    <wangtile tileid="358" wangid="0,0,0,0,0,0,0,1"/>
    <wangtile tileid="359" wangid="0,1,0,1,0,0,0,0"/>
    <wangtile tileid="410" wangid="0,1,0,0,0,0,0,1"/>
    <wangtile tileid="414" wangid="0,0,0,0,0,1,0,1"/>
   </wangset>
   <wangset name="dirt" type="corner" tile="1832">
    <wangcolor name="dirt1 to extra shade grass" color="#ff0000" tile="1832" probability="1"/>
    <wangcolor name="dirt1 to main grass" color="#00ff00" tile="1837" probability="1"/>
    <wangcolor name="dirt2 to extra shade grass" color="#0000ff" tile="2327" probability="1"/>
    <wangcolor name="dirt2 to main grass" color="#ff7700" tile="2332" probability="1"/>
    <wangcolor name="dirt2 to dirt1" color="#00e9ff" tile="2722" probability="1"/>
    <wangtile tileid="1830" wangid="0,1,0,0,0,1,0,0"/>
    <wangtile tileid="1831" wangid="0,0,0,1,0,0,0,0"/>
    <wangtile tileid="1832" wangid="0,0,0,1,0,1,0,0"/>
    <wangtile tileid="1833" wangid="0,0,0,0,0,1,0,0"/>
    <wangtile tileid="1834" wangid="0,0,0,1,0,0,0,1"/>
    <wangtile tileid="1835" wangid="0,2,0,0,0,2,0,0"/>
    <wangtile tileid="1836" wangid="0,0,0,2,0,0,0,0"/>
    <wangtile tileid="1837" wangid="0,0,0,2,0,2,0,0"/>
    <wangtile tileid="1838" wangid="0,0,0,0,0,2,0,0"/>
    <wangtile tileid="1839" wangid="0,0,0,2,0,0,0,2"/>
    <wangtile tileid="1885" wangid="0,0,0,1,0,0,0,0"/>
    <wangtile tileid="1886" wangid="0,1,0,1,0,1,0,0"/>
    <wangtile tileid="1887" wangid="0,1,0,1,0,1,0,1"/>
    <wangtile tileid="1888" wangid="0,0,0,1,0,1,0,1"/>
    <wangtile tileid="1889" wangid="0,0,0,0,0,1,0,0"/>
    <wangtile tileid="1890" wangid="0,0,0,2,0,0,0,0"/>
    <wangtile tileid="1891" wangid="0,2,0,2,0,2,0,0"/>
    <wangtile tileid="1892" wangid="0,2,0,2,0,2,0,2"/>
    <wangtile tileid="1893" wangid="0,0,0,2,0,2,0,2"/>
    <wangtile tileid="1894" wangid="0,0,0,0,0,2,0,0"/>
    <wangtile tileid="1940" wangid="0,1,0,1,0,0,0,0"/>
    <wangtile tileid="1941" wangid="0,1,0,1,0,1,0,1"/>
    <wangtile tileid="1942" wangid="0,1,0,1,0,1,0,1"/>
    <wangtile tileid="1943" wangid="0,1,0,1,0,1,0,1"/>
    <wangtile tileid="1944" wangid="0,0,0,0,0,1,0,1"/>
    <wangtile tileid="1945" wangid="0,2,0,2,0,0,0,0"/>
    <wangtile tileid="1946" wangid="0,2,0,2,0,2,0,2"/>
    <wangtile tileid="1947" wangid="0,2,0,2,0,2,0,2"/>
    <wangtile tileid="1948" wangid="0,2,0,2,0,2,0,2"/>
    <wangtile tileid="1949" wangid="0,0,0,0,0,2,0,2"/>
    <wangtile tileid="1995" wangid="0,1,0,0,0,0,0,0"/>
    <wangtile tileid="1996" wangid="0,1,0,1,0,0,0,1"/>
    <wangtile tileid="1997" wangid="0,1,0,1,0,1,0,1"/>
    <wangtile tileid="1998" wangid="0,1,0,0,0,1,0,1"/>
    <wangtile tileid="1999" wangid="0,0,0,0,0,0,0,1"/>
    <wangtile tileid="2000" wangid="0,2,0,0,0,0,0,0"/>
    <wangtile tileid="2001" wangid="0,2,0,2,0,0,0,2"/>
    <wangtile tileid="2002" wangid="0,2,0,2,0,2,0,2"/>
    <wangtile tileid="2003" wangid="0,2,0,0,0,2,0,2"/>
    <wangtile tileid="2004" wangid="0,0,0,0,0,0,0,2"/>
    <wangtile tileid="2050" wangid="0,1,0,1,0,0,0,1"/>
    <wangtile tileid="2051" wangid="0,1,0,0,0,0,0,0"/>
    <wangtile tileid="2052" wangid="0,1,0,0,0,0,0,1"/>
    <wangtile tileid="2053" wangid="0,0,0,0,0,0,0,1"/>
    <wangtile tileid="2054" wangid="0,1,0,0,0,1,0,1"/>
    <wangtile tileid="2055" wangid="0,2,0,2,0,0,0,2"/>
    <wangtile tileid="2056" wangid="0,2,0,0,0,0,0,0"/>
    <wangtile tileid="2057" wangid="0,2,0,0,0,0,0,2"/>
    <wangtile tileid="2058" wangid="0,0,0,0,0,0,0,2"/>
    <wangtile tileid="2059" wangid="0,2,0,0,0,2,0,2"/>
    <wangtile tileid="2105" wangid="0,0,0,1,0,1,0,1"/>
    <wangtile tileid="2106" wangid="0,1,0,1,0,1,0,0"/>
    <wangtile tileid="2107" wangid="0,0,0,0,0,1,0,1"/>
    <wangtile tileid="2108" wangid="0,1,0,1,0,0,0,0"/>
    <wangtile tileid="2110" wangid="0,0,0,2,0,2,0,2"/>
    <wangtile tileid="2111" wangid="0,2,0,2,0,2,0,0"/>
    <wangtile tileid="2112" wangid="0,0,0,0,0,2,0,2"/>
    <wangtile tileid="2113" wangid="0,2,0,2,0,0,0,0"/>
    <wangtile tileid="2160" wangid="0,0,0,1,0,1,0,1"/>
    <wangtile tileid="2161" wangid="0,1,0,1,0,1,0,0"/>
    <wangtile tileid="2162" wangid="0,0,0,0,0,1,0,1"/>
    <wangtile tileid="2163" wangid="0,1,0,1,0,0,0,0"/>
    <wangtile tileid="2165" wangid="0,0,0,2,0,2,0,2"/>
    <wangtile tileid="2166" wangid="0,2,0,2,0,2,0,0"/>
    <wangtile tileid="2167" wangid="0,0,0,0,0,2,0,2"/>
    <wangtile tileid="2168" wangid="0,2,0,2,0,0,0,0"/>
    <wangtile tileid="2215" wangid="0,0,0,1,0,1,0,1"/>
    <wangtile tileid="2216" wangid="0,1,0,1,0,1,0,0"/>
    <wangtile tileid="2217" wangid="0,0,0,0,0,1,0,1"/>
    <wangtile tileid="2218" wangid="0,1,0,1,0,0,0,0"/>
    <wangtile tileid="2220" wangid="0,0,0,2,0,2,0,2"/>
    <wangtile tileid="2221" wangid="0,2,0,2,0,2,0,0"/>
    <wangtile tileid="2222" wangid="0,0,0,0,0,2,0,2"/>
    <wangtile tileid="2223" wangid="0,2,0,2,0,0,0,0"/>
    <wangtile tileid="2270" wangid="0,0,0,1,0,1,0,0"/>
    <wangtile tileid="2271" wangid="0,0,0,1,0,1,0,0"/>
    <wangtile tileid="2272" wangid="0,1,0,0,0,0,0,1"/>
    <wangtile tileid="2273" wangid="0,1,0,0,0,0,0,1"/>
    <wangtile tileid="2274" wangid="0,1,0,0,0,0,0,1"/>
    <wangtile tileid="2275" wangid="0,0,0,2,0,2,0,0"/>
    <wangtile tileid="2276" wangid="0,0,0,2,0,2,0,0"/>
    <wangtile tileid="2277" wangid="0,2,0,0,0,0,0,2"/>
    <wangtile tileid="2278" wangid="0,2,0,0,0,0,0,2"/>
    <wangtile tileid="2279" wangid="0,2,0,0,0,0,0,2"/>
    <wangtile tileid="2325" wangid="0,3,0,0,0,3,0,0"/>
    <wangtile tileid="2326" wangid="0,0,0,3,0,0,0,0"/>
    <wangtile tileid="2327" wangid="0,0,0,3,0,3,0,0"/>
    <wangtile tileid="2328" wangid="0,0,0,0,0,3,0,0"/>
    <wangtile tileid="2329" wangid="0,0,0,3,0,0,0,3"/>
    <wangtile tileid="2330" wangid="0,4,0,0,0,4,0,0"/>
    <wangtile tileid="2331" wangid="0,0,0,4,0,0,0,0"/>
    <wangtile tileid="2332" wangid="0,0,0,4,0,4,0,0"/>
    <wangtile tileid="2333" wangid="0,0,0,0,0,4,0,0"/>
    <wangtile tileid="2334" wangid="0,0,0,4,0,0,0,4"/>
    <wangtile tileid="2380" wangid="0,0,0,3,0,0,0,0"/>
    <wangtile tileid="2381" wangid="0,3,0,3,0,3,0,0"/>
    <wangtile tileid="2382" wangid="0,3,0,3,0,3,0,3"/>
    <wangtile tileid="2383" wangid="0,0,0,3,0,3,0,3"/>
    <wangtile tileid="2384" wangid="0,0,0,0,0,3,0,0"/>
    <wangtile tileid="2385" wangid="0,0,0,4,0,0,0,0"/>
    <wangtile tileid="2386" wangid="0,4,0,4,0,4,0,0"/>
    <wangtile tileid="2387" wangid="0,4,0,4,0,4,0,4"/>
    <wangtile tileid="2388" wangid="0,0,0,4,0,4,0,4"/>
    <wangtile tileid="2389" wangid="0,0,0,0,0,4,0,0"/>
    <wangtile tileid="2435" wangid="0,3,0,3,0,0,0,0"/>
    <wangtile tileid="2436" wangid="0,3,0,3,0,3,0,3"/>
    <wangtile tileid="2437" wangid="0,3,0,3,0,3,0,3"/>
    <wangtile tileid="2438" wangid="0,3,0,3,0,3,0,3"/>
    <wangtile tileid="2439" wangid="0,0,0,0,0,3,0,3"/>
    <wangtile tileid="2440" wangid="0,4,0,4,0,0,0,0"/>
    <wangtile tileid="2441" wangid="0,4,0,4,0,4,0,4"/>
    <wangtile tileid="2442" wangid="0,4,0,4,0,4,0,4"/>
    <wangtile tileid="2443" wangid="0,4,0,4,0,4,0,4"/>
    <wangtile tileid="2444" wangid="0,0,0,0,0,4,0,4"/>
    <wangtile tileid="2490" wangid="0,3,0,0,0,0,0,0"/>
    <wangtile tileid="2491" wangid="0,3,0,3,0,0,0,3"/>
    <wangtile tileid="2492" wangid="0,3,0,3,0,3,0,3"/>
    <wangtile tileid="2493" wangid="0,3,0,0,0,3,0,3"/>
    <wangtile tileid="2494" wangid="0,0,0,0,0,0,0,3"/>
    <wangtile tileid="2495" wangid="0,4,0,0,0,0,0,0"/>
    <wangtile tileid="2496" wangid="0,4,0,4,0,0,0,4"/>
    <wangtile tileid="2497" wangid="0,4,0,4,0,4,0,4"/>
    <wangtile tileid="2498" wangid="0,4,0,0,0,4,0,4"/>
    <wangtile tileid="2499" wangid="0,0,0,0,0,0,0,4"/>
    <wangtile tileid="2500" wangid="0,5,0,0,0,5,0,0"/>
    <wangtile tileid="2501" wangid="0,0,0,5,0,0,0,0"/>
    <wangtile tileid="2502" wangid="0,0,0,5,0,5,0,0"/>
    <wangtile tileid="2503" wangid="0,0,0,0,0,5,0,0"/>
    <wangtile tileid="2504" wangid="0,0,0,5,0,0,0,5"/>
    <wangtile tileid="2545" wangid="0,3,0,3,0,0,0,3"/>
    <wangtile tileid="2546" wangid="0,3,0,0,0,0,0,0"/>
    <wangtile tileid="2547" wangid="0,3,0,0,0,0,0,3"/>
    <wangtile tileid="2548" wangid="0,0,0,0,0,0,0,3"/>
    <wangtile tileid="2549" wangid="0,3,0,0,0,3,0,3"/>
    <wangtile tileid="2550" wangid="0,4,0,4,0,0,0,4"/>
    <wangtile tileid="2551" wangid="0,4,0,0,0,0,0,0"/>
    <wangtile tileid="2552" wangid="0,4,0,0,0,0,0,4"/>
    <wangtile tileid="2553" wangid="0,0,0,0,0,0,0,4"/>
    <wangtile tileid="2554" wangid="0,4,0,0,0,4,0,4"/>
    <wangtile tileid="2555" wangid="0,0,0,5,0,0,0,0"/>
    <wangtile tileid="2556" wangid="0,5,0,5,0,5,0,0"/>
    <wangtile tileid="2557" wangid="0,5,0,5,0,5,0,5"/>
    <wangtile tileid="2558" wangid="0,0,0,5,0,5,0,5"/>
    <wangtile tileid="2559" wangid="0,0,0,0,0,5,0,0"/>
    <wangtile tileid="2600" wangid="0,0,0,3,0,3,0,3"/>
    <wangtile tileid="2601" wangid="0,3,0,3,0,3,0,0"/>
    <wangtile tileid="2602" wangid="0,0,0,0,0,3,0,3"/>
    <wangtile tileid="2603" wangid="0,3,0,3,0,0,0,0"/>
    <wangtile tileid="2604" wangid="0,3,0,3,0,3,0,3"/>
    <wangtile tileid="2605" wangid="0,0,0,4,0,4,0,4"/>
    <wangtile tileid="2606" wangid="0,4,0,4,0,4,0,0"/>
    <wangtile tileid="2607" wangid="0,0,0,0,0,4,0,4"/>
    <wangtile tileid="2608" wangid="0,4,0,4,0,0,0,0"/>
    <wangtile tileid="2609" wangid="0,4,0,4,0,4,0,4"/>
    <wangtile tileid="2610" wangid="0,5,0,5,0,0,0,0"/>
    <wangtile tileid="2611" wangid="0,5,0,5,0,5,0,5"/>
    <wangtile tileid="2612" wangid="0,5,0,5,0,5,0,5"/>
    <wangtile tileid="2613" wangid="0,5,0,5,0,5,0,5"/>
    <wangtile tileid="2614" wangid="0,0,0,0,0,5,0,5"/>
    <wangtile tileid="2615" wangid="0,5,0,5,0,5,0,5"/>
    <wangtile tileid="2655" wangid="0,0,0,3,0,3,0,3"/>
    <wangtile tileid="2656" wangid="0,3,0,3,0,3,0,0"/>
    <wangtile tileid="2657" wangid="0,0,0,0,0,3,0,3"/>
    <wangtile tileid="2658" wangid="0,3,0,3,0,0,0,0"/>
    <wangtile tileid="2659" wangid="0,3,0,3,0,3,0,3"/>
    <wangtile tileid="2660" wangid="0,0,0,4,0,4,0,4"/>
    <wangtile tileid="2661" wangid="0,4,0,4,0,4,0,0"/>
    <wangtile tileid="2662" wangid="0,0,0,0,0,4,0,4"/>
    <wangtile tileid="2663" wangid="0,4,0,4,0,0,0,0"/>
    <wangtile tileid="2664" wangid="0,4,0,4,0,4,0,4"/>
    <wangtile tileid="2665" wangid="0,5,0,0,0,0,0,0"/>
    <wangtile tileid="2666" wangid="0,5,0,5,0,0,0,5"/>
    <wangtile tileid="2667" wangid="0,5,0,5,0,5,0,5"/>
    <wangtile tileid="2668" wangid="0,5,0,0,0,5,0,5"/>
    <wangtile tileid="2669" wangid="0,0,0,0,0,0,0,5"/>
    <wangtile tileid="2670" wangid="0,5,0,5,0,5,0,5"/>
    <wangtile tileid="2710" wangid="0,0,0,3,0,3,0,3"/>
    <wangtile tileid="2711" wangid="0,3,0,3,0,3,0,0"/>
    <wangtile tileid="2712" wangid="0,0,0,0,0,3,0,3"/>
    <wangtile tileid="2713" wangid="0,3,0,3,0,0,0,0"/>
    <wangtile tileid="2714" wangid="0,3,0,3,0,3,0,3"/>
    <wangtile tileid="2715" wangid="0,0,0,4,0,4,0,4"/>
    <wangtile tileid="2716" wangid="0,4,0,4,0,4,0,0"/>
    <wangtile tileid="2717" wangid="0,0,0,0,0,4,0,4"/>
    <wangtile tileid="2718" wangid="0,4,0,4,0,0,0,0"/>
    <wangtile tileid="2719" wangid="0,4,0,4,0,4,0,4"/>
    <wangtile tileid="2721" wangid="0,5,0,0,0,0,0,0"/>
    <wangtile tileid="2722" wangid="0,5,0,0,0,0,0,5"/>
    <wangtile tileid="2723" wangid="0,0,0,0,0,0,0,5"/>
    <wangtile tileid="2725" wangid="0,5,0,5,0,5,0,5"/>
    <wangtile tileid="2765" wangid="0,0,0,3,0,3,0,0"/>
    <wangtile tileid="2766" wangid="0,0,0,3,0,3,0,0"/>
    <wangtile tileid="2767" wangid="0,3,0,0,0,0,0,3"/>
    <wangtile tileid="2768" wangid="0,3,0,0,0,0,0,3"/>
    <wangtile tileid="2769" wangid="0,3,0,0,0,0,0,3"/>
    <wangtile tileid="2770" wangid="0,0,0,4,0,4,0,0"/>
    <wangtile tileid="2771" wangid="0,0,0,4,0,4,0,0"/>
    <wangtile tileid="2772" wangid="0,4,0,0,0,0,0,4"/>
    <wangtile tileid="2773" wangid="0,4,0,0,0,0,0,4"/>
    <wangtile tileid="2774" wangid="0,4,0,0,0,0,0,4"/>
   </wangset>
   <wangset name="sand" type="corner" tile="3047">
    <wangcolor name="extra shade grass to sand" color="#ff0000" tile="3047" probability="1"/>
    <wangcolor name="grass to sand" color="#00ff00" tile="3042" probability="1"/>
    <wangtile tileid="2820" wangid="0,2,0,0,0,2,0,0"/>
    <wangtile tileid="2821" wangid="0,0,0,2,0,0,0,0"/>
    <wangtile tileid="2822" wangid="0,0,0,2,0,2,0,0"/>
    <wangtile tileid="2823" wangid="0,0,0,0,0,2,0,0"/>
    <wangtile tileid="2824" wangid="0,0,0,2,0,0,0,2"/>
    <wangtile tileid="2825" wangid="0,1,0,0,0,1,0,0"/>
    <wangtile tileid="2826" wangid="0,0,0,1,0,0,0,0"/>
    <wangtile tileid="2827" wangid="0,0,0,1,0,1,0,0"/>
    <wangtile tileid="2828" wangid="0,0,0,0,0,1,0,0"/>
    <wangtile tileid="2829" wangid="0,0,0,1,0,0,0,1"/>
    <wangtile tileid="2875" wangid="0,0,0,2,0,0,0,0"/>
    <wangtile tileid="2876" wangid="0,2,0,2,0,2,0,0"/>
    <wangtile tileid="2877" wangid="0,2,0,2,0,2,0,2"/>
    <wangtile tileid="2878" wangid="0,0,0,2,0,2,0,2"/>
    <wangtile tileid="2879" wangid="0,0,0,0,0,2,0,0"/>
    <wangtile tileid="2880" wangid="0,0,0,1,0,0,0,0"/>
    <wangtile tileid="2881" wangid="0,1,0,1,0,1,0,0"/>
    <wangtile tileid="2882" wangid="0,1,0,1,0,1,0,1"/>
    <wangtile tileid="2883" wangid="0,0,0,1,0,1,0,1"/>
    <wangtile tileid="2884" wangid="0,0,0,0,0,1,0,0"/>
    <wangtile tileid="2930" wangid="0,2,0,2,0,0,0,0"/>
    <wangtile tileid="2931" wangid="0,2,0,2,0,2,0,2"/>
    <wangtile tileid="2932" wangid="0,2,0,2,0,2,0,2"/>
    <wangtile tileid="2933" wangid="0,2,0,2,0,2,0,2"/>
    <wangtile tileid="2934" wangid="0,0,0,0,0,2,0,2"/>
    <wangtile tileid="2935" wangid="0,1,0,1,0,0,0,0"/>
    <wangtile tileid="2936" wangid="0,1,0,1,0,1,0,1"/>
    <wangtile tileid="2937" wangid="0,1,0,1,0,1,0,1"/>
    <wangtile tileid="2938" wangid="0,1,0,1,0,1,0,1"/>
    <wangtile tileid="2939" wangid="0,0,0,0,0,1,0,1"/>
    <wangtile tileid="2985" wangid="0,2,0,0,0,0,0,0"/>
    <wangtile tileid="2986" wangid="0,2,0,2,0,0,0,2"/>
    <wangtile tileid="2987" wangid="0,2,0,2,0,2,0,2"/>
    <wangtile tileid="2988" wangid="0,2,0,0,0,2,0,2"/>
    <wangtile tileid="2989" wangid="0,0,0,0,0,0,0,2"/>
    <wangtile tileid="2990" wangid="0,1,0,0,0,0,0,0"/>
    <wangtile tileid="2991" wangid="0,1,0,1,0,0,0,1"/>
    <wangtile tileid="2992" wangid="0,1,0,1,0,1,0,1"/>
    <wangtile tileid="2993" wangid="0,1,0,0,0,1,0,1"/>
    <wangtile tileid="2994" wangid="0,0,0,0,0,0,0,1"/>
    <wangtile tileid="3040" wangid="0,2,0,2,0,2,0,0"/>
    <wangtile tileid="3041" wangid="0,2,0,0,0,0,0,0"/>
    <wangtile tileid="3042" wangid="0,2,0,0,0,0,0,2"/>
    <wangtile tileid="3043" wangid="0,0,0,0,0,0,0,2"/>
    <wangtile tileid="3044" wangid="0,0,0,2,0,2,0,2"/>
    <wangtile tileid="3045" wangid="0,1,0,1,0,1,0,0"/>
    <wangtile tileid="3046" wangid="0,1,0,0,0,0,0,0"/>
    <wangtile tileid="3047" wangid="0,1,0,0,0,0,0,1"/>
    <wangtile tileid="3048" wangid="0,0,0,0,0,0,0,1"/>
    <wangtile tileid="3049" wangid="0,0,0,1,0,1,0,1"/>
    <wangtile tileid="3095" wangid="0,2,0,2,0,0,0,2"/>
    <wangtile tileid="3097" wangid="0,2,0,2,0,0,0,0"/>
    <wangtile tileid="3098" wangid="0,0,0,0,0,2,0,2"/>
    <wangtile tileid="3099" wangid="0,2,0,0,0,2,0,2"/>
    <wangtile tileid="3100" wangid="0,1,0,1,0,0,0,1"/>
    <wangtile tileid="3102" wangid="0,1,0,1,0,0,0,0"/>
    <wangtile tileid="3103" wangid="0,0,0,0,0,1,0,1"/>
    <wangtile tileid="3104" wangid="0,1,0,0,0,1,0,1"/>
    <wangtile tileid="3150" wangid="0,2,0,0,0,0,0,0"/>
    <wangtile tileid="3151" wangid="0,0,0,0,0,0,0,2"/>
    <wangtile tileid="3152" wangid="0,2,0,2,0,0,0,0"/>
    <wangtile tileid="3153" wangid="0,0,0,0,0,2,0,2"/>
    <wangtile tileid="3155" wangid="0,1,0,0,0,0,0,0"/>
    <wangtile tileid="3156" wangid="0,0,0,0,0,0,0,1"/>
    <wangtile tileid="3157" wangid="0,1,0,1,0,0,0,0"/>
    <wangtile tileid="3158" wangid="0,0,0,0,0,1,0,1"/>
    <wangtile tileid="3205" wangid="0,2,0,0,0,0,0,0"/>
    <wangtile tileid="3206" wangid="0,0,0,0,0,0,0,2"/>
    <wangtile tileid="3207" wangid="0,2,0,2,0,0,0,0"/>
    <wangtile tileid="3208" wangid="0,0,0,0,0,2,0,2"/>
    <wangtile tileid="3210" wangid="0,1,0,0,0,0,0,0"/>
    <wangtile tileid="3211" wangid="0,0,0,0,0,0,0,1"/>
    <wangtile tileid="3212" wangid="0,1,0,1,0,0,0,0"/>
    <wangtile tileid="3213" wangid="0,0,0,0,0,1,0,1"/>
    <wangtile tileid="3260" wangid="0,2,0,0,0,0,0,2"/>
    <wangtile tileid="3261" wangid="0,2,0,0,0,0,0,2"/>
    <wangtile tileid="3262" wangid="0,0,0,2,0,2,0,0"/>
    <wangtile tileid="3263" wangid="0,0,0,2,0,2,0,0"/>
    <wangtile tileid="3264" wangid="0,0,0,2,0,2,0,0"/>
    <wangtile tileid="3265" wangid="0,1,0,0,0,0,0,1"/>
    <wangtile tileid="3266" wangid="0,1,0,0,0,0,0,1"/>
    <wangtile tileid="3267" wangid="0,0,0,1,0,1,0,0"/>
    <wangtile tileid="3268" wangid="0,0,0,1,0,1,0,0"/>
    <wangtile tileid="3269" wangid="0,0,0,1,0,1,0,0"/>
   </wangset>
   <wangset name="gravel" type="corner" tile="363">
    <wangcolor name="gravel to dirt1" color="#ff0000" tile="363" probability="1"/>
    <wangcolor name="gravel to dirt2" color="#00ff00" tile="368" probability="1"/>
    <wangcolor name="gravel to main grass (gravel on top)" color="#0000ff" tile="803" probability="1"/>
    <wangcolor name="gravel to extra shade grass (gravel on top)" color="#ff7700" tile="809" probability="1"/>
    <wangcolor name="gravel to main grass (grass on top)" color="#00e9ff" tile="155" probability="1"/>
    <wangcolor name="gravel to extra shade grass (grass on top)" color="#ff00d8" tile="160" probability="1"/>
    <wangtile tileid="141" wangid="0,1,0,0,0,1,0,0"/>
    <wangtile tileid="142" wangid="0,0,0,1,0,0,0,0"/>
    <wangtile tileid="143" wangid="0,0,0,1,0,1,0,0"/>
    <wangtile tileid="144" wangid="0,0,0,0,0,1,0,0"/>
    <wangtile tileid="145" wangid="0,0,0,1,0,0,0,1"/>
    <wangtile tileid="146" wangid="0,2,0,0,0,2,0,0"/>
    <wangtile tileid="147" wangid="0,0,0,2,0,0,0,0"/>
    <wangtile tileid="148" wangid="0,0,0,2,0,2,0,0"/>
    <wangtile tileid="149" wangid="0,0,0,0,0,2,0,0"/>
    <wangtile tileid="150" wangid="0,0,0,2,0,0,0,2"/>
    <wangtile tileid="153" wangid="0,5,0,0,0,5,0,0"/>
    <wangtile tileid="154" wangid="0,0,0,5,0,0,0,0"/>
    <wangtile tileid="155" wangid="0,0,0,5,0,5,0,0"/>
    <wangtile tileid="156" wangid="0,0,0,0,0,5,0,0"/>
    <wangtile tileid="157" wangid="0,0,0,5,0,0,0,5"/>
    <wangtile tileid="158" wangid="0,6,0,0,0,6,0,0"/>
    <wangtile tileid="159" wangid="0,0,0,6,0,0,0,0"/>
    <wangtile tileid="160" wangid="0,0,0,6,0,6,0,0"/>
    <wangtile tileid="161" wangid="0,0,0,0,0,6,0,0"/>
    <wangtile tileid="162" wangid="0,0,0,6,0,0,0,6"/>
    <wangtile tileid="196" wangid="0,0,0,1,0,0,0,0"/>
    <wangtile tileid="197" wangid="0,1,0,1,0,1,0,0"/>
    <wangtile tileid="198" wangid="0,1,0,1,0,1,0,1"/>
    <wangtile tileid="199" wangid="0,0,0,1,0,1,0,1"/>
    <wangtile tileid="200" wangid="0,0,0,0,0,1,0,0"/>
    <wangtile tileid="201" wangid="0,0,0,2,0,0,0,0"/>
    <wangtile tileid="202" wangid="0,2,0,2,0,2,0,0"/>
    <wangtile tileid="203" wangid="0,2,0,2,0,2,0,2"/>
    <wangtile tileid="204" wangid="0,0,0,2,0,2,0,2"/>
    <wangtile tileid="205" wangid="0,0,0,0,0,2,0,0"/>
    <wangtile tileid="208" wangid="0,0,0,5,0,0,0,0"/>
    <wangtile tileid="209" wangid="0,5,0,5,0,5,0,0"/>
    <wangtile tileid="210" wangid="0,5,0,5,0,5,0,5"/>
    <wangtile tileid="211" wangid="0,0,0,5,0,5,0,5"/>
    <wangtile tileid="212" wangid="0,0,0,0,0,5,0,0"/>
    <wangtile tileid="213" wangid="0,0,0,6,0,0,0,0"/>
    <wangtile tileid="214" wangid="0,6,0,6,0,6,0,0"/>
    <wangtile tileid="215" wangid="0,6,0,6,0,6,0,6"/>
    <wangtile tileid="216" wangid="0,0,0,6,0,6,0,6"/>
    <wangtile tileid="217" wangid="0,0,0,0,0,6,0,0"/>
    <wangtile tileid="251" wangid="0,1,0,1,0,0,0,0"/>
    <wangtile tileid="252" wangid="0,1,0,1,0,1,0,1"/>
    <wangtile tileid="253" wangid="0,1,0,1,0,1,0,1"/>
    <wangtile tileid="254" wangid="0,1,0,1,0,1,0,1"/>
    <wangtile tileid="255" wangid="0,0,0,0,0,1,0,1"/>
    <wangtile tileid="256" wangid="0,2,0,2,0,0,0,0"/>
    <wangtile tileid="257" wangid="0,2,0,2,0,2,0,2"/>
    <wangtile tileid="258" wangid="0,2,0,2,0,2,0,2"/>
    <wangtile tileid="259" wangid="0,2,0,2,0,2,0,2"/>
    <wangtile tileid="260" wangid="0,0,0,0,0,2,0,2"/>
    <wangtile tileid="263" wangid="0,5,0,5,0,0,0,0"/>
    <wangtile tileid="264" wangid="0,5,0,5,0,5,0,5"/>
    <wangtile tileid="265" wangid="0,5,0,5,0,5,0,5"/>
    <wangtile tileid="266" wangid="0,5,0,5,0,5,0,5"/>
    <wangtile tileid="267" wangid="0,0,0,0,0,5,0,5"/>
    <wangtile tileid="268" wangid="0,6,0,6,0,0,0,0"/>
    <wangtile tileid="269" wangid="0,6,0,6,0,6,0,6"/>
    <wangtile tileid="270" wangid="0,6,0,6,0,6,0,6"/>
    <wangtile tileid="271" wangid="0,6,0,6,0,6,0,6"/>
    <wangtile tileid="272" wangid="0,0,0,0,0,6,0,6"/>
    <wangtile tileid="306" wangid="0,1,0,0,0,0,0,0"/>
    <wangtile tileid="307" wangid="0,1,0,1,0,0,0,1"/>
    <wangtile tileid="308" wangid="0,1,0,1,0,1,0,1"/>
    <wangtile tileid="309" wangid="0,1,0,0,0,1,0,1"/>
    <wangtile tileid="310" wangid="0,0,0,0,0,0,0,1"/>
    <wangtile tileid="311" wangid="0,2,0,0,0,0,0,0"/>
    <wangtile tileid="312" wangid="0,2,0,2,0,0,0,2"/>
    <wangtile tileid="313" wangid="0,2,0,2,0,2,0,2"/>
    <wangtile tileid="314" wangid="0,2,0,0,0,2,0,2"/>
    <wangtile tileid="315" wangid="0,0,0,0,0,0,0,2"/>
    <wangtile tileid="318" wangid="0,5,0,0,0,0,0,0"/>
    <wangtile tileid="319" wangid="0,5,0,5,0,0,0,5"/>
    <wangtile tileid="320" wangid="0,5,0,5,0,5,0,5"/>
    <wangtile tileid="321" wangid="0,5,0,0,0,5,0,5"/>
    <wangtile tileid="322" wangid="0,0,0,0,0,0,0,5"/>
    <wangtile tileid="323" wangid="0,6,0,0,0,0,0,0"/>
    <wangtile tileid="324" wangid="0,6,0,6,0,0,0,6"/>
    <wangtile tileid="325" wangid="0,6,0,6,0,6,0,6"/>
    <wangtile tileid="326" wangid="0,6,0,0,0,6,0,6"/>
    <wangtile tileid="327" wangid="0,0,0,0,0,0,0,6"/>
    <wangtile tileid="362" wangid="0,1,0,0,0,0,0,0"/>
    <wangtile tileid="363" wangid="0,1,0,0,0,0,0,1"/>
    <wangtile tileid="364" wangid="0,0,0,0,0,0,0,1"/>
    <wangtile tileid="367" wangid="0,2,0,0,0,0,0,0"/>
    <wangtile tileid="368" wangid="0,2,0,0,0,0,0,2"/>
    <wangtile tileid="369" wangid="0,0,0,0,0,0,0,2"/>
    <wangtile tileid="373" wangid="0,5,0,5,0,0,0,5"/>
    <wangtile tileid="374" wangid="0,5,0,0,0,0,0,0"/>
    <wangtile tileid="375" wangid="0,5,0,0,0,0,0,5"/>
    <wangtile tileid="376" wangid="0,0,0,0,0,0,0,5"/>
    <wangtile tileid="377" wangid="0,5,0,0,0,5,0,5"/>
    <wangtile tileid="378" wangid="0,6,0,6,0,0,0,6"/>
    <wangtile tileid="379" wangid="0,6,0,0,0,0,0,0"/>
    <wangtile tileid="380" wangid="0,6,0,0,0,0,0,6"/>
    <wangtile tileid="381" wangid="0,0,0,0,0,0,0,6"/>
    <wangtile tileid="382" wangid="0,6,0,0,0,6,0,6"/>
    <wangtile tileid="428" wangid="0,0,0,5,0,5,0,5"/>
    <wangtile tileid="429" wangid="0,5,0,5,0,5,0,0"/>
    <wangtile tileid="430" wangid="0,0,0,0,0,5,0,5"/>
    <wangtile tileid="431" wangid="0,5,0,5,0,0,0,0"/>
    <wangtile tileid="433" wangid="0,0,0,6,0,6,0,6"/>
    <wangtile tileid="434" wangid="0,6,0,6,0,6,0,0"/>
    <wangtile tileid="435" wangid="0,0,0,0,0,6,0,6"/>
    <wangtile tileid="436" wangid="0,6,0,6,0,0,0,0"/>
    <wangtile tileid="483" wangid="0,0,0,5,0,5,0,5"/>
    <wangtile tileid="484" wangid="0,5,0,5,0,5,0,0"/>
    <wangtile tileid="485" wangid="0,0,0,0,0,5,0,5"/>
    <wangtile tileid="486" wangid="0,5,0,5,0,0,0,0"/>
    <wangtile tileid="488" wangid="0,0,0,6,0,6,0,6"/>
    <wangtile tileid="489" wangid="0,6,0,6,0,6,0,0"/>
    <wangtile tileid="490" wangid="0,0,0,0,0,6,0,6"/>
    <wangtile tileid="491" wangid="0,6,0,6,0,0,0,0"/>
    <wangtile tileid="526" wangid="0,3,0,0,0,3,0,0"/>
    <wangtile tileid="530" wangid="0,0,0,3,0,0,0,3"/>
    <wangtile tileid="532" wangid="0,4,0,0,0,4,0,0"/>
    <wangtile tileid="536" wangid="0,0,0,4,0,0,0,4"/>
    <wangtile tileid="538" wangid="0,0,0,5,0,5,0,5"/>
    <wangtile tileid="539" wangid="0,5,0,5,0,5,0,0"/>
    <wangtile tileid="540" wangid="0,0,0,0,0,5,0,5"/>
    <wangtile tileid="541" wangid="0,5,0,5,0,0,0,0"/>
    <wangtile tileid="543" wangid="0,0,0,6,0,6,0,6"/>
    <wangtile tileid="544" wangid="0,6,0,6,0,6,0,0"/>
    <wangtile tileid="545" wangid="0,0,0,0,0,6,0,6"/>
    <wangtile tileid="546" wangid="0,6,0,6,0,0,0,0"/>
    <wangtile tileid="581" wangid="0,3,0,0,0,3,0,0"/>
    <wangtile tileid="582" wangid="0,0,0,3,0,0,0,0"/>
    <wangtile tileid="583" wangid="0,0,0,3,0,3,0,0"/>
    <wangtile tileid="584" wangid="0,0,0,0,0,3,0,0"/>
    <wangtile tileid="585" wangid="0,0,0,3,0,0,0,3"/>
    <wangtile tileid="586" wangid="0,0,0,0,0,0,0,3"/>
    <wangtile tileid="587" wangid="0,4,0,0,0,4,0,0"/>
    <wangtile tileid="588" wangid="0,0,0,4,0,0,0,0"/>
    <wangtile tileid="589" wangid="0,0,0,4,0,4,0,0"/>
    <wangtile tileid="590" wangid="0,0,0,0,0,4,0,0"/>
    <wangtile tileid="591" wangid="0,0,0,4,0,0,0,4"/>
    <wangtile tileid="592" wangid="0,0,0,0,0,0,0,4"/>
    <wangtile tileid="593" wangid="0,0,0,5,0,5,0,0"/>
    <wangtile tileid="594" wangid="0,0,0,5,0,5,0,0"/>
    <wangtile tileid="595" wangid="0,5,0,0,0,0,0,5"/>
    <wangtile tileid="596" wangid="0,5,0,0,0,0,0,5"/>
    <wangtile tileid="597" wangid="0,5,0,0,0,0,0,5"/>
    <wangtile tileid="598" wangid="0,0,0,6,0,6,0,0"/>
    <wangtile tileid="599" wangid="0,0,0,6,0,6,0,0"/>
    <wangtile tileid="600" wangid="0,6,0,0,0,0,0,6"/>
    <wangtile tileid="601" wangid="0,6,0,0,0,0,0,6"/>
    <wangtile tileid="602" wangid="0,6,0,0,0,0,0,6"/>
    <wangtile tileid="636" wangid="0,0,0,3,0,0,0,0"/>
    <wangtile tileid="637" wangid="0,3,0,3,0,3,0,0"/>
    <wangtile tileid="638" wangid="0,3,0,3,0,3,0,3"/>
    <wangtile tileid="639" wangid="0,0,0,3,0,3,0,3"/>
    <wangtile tileid="640" wangid="0,0,0,0,0,3,0,0"/>
    <wangtile tileid="641" wangid="0,0,0,0,0,0,0,3"/>
    <wangtile tileid="642" wangid="0,0,0,4,0,0,0,0"/>
    <wangtile tileid="643" wangid="0,4,0,4,0,4,0,0"/>
    <wangtile tileid="644" wangid="0,4,0,4,0,4,0,4"/>
    <wangtile tileid="645" wangid="0,0,0,4,0,4,0,4"/>
    <wangtile tileid="646" wangid="0,0,0,0,0,4,0,0"/>
    <wangtile tileid="647" wangid="0,0,0,0,0,0,0,4"/>
    <wangtile tileid="648" wangid="0,5,0,5,0,5,0,5"/>
    <wangtile tileid="649" wangid="0,5,0,5,0,5,0,5"/>
    <wangtile tileid="650" wangid="0,5,0,5,0,5,0,5"/>
    <wangtile tileid="651" wangid="0,5,0,5,0,5,0,5"/>
    <wangtile tileid="652" wangid="0,5,0,5,0,5,0,5"/>
    <wangtile tileid="653" wangid="0,6,0,6,0,6,0,6"/>
    <wangtile tileid="654" wangid="0,6,0,6,0,6,0,6"/>
    <wangtile tileid="655" wangid="0,6,0,6,0,6,0,6"/>
    <wangtile tileid="656" wangid="0,6,0,6,0,6,0,6"/>
    <wangtile tileid="657" wangid="0,6,0,6,0,6,0,6"/>
    <wangtile tileid="691" wangid="0,3,0,3,0,0,0,0"/>
    <wangtile tileid="692" wangid="0,3,0,3,0,3,0,3"/>
    <wangtile tileid="693" wangid="0,3,0,3,0,3,0,3"/>
    <wangtile tileid="694" wangid="0,3,0,3,0,3,0,3"/>
    <wangtile tileid="695" wangid="0,0,0,0,0,3,0,3"/>
    <wangtile tileid="696" wangid="0,0,0,0,0,0,0,3"/>
    <wangtile tileid="697" wangid="0,4,0,4,0,0,0,0"/>
    <wangtile tileid="698" wangid="0,4,0,4,0,4,0,4"/>
    <wangtile tileid="699" wangid="0,4,0,4,0,4,0,4"/>
    <wangtile tileid="700" wangid="0,4,0,4,0,4,0,4"/>
    <wangtile tileid="701" wangid="0,0,0,0,0,4,0,4"/>
    <wangtile tileid="702" wangid="0,0,0,0,0,0,0,4"/>
    <wangtile tileid="746" wangid="0,3,0,0,0,0,0,0"/>
    <wangtile tileid="747" wangid="0,3,0,3,0,0,0,3"/>
    <wangtile tileid="748" wangid="0,3,0,3,0,3,0,3"/>
    <wangtile tileid="749" wangid="0,3,0,0,0,3,0,3"/>
    <wangtile tileid="750" wangid="0,0,0,0,0,0,0,3"/>
    <wangtile tileid="751" wangid="0,3,0,0,0,0,0,0"/>
    <wangtile tileid="752" wangid="0,4,0,0,0,0,0,0"/>
    <wangtile tileid="753" wangid="0,4,0,4,0,0,0,4"/>
    <wangtile tileid="754" wangid="0,4,0,4,0,4,0,4"/>
    <wangtile tileid="755" wangid="0,4,0,0,0,4,0,4"/>
    <wangtile tileid="756" wangid="0,0,0,0,0,0,0,4"/>
    <wangtile tileid="757" wangid="0,4,0,0,0,0,0,0"/>
    <wangtile tileid="801" wangid="0,3,0,3,0,0,0,3"/>
    <wangtile tileid="802" wangid="0,3,0,0,0,0,0,0"/>
    <wangtile tileid="803" wangid="0,3,0,0,0,0,0,3"/>
    <wangtile tileid="804" wangid="0,0,0,0,0,0,0,3"/>
    <wangtile tileid="805" wangid="0,3,0,0,0,3,0,3"/>
    <wangtile tileid="806" wangid="0,3,0,0,0,0,0,0"/>
    <wangtile tileid="807" wangid="0,4,0,4,0,0,0,4"/>
    <wangtile tileid="808" wangid="0,4,0,0,0,0,0,0"/>
    <wangtile tileid="809" wangid="0,4,0,0,0,0,0,4"/>
    <wangtile tileid="810" wangid="0,0,0,0,0,0,0,4"/>
    <wangtile tileid="811" wangid="0,4,0,0,0,4,0,4"/>
    <wangtile tileid="812" wangid="0,4,0,0,0,0,0,0"/>
    <wangtile tileid="856" wangid="0,3,0,3,0,0,0,3"/>
    <wangtile tileid="857" wangid="0,3,0,3,0,0,0,3"/>
    <wangtile tileid="859" wangid="0,3,0,0,0,3,0,3"/>
    <wangtile tileid="860" wangid="0,3,0,0,0,3,0,3"/>
    <wangtile tileid="861" wangid="0,3,0,0,0,0,0,0"/>
    <wangtile tileid="862" wangid="0,4,0,4,0,0,0,4"/>
    <wangtile tileid="863" wangid="0,4,0,4,0,0,0,4"/>
    <wangtile tileid="865" wangid="0,4,0,0,0,4,0,4"/>
    <wangtile tileid="866" wangid="0,4,0,0,0,4,0,4"/>
    <wangtile tileid="867" wangid="0,4,0,0,0,0,0,0"/>
    <wangtile tileid="911" wangid="0,0,0,3,0,0,0,0"/>
    <wangtile tileid="912" wangid="0,0,0,3,0,0,0,0"/>
    <wangtile tileid="913" wangid="0,0,0,3,0,0,0,0"/>
    <wangtile tileid="914" wangid="0,3,0,3,0,0,0,0"/>
    <wangtile tileid="915" wangid="0,0,0,0,0,3,0,3"/>
    <wangtile tileid="916" wangid="0,0,0,3,0,3,0,0"/>
    <wangtile tileid="917" wangid="0,0,0,4,0,0,0,0"/>
    <wangtile tileid="918" wangid="0,0,0,4,0,0,0,0"/>
    <wangtile tileid="919" wangid="0,0,0,4,0,0,0,0"/>
    <wangtile tileid="920" wangid="0,4,0,4,0,0,0,0"/>
    <wangtile tileid="921" wangid="0,0,0,0,0,4,0,4"/>
    <wangtile tileid="922" wangid="0,0,0,4,0,4,0,0"/>
    <wangtile tileid="966" wangid="0,0,0,0,0,3,0,0"/>
    <wangtile tileid="967" wangid="0,0,0,0,0,3,0,0"/>
    <wangtile tileid="968" wangid="0,0,0,0,0,3,0,0"/>
    <wangtile tileid="969" wangid="0,3,0,3,0,0,0,0"/>
    <wangtile tileid="970" wangid="0,0,0,0,0,3,0,3"/>
    <wangtile tileid="971" wangid="0,0,0,3,0,3,0,0"/>
    <wangtile tileid="972" wangid="0,0,0,0,0,4,0,0"/>
    <wangtile tileid="973" wangid="0,0,0,0,0,4,0,0"/>
    <wangtile tileid="974" wangid="0,0,0,0,0,4,0,0"/>
    <wangtile tileid="975" wangid="0,4,0,4,0,0,0,0"/>
    <wangtile tileid="976" wangid="0,0,0,0,0,4,0,4"/>
    <wangtile tileid="977" wangid="0,0,0,4,0,4,0,0"/>
    <wangtile tileid="1021" wangid="0,0,0,3,0,3,0,3"/>
    <wangtile tileid="1022" wangid="0,0,0,3,0,3,0,3"/>
    <wangtile tileid="1023" wangid="0,0,0,3,0,3,0,3"/>
    <wangtile tileid="1024" wangid="0,3,0,3,0,0,0,0"/>
    <wangtile tileid="1025" wangid="0,0,0,0,0,3,0,3"/>
    <wangtile tileid="1026" wangid="0,0,0,3,0,3,0,0"/>
    <wangtile tileid="1027" wangid="0,0,0,4,0,4,0,4"/>
    <wangtile tileid="1028" wangid="0,0,0,4,0,4,0,4"/>
    <wangtile tileid="1029" wangid="0,0,0,4,0,4,0,4"/>
    <wangtile tileid="1030" wangid="0,4,0,4,0,0,0,0"/>
    <wangtile tileid="1031" wangid="0,0,0,0,0,4,0,4"/>
    <wangtile tileid="1032" wangid="0,0,0,4,0,4,0,0"/>
    <wangtile tileid="1076" wangid="0,3,0,3,0,3,0,0"/>
    <wangtile tileid="1077" wangid="0,3,0,3,0,3,0,0"/>
    <wangtile tileid="1078" wangid="0,3,0,3,0,3,0,0"/>
    <wangtile tileid="1079" wangid="0,3,0,0,0,0,0,3"/>
    <wangtile tileid="1080" wangid="0,3,0,0,0,0,0,3"/>
    <wangtile tileid="1081" wangid="0,3,0,0,0,0,0,3"/>
    <wangtile tileid="1082" wangid="0,4,0,4,0,4,0,0"/>
    <wangtile tileid="1083" wangid="0,4,0,4,0,4,0,0"/>
    <wangtile tileid="1084" wangid="0,4,0,4,0,4,0,0"/>
    <wangtile tileid="1085" wangid="0,4,0,0,0,0,0,4"/>
    <wangtile tileid="1086" wangid="0,4,0,0,0,0,0,4"/>
    <wangtile tileid="1087" wangid="0,4,0,0,0,0,0,4"/>
   </wangset>
   <wangset name="stone floor" type="corner" tile="1243">
    <wangcolor name="stone floor1 to main grass (transition style1)" color="#ff0000" tile="1243" probability="1"/>
    <wangcolor name="stone floor1 to main grass (transition style2)" color="#00ff00" tile="1518" probability="1"/>
    <wangcolor name="stone floor1 to extra shade grass (transition style1)" color="#0000ff" tile="1249" probability="1"/>
    <wangcolor name="stone floor1 to extra shade grass (transition style2)" color="#fcb0ff" tile="1524" probability="1"/>
    <wangcolor name="stone floor1 to dirt1" color="#00e9ff" tile="1640" probability="1"/>
    <wangcolor name="stone floor1 to dirt2" color="#ff00d8" tile="1915" probability="1"/>
    <wangcolor name="stone floor1 to gravel" color="#be8a07" tile="1646" probability="1"/>
    <wangcolor name="stone floor2 to main grass" color="#a000ff" tile="2062" probability="1"/>
    <wangcolor name="stone floor2 to extra shade grass" color="#00ffa1" tile="2068" probability="1"/>
    <wangcolor name="stone floor3 to transparency" color="#ffa8a8" tile="2245" probability="1"/>
    <wangcolor name="stone floor3-1 to transparency" color="#b4a8ff" tile="2251" probability="1"/>
    <wangcolor name="stone floor4 to grass" color="#121f14" tile="2074" probability="1"/>
    <wangcolor name="stone floor4 to anything" color="#06254a" tile="2624" probability="1"/>
    <wangtile tileid="1241" wangid="0,1,0,0,0,1,0,0"/>
    <wangtile tileid="1242" wangid="0,0,0,1,0,0,0,0"/>
    <wangtile tileid="1243" wangid="0,0,0,1,0,1,0,0"/>
    <wangtile tileid="1244" wangid="0,0,0,0,0,1,0,0"/>
    <wangtile tileid="1245" wangid="0,0,0,1,0,0,0,1"/>
    <wangtile tileid="1247" wangid="0,3,0,0,0,3,0,0"/>
    <wangtile tileid="1248" wangid="0,0,0,3,0,0,0,0"/>
    <wangtile tileid="1249" wangid="0,0,0,3,0,3,0,0"/>
    <wangtile tileid="1250" wangid="0,0,0,0,0,3,0,0"/>
    <wangtile tileid="1251" wangid="0,0,0,3,0,0,0,3"/>
    <wangtile tileid="1296" wangid="0,0,0,1,0,0,0,0"/>
    <wangtile tileid="1297" wangid="0,1,0,1,0,1,0,0"/>
    <wangtile tileid="1298" wangid="0,1,0,1,0,1,0,1"/>
    <wangtile tileid="1299" wangid="0,0,0,1,0,1,0,1"/>
    <wangtile tileid="1300" wangid="0,0,0,0,0,1,0,0"/>
    <wangtile tileid="1301" wangid="0,0,0,1,0,1,0,0"/>
    <wangtile tileid="1302" wangid="0,0,0,3,0,0,0,0"/>
    <wangtile tileid="1303" wangid="0,3,0,3,0,3,0,0"/>
    <wangtile tileid="1304" wangid="0,3,0,3,0,3,0,3"/>
    <wangtile tileid="1305" wangid="0,0,0,3,0,3,0,3"/>
    <wangtile tileid="1306" wangid="0,0,0,0,0,3,0,0"/>
    <wangtile tileid="1307" wangid="0,0,0,3,0,3,0,0"/>
    <wangtile tileid="1351" wangid="0,1,0,1,0,0,0,0"/>
    <wangtile tileid="1352" wangid="0,1,0,1,0,1,0,1"/>
    <wangtile tileid="1353" wangid="0,1,0,1,0,1,0,1"/>
    <wangtile tileid="1354" wangid="0,1,0,1,0,1,0,1"/>
    <wangtile tileid="1355" wangid="0,0,0,0,0,1,0,1"/>
    <wangtile tileid="1356" wangid="0,1,0,0,0,0,0,1"/>
    <wangtile tileid="1357" wangid="0,3,0,3,0,0,0,0"/>
    <wangtile tileid="1358" wangid="0,3,0,3,0,3,0,3"/>
    <wangtile tileid="1359" wangid="0,3,0,3,0,3,0,3"/>
    <wangtile tileid="1360" wangid="0,3,0,3,0,3,0,3"/>
    <wangtile tileid="1361" wangid="0,0,0,0,0,3,0,3"/>
    <wangtile tileid="1362" wangid="0,3,0,0,0,0,0,3"/>
    <wangtile tileid="1406" wangid="0,1,0,0,0,0,0,0"/>
    <wangtile tileid="1407" wangid="0,1,0,1,0,0,0,1"/>
    <wangtile tileid="1408" wangid="0,1,0,1,0,1,0,1"/>
    <wangtile tileid="1409" wangid="0,1,0,0,0,1,0,1"/>
    <wangtile tileid="1410" wangid="0,0,0,0,0,0,0,1"/>
    <wangtile tileid="1411" wangid="0,1,0,1,0,0,0,0"/>
    <wangtile tileid="1412" wangid="0,3,0,0,0,0,0,0"/>
    <wangtile tileid="1413" wangid="0,3,0,3,0,0,0,3"/>
    <wangtile tileid="1414" wangid="0,3,0,3,0,3,0,3"/>
    <wangtile tileid="1415" wangid="0,3,0,0,0,3,0,3"/>
    <wangtile tileid="1416" wangid="0,0,0,0,0,0,0,3"/>
    <wangtile tileid="1417" wangid="0,3,0,3,0,0,0,0"/>
    <wangtile tileid="1418" wangid="0,5,0,0,0,5,0,0"/>
    <wangtile tileid="1419" wangid="0,0,0,5,0,0,0,0"/>
    <wangtile tileid="1420" wangid="0,0,0,5,0,5,0,0"/>
    <wangtile tileid="1421" wangid="0,0,0,0,0,5,0,0"/>
    <wangtile tileid="1422" wangid="0,0,0,5,0,0,0,5"/>
    <wangtile tileid="1424" wangid="0,7,0,0,0,7,0,0"/>
    <wangtile tileid="1425" wangid="0,0,0,7,0,0,0,0"/>
    <wangtile tileid="1426" wangid="0,0,0,7,0,7,0,0"/>
    <wangtile tileid="1427" wangid="0,0,0,0,0,7,0,0"/>
    <wangtile tileid="1428" wangid="0,0,0,7,0,0,0,7"/>
    <wangtile tileid="1429" wangid="0,0,0,7,0,7,0,0"/>
    <wangtile tileid="1462" wangid="0,1,0,0,0,0,0,0"/>
    <wangtile tileid="1463" wangid="0,1,0,0,0,0,0,1"/>
    <wangtile tileid="1464" wangid="0,0,0,0,0,0,0,1"/>
    <wangtile tileid="1466" wangid="0,0,0,0,0,1,0,1"/>
    <wangtile tileid="1468" wangid="0,3,0,0,0,0,0,0"/>
    <wangtile tileid="1469" wangid="0,3,0,0,0,0,0,3"/>
    <wangtile tileid="1470" wangid="0,0,0,0,0,0,0,3"/>
    <wangtile tileid="1472" wangid="0,0,0,0,0,3,0,3"/>
    <wangtile tileid="1473" wangid="0,0,0,5,0,0,0,0"/>
    <wangtile tileid="1474" wangid="0,5,0,5,0,5,0,0"/>
    <wangtile tileid="1475" wangid="0,5,0,5,0,5,0,5"/>
    <wangtile tileid="1476" wangid="0,0,0,5,0,5,0,5"/>
    <wangtile tileid="1477" wangid="0,0,0,0,0,5,0,0"/>
    <wangtile tileid="1478" wangid="0,0,0,5,0,5,0,0"/>
    <wangtile tileid="1479" wangid="0,0,0,7,0,0,0,0"/>
    <wangtile tileid="1480" wangid="0,7,0,7,0,7,0,0"/>
    <wangtile tileid="1481" wangid="0,7,0,7,0,7,0,7"/>
    <wangtile tileid="1482" wangid="0,0,0,7,0,7,0,7"/>
    <wangtile tileid="1483" wangid="0,0,0,0,0,7,0,0"/>
    <wangtile tileid="1484" wangid="0,0,0,7,0,7,0,0"/>
    <wangtile tileid="1516" wangid="0,2,0,0,0,2,0,0"/>
    <wangtile tileid="1517" wangid="0,0,0,2,0,0,0,0"/>
    <wangtile tileid="1518" wangid="0,0,0,2,0,2,0,0"/>
    <wangtile tileid="1519" wangid="0,0,0,0,0,2,0,0"/>
    <wangtile tileid="1520" wangid="0,0,0,2,0,0,0,2"/>
    <wangtile tileid="1522" wangid="0,4,0,0,0,4,0,0"/>
    <wangtile tileid="1523" wangid="0,0,0,4,0,0,0,0"/>
    <wangtile tileid="1524" wangid="0,0,0,4,0,4,0,0"/>
    <wangtile tileid="1525" wangid="0,0,0,0,0,4,0,0"/>
    <wangtile tileid="1526" wangid="0,0,0,4,0,0,0,4"/>
    <wangtile tileid="1528" wangid="0,5,0,5,0,0,0,0"/>
    <wangtile tileid="1529" wangid="0,5,0,5,0,5,0,5"/>
    <wangtile tileid="1530" wangid="0,5,0,5,0,5,0,5"/>
    <wangtile tileid="1531" wangid="0,5,0,5,0,5,0,5"/>
    <wangtile tileid="1532" wangid="0,0,0,0,0,5,0,5"/>
    <wangtile tileid="1533" wangid="0,5,0,0,0,0,0,5"/>
    <wangtile tileid="1534" wangid="0,7,0,7,0,0,0,0"/>
    <wangtile tileid="1535" wangid="0,7,0,7,0,7,0,7"/>
    <wangtile tileid="1536" wangid="0,7,0,7,0,7,0,7"/>
    <wangtile tileid="1537" wangid="0,7,0,7,0,7,0,7"/>
    <wangtile tileid="1538" wangid="0,0,0,0,0,7,0,7"/>
    <wangtile tileid="1539" wangid="0,7,0,0,0,0,0,7"/>
    <wangtile tileid="1571" wangid="0,0,0,2,0,0,0,0"/>
    <wangtile tileid="1572" wangid="0,2,0,2,0,2,0,0"/>
    <wangtile tileid="1573" wangid="0,2,0,2,0,2,0,2"/>
    <wangtile tileid="1574" wangid="0,0,0,2,0,2,0,2"/>
    <wangtile tileid="1575" wangid="0,0,0,0,0,2,0,0"/>
    <wangtile tileid="1576" wangid="0,0,0,2,0,2,0,0"/>
    <wangtile tileid="1577" wangid="0,0,0,4,0,0,0,0"/>
    <wangtile tileid="1578" wangid="0,4,0,4,0,4,0,0"/>
    <wangtile tileid="1579" wangid="0,4,0,4,0,4,0,4"/>
    <wangtile tileid="1580" wangid="0,0,0,4,0,4,0,4"/>
    <wangtile tileid="1581" wangid="0,0,0,0,0,4,0,0"/>
    <wangtile tileid="1582" wangid="0,0,0,4,0,4,0,0"/>
    <wangtile tileid="1583" wangid="0,5,0,0,0,0,0,0"/>
    <wangtile tileid="1584" wangid="0,5,0,5,0,0,0,5"/>
    <wangtile tileid="1585" wangid="0,5,0,5,0,5,0,5"/>
    <wangtile tileid="1586" wangid="0,5,0,0,0,5,0,5"/>
    <wangtile tileid="1587" wangid="0,0,0,0,0,0,0,5"/>
    <wangtile tileid="1588" wangid="0,5,0,5,0,0,0,0"/>
    <wangtile tileid="1589" wangid="0,7,0,0,0,0,0,0"/>
    <wangtile tileid="1590" wangid="0,7,0,7,0,0,0,7"/>
    <wangtile tileid="1591" wangid="0,7,0,7,0,7,0,7"/>
    <wangtile tileid="1592" wangid="0,7,0,0,0,7,0,7"/>
    <wangtile tileid="1593" wangid="0,0,0,0,0,0,0,7"/>
    <wangtile tileid="1594" wangid="0,7,0,0,0,0,0,7"/>
    <wangtile tileid="1626" wangid="0,2,0,2,0,0,0,0"/>
    <wangtile tileid="1627" wangid="0,2,0,2,0,2,0,2"/>
    <wangtile tileid="1628" wangid="0,2,0,2,0,2,0,2"/>
    <wangtile tileid="1629" wangid="0,2,0,2,0,2,0,2"/>
    <wangtile tileid="1630" wangid="0,0,0,0,0,2,0,2"/>
    <wangtile tileid="1631" wangid="0,2,0,0,0,0,0,2"/>
    <wangtile tileid="1632" wangid="0,4,0,4,0,0,0,0"/>
    <wangtile tileid="1633" wangid="0,4,0,4,0,4,0,4"/>
    <wangtile tileid="1634" wangid="0,4,0,4,0,4,0,4"/>
    <wangtile tileid="1635" wangid="0,4,0,4,0,4,0,4"/>
    <wangtile tileid="1636" wangid="0,0,0,0,0,4,0,4"/>
    <wangtile tileid="1637" wangid="0,4,0,0,0,0,0,4"/>
    <wangtile tileid="1639" wangid="0,5,0,0,0,0,0,0"/>
    <wangtile tileid="1640" wangid="0,5,0,0,0,0,0,5"/>
    <wangtile tileid="1641" wangid="0,0,0,0,0,0,0,5"/>
    <wangtile tileid="1643" wangid="0,0,0,0,0,5,0,5"/>
    <wangtile tileid="1645" wangid="0,7,0,0,0,0,0,0"/>
    <wangtile tileid="1646" wangid="0,7,0,0,0,0,0,7"/>
    <wangtile tileid="1647" wangid="0,0,0,0,0,0,0,7"/>
    <wangtile tileid="1649" wangid="0,7,0,7,0,0,0,0"/>
    <wangtile tileid="1681" wangid="0,2,0,0,0,0,0,0"/>
    <wangtile tileid="1682" wangid="0,2,0,2,0,0,0,2"/>
    <wangtile tileid="1683" wangid="0,2,0,2,0,2,0,2"/>
    <wangtile tileid="1684" wangid="0,2,0,0,0,2,0,2"/>
    <wangtile tileid="1685" wangid="0,0,0,0,0,0,0,2"/>
    <wangtile tileid="1686" wangid="0,2,0,2,0,0,0,0"/>
    <wangtile tileid="1687" wangid="0,4,0,0,0,0,0,0"/>
    <wangtile tileid="1688" wangid="0,4,0,4,0,0,0,4"/>
    <wangtile tileid="1689" wangid="0,4,0,4,0,4,0,4"/>
    <wangtile tileid="1690" wangid="0,4,0,0,0,4,0,4"/>
    <wangtile tileid="1691" wangid="0,0,0,0,0,0,0,4"/>
    <wangtile tileid="1692" wangid="0,4,0,4,0,0,0,0"/>
    <wangtile tileid="1693" wangid="0,6,0,0,0,6,0,0"/>
    <wangtile tileid="1694" wangid="0,0,0,6,0,0,0,0"/>
    <wangtile tileid="1695" wangid="0,0,0,6,0,6,0,0"/>
    <wangtile tileid="1696" wangid="0,0,0,0,0,6,0,0"/>
    <wangtile tileid="1697" wangid="0,0,0,6,0,0,0,6"/>
    <wangtile tileid="1704" wangid="0,0,0,0,0,7,0,7"/>
    <wangtile tileid="1737" wangid="0,2,0,0,0,0,0,0"/>
    <wangtile tileid="1738" wangid="0,2,0,0,0,0,0,2"/>
    <wangtile tileid="1739" wangid="0,0,0,0,0,0,0,2"/>
    <wangtile tileid="1741" wangid="0,0,0,0,0,2,0,2"/>
    <wangtile tileid="1743" wangid="0,4,0,0,0,0,0,0"/>
    <wangtile tileid="1744" wangid="0,4,0,0,0,0,0,4"/>
    <wangtile tileid="1745" wangid="0,0,0,0,0,0,0,4"/>
    <wangtile tileid="1747" wangid="0,0,0,0,0,4,0,4"/>
    <wangtile tileid="1748" wangid="0,0,0,6,0,0,0,0"/>
    <wangtile tileid="1749" wangid="0,6,0,6,0,6,0,0"/>
    <wangtile tileid="1750" wangid="0,6,0,6,0,6,0,6"/>
    <wangtile tileid="1751" wangid="0,0,0,6,0,6,0,6"/>
    <wangtile tileid="1752" wangid="0,0,0,0,0,6,0,0"/>
    <wangtile tileid="1753" wangid="0,0,0,6,0,6,0,0"/>
    <wangtile tileid="1803" wangid="0,6,0,6,0,0,0,0"/>
    <wangtile tileid="1804" wangid="0,6,0,6,0,6,0,6"/>
    <wangtile tileid="1805" wangid="0,6,0,6,0,6,0,6"/>
    <wangtile tileid="1806" wangid="0,6,0,6,0,6,0,6"/>
    <wangtile tileid="1807" wangid="0,0,0,0,0,6,0,6"/>
    <wangtile tileid="1808" wangid="0,6,0,0,0,0,0,6"/>
    <wangtile tileid="1840" wangid="0,8,0,0,0,8,0,0"/>
    <wangtile tileid="1841" wangid="0,0,0,8,0,0,0,0"/>
    <wangtile tileid="1842" wangid="0,0,0,8,0,8,0,0"/>
    <wangtile tileid="1843" wangid="0,0,0,0,0,8,0,0"/>
    <wangtile tileid="1844" wangid="0,0,0,8,0,0,0,8"/>
    <wangtile tileid="1846" wangid="0,9,0,0,0,9,0,0"/>
    <wangtile tileid="1847" wangid="0,0,0,9,0,0,0,0"/>
    <wangtile tileid="1848" wangid="0,0,0,9,0,9,0,0"/>
    <wangtile tileid="1849" wangid="0,0,0,0,0,9,0,0"/>
    <wangtile tileid="1850" wangid="0,0,0,9,0,0,0,9"/>
    <wangtile tileid="1853" wangid="0,0,0,12,0,0,0,0"/>
    <wangtile tileid="1854" wangid="0,0,0,12,0,12,0,0"/>
    <wangtile tileid="1855" wangid="0,0,0,0,0,12,0,0"/>
    <wangtile tileid="1858" wangid="0,6,0,0,0,0,0,0"/>
    <wangtile tileid="1859" wangid="0,6,0,6,0,0,0,6"/>
    <wangtile tileid="1860" wangid="0,6,0,6,0,6,0,6"/>
    <wangtile tileid="1861" wangid="0,6,0,0,0,6,0,6"/>
    <wangtile tileid="1862" wangid="0,0,0,0,0,0,0,6"/>
    <wangtile tileid="1863" wangid="0,6,0,6,0,0,0,0"/>
    <wangtile tileid="1895" wangid="0,0,0,8,0,0,0,0"/>
    <wangtile tileid="1896" wangid="0,8,0,8,0,8,0,0"/>
    <wangtile tileid="1897" wangid="0,8,0,8,0,8,0,8"/>
    <wangtile tileid="1898" wangid="0,0,0,8,0,8,0,8"/>
    <wangtile tileid="1899" wangid="0,0,0,0,0,8,0,0"/>
    <wangtile tileid="1901" wangid="0,0,0,9,0,0,0,0"/>
    <wangtile tileid="1902" wangid="0,9,0,9,0,9,0,0"/>
    <wangtile tileid="1903" wangid="0,9,0,9,0,9,0,9"/>
    <wangtile tileid="1904" wangid="0,0,0,9,0,9,0,9"/>
    <wangtile tileid="1905" wangid="0,0,0,0,0,9,0,0"/>
    <wangtile tileid="1907" wangid="0,0,0,12,0,0,0,0"/>
    <wangtile tileid="1908" wangid="0,12,0,12,0,12,0,0"/>
    <wangtile tileid="1909" wangid="0,12,0,12,0,12,0,12"/>
    <wangtile tileid="1910" wangid="0,0,0,12,0,12,0,12"/>
    <wangtile tileid="1911" wangid="0,0,0,0,0,12,0,0"/>
    <wangtile tileid="1914" wangid="0,6,0,0,0,0,0,0"/>
    <wangtile tileid="1915" wangid="0,6,0,0,0,0,0,6"/>
    <wangtile tileid="1916" wangid="0,0,0,0,0,0,0,6"/>
    <wangtile tileid="1918" wangid="0,0,0,0,0,6,0,6"/>
    <wangtile tileid="1950" wangid="0,8,0,8,0,0,0,0"/>
    <wangtile tileid="1951" wangid="0,8,0,8,0,8,0,8"/>
    <wangtile tileid="1952" wangid="0,8,0,8,0,8,0,8"/>
    <wangtile tileid="1953" wangid="0,8,0,8,0,8,0,8"/>
    <wangtile tileid="1954" wangid="0,0,0,0,0,8,0,8"/>
    <wangtile tileid="1956" wangid="0,9,0,9,0,0,0,0"/>
    <wangtile tileid="1957" wangid="0,9,0,9,0,9,0,9"/>
    <wangtile tileid="1958" wangid="0,9,0,9,0,9,0,9"/>
    <wangtile tileid="1959" wangid="0,9,0,9,0,9,0,9"/>
    <wangtile tileid="1960" wangid="0,0,0,0,0,9,0,9"/>
    <wangtile tileid="1962" wangid="0,12,0,12,0,0,0,0"/>
    <wangtile tileid="1963" wangid="0,12,0,12,0,12,0,12"/>
    <wangtile tileid="1964" wangid="0,12,0,12,0,12,0,12"/>
    <wangtile tileid="1965" wangid="0,12,0,12,0,12,0,12"/>
    <wangtile tileid="1966" wangid="0,0,0,0,0,12,0,12"/>
    <wangtile tileid="2005" wangid="0,8,0,0,0,0,0,0"/>
    <wangtile tileid="2006" wangid="0,8,0,8,0,0,0,8"/>
    <wangtile tileid="2007" wangid="0,8,0,8,0,8,0,8"/>
    <wangtile tileid="2008" wangid="0,8,0,0,0,8,0,8"/>
    <wangtile tileid="2009" wangid="0,0,0,0,0,0,0,8"/>
    <wangtile tileid="2011" wangid="0,9,0,0,0,0,0,0"/>
    <wangtile tileid="2012" wangid="0,9,0,9,0,0,0,9"/>
    <wangtile tileid="2013" wangid="0,9,0,9,0,9,0,9"/>
    <wangtile tileid="2014" wangid="0,9,0,0,0,9,0,9"/>
    <wangtile tileid="2015" wangid="0,0,0,0,0,0,0,9"/>
    <wangtile tileid="2017" wangid="0,12,0,0,0,0,0,0"/>
    <wangtile tileid="2018" wangid="0,12,0,12,0,0,0,12"/>
    <wangtile tileid="2019" wangid="0,12,0,12,0,12,0,12"/>
    <wangtile tileid="2020" wangid="0,12,0,0,0,12,0,12"/>
    <wangtile tileid="2021" wangid="0,0,0,0,0,0,0,12"/>
    <wangtile tileid="2023" wangid="0,10,0,0,0,10,0,0"/>
    <wangtile tileid="2024" wangid="0,0,0,10,0,0,0,0"/>
    <wangtile tileid="2025" wangid="0,0,0,10,0,10,0,0"/>
    <wangtile tileid="2026" wangid="0,0,0,0,0,10,0,0"/>
    <wangtile tileid="2027" wangid="0,0,0,10,0,0,0,10"/>
    <wangtile tileid="2029" wangid="0,11,0,0,0,11,0,0"/>
    <wangtile tileid="2030" wangid="0,0,0,11,0,0,0,0"/>
    <wangtile tileid="2031" wangid="0,0,0,11,0,11,0,0"/>
    <wangtile tileid="2032" wangid="0,0,0,0,0,11,0,0"/>
    <wangtile tileid="2033" wangid="0,0,0,11,0,0,0,11"/>
    <wangtile tileid="2061" wangid="0,8,0,0,0,0,0,0"/>
    <wangtile tileid="2062" wangid="0,8,0,0,0,0,0,8"/>
    <wangtile tileid="2063" wangid="0,0,0,0,0,0,0,8"/>
    <wangtile tileid="2067" wangid="0,9,0,0,0,0,0,0"/>
    <wangtile tileid="2068" wangid="0,9,0,0,0,0,0,9"/>
    <wangtile tileid="2069" wangid="0,0,0,0,0,0,0,9"/>
    <wangtile tileid="2073" wangid="0,12,0,0,0,0,0,0"/>
    <wangtile tileid="2074" wangid="0,12,0,0,0,0,0,12"/>
    <wangtile tileid="2075" wangid="0,0,0,0,0,0,0,12"/>
    <wangtile tileid="2076" wangid="0,12,0,12,0,0,0,0"/>
    <wangtile tileid="2077" wangid="0,0,0,0,0,12,0,12"/>
    <wangtile tileid="2078" wangid="0,0,0,10,0,0,0,0"/>
    <wangtile tileid="2079" wangid="0,10,0,10,0,10,0,0"/>
    <wangtile tileid="2080" wangid="0,10,0,10,0,10,0,10"/>
    <wangtile tileid="2081" wangid="0,0,0,10,0,10,0,10"/>
    <wangtile tileid="2082" wangid="0,0,0,0,0,10,0,0"/>
    <wangtile tileid="2084" wangid="0,0,0,11,0,0,0,0"/>
    <wangtile tileid="2085" wangid="0,11,0,11,0,11,0,0"/>
    <wangtile tileid="2086" wangid="0,11,0,11,0,11,0,11"/>
    <wangtile tileid="2087" wangid="0,0,0,11,0,11,0,11"/>
    <wangtile tileid="2088" wangid="0,0,0,0,0,11,0,0"/>
    <wangtile tileid="2116" wangid="0,0,0,8,0,0,0,0"/>
    <wangtile tileid="2117" wangid="0,0,0,0,0,8,0,0"/>
    <wangtile tileid="2119" wangid="0,0,0,8,0,8,0,0"/>
    <wangtile tileid="2120" wangid="0,0,0,8,0,8,0,0"/>
    <wangtile tileid="2122" wangid="0,0,0,9,0,0,0,0"/>
    <wangtile tileid="2123" wangid="0,0,0,0,0,9,0,0"/>
    <wangtile tileid="2125" wangid="0,0,0,9,0,9,0,0"/>
    <wangtile tileid="2126" wangid="0,0,0,9,0,9,0,0"/>
    <wangtile tileid="2127" wangid="0,0,0,12,0,12,0,0"/>
    <wangtile tileid="2128" wangid="0,0,0,12,0,12,0,0"/>
    <wangtile tileid="2129" wangid="0,0,0,12,0,12,0,0"/>
    <wangtile tileid="2131" wangid="0,12,0,12,0,0,0,0"/>
    <wangtile tileid="2132" wangid="0,0,0,0,0,12,0,12"/>
    <wangtile tileid="2133" wangid="0,10,0,10,0,0,0,0"/>
    <wangtile tileid="2134" wangid="0,10,0,10,0,10,0,10"/>
    <wangtile tileid="2135" wangid="0,10,0,10,0,10,0,10"/>
    <wangtile tileid="2136" wangid="0,10,0,10,0,10,0,10"/>
    <wangtile tileid="2137" wangid="0,0,0,0,0,10,0,10"/>
    <wangtile tileid="2139" wangid="0,11,0,11,0,0,0,0"/>
    <wangtile tileid="2140" wangid="0,11,0,11,0,11,0,11"/>
    <wangtile tileid="2141" wangid="0,11,0,11,0,11,0,11"/>
    <wangtile tileid="2142" wangid="0,11,0,11,0,11,0,11"/>
    <wangtile tileid="2143" wangid="0,0,0,0,0,11,0,11"/>
    <wangtile tileid="2170" wangid="0,0,0,8,0,0,0,0"/>
    <wangtile tileid="2171" wangid="0,8,0,8,0,8,0,0"/>
    <wangtile tileid="2172" wangid="0,0,0,8,0,8,0,8"/>
    <wangtile tileid="2173" wangid="0,0,0,0,0,8,0,0"/>
    <wangtile tileid="2174" wangid="0,8,0,0,0,0,0,8"/>
    <wangtile tileid="2175" wangid="0,8,0,0,0,0,0,8"/>
    <wangtile tileid="2176" wangid="0,0,0,9,0,0,0,0"/>
    <wangtile tileid="2177" wangid="0,9,0,9,0,9,0,0"/>
    <wangtile tileid="2178" wangid="0,0,0,9,0,9,0,9"/>
    <wangtile tileid="2179" wangid="0,0,0,0,0,9,0,0"/>
    <wangtile tileid="2180" wangid="0,9,0,0,0,0,0,9"/>
    <wangtile tileid="2181" wangid="0,9,0,0,0,0,0,9"/>
    <wangtile tileid="2182" wangid="0,12,0,0,0,0,0,12"/>
    <wangtile tileid="2183" wangid="0,12,0,0,0,0,0,12"/>
    <wangtile tileid="2184" wangid="0,12,0,0,0,0,0,12"/>
    <wangtile tileid="2188" wangid="0,10,0,0,0,0,0,0"/>
    <wangtile tileid="2189" wangid="0,10,0,10,0,0,0,10"/>
    <wangtile tileid="2190" wangid="0,10,0,10,0,10,0,10"/>
    <wangtile tileid="2191" wangid="0,10,0,0,0,10,0,10"/>
    <wangtile tileid="2192" wangid="0,0,0,0,0,0,0,10"/>
    <wangtile tileid="2194" wangid="0,11,0,0,0,0,0,0"/>
    <wangtile tileid="2195" wangid="0,11,0,11,0,0,0,11"/>
    <wangtile tileid="2196" wangid="0,11,0,11,0,11,0,11"/>
    <wangtile tileid="2197" wangid="0,11,0,0,0,11,0,11"/>
    <wangtile tileid="2198" wangid="0,0,0,0,0,0,0,11"/>
    <wangtile tileid="2225" wangid="0,8,0,0,0,0,0,0"/>
    <wangtile tileid="2226" wangid="0,8,0,8,0,0,0,8"/>
    <wangtile tileid="2227" wangid="0,8,0,0,0,8,0,8"/>
    <wangtile tileid="2228" wangid="0,0,0,0,0,0,0,8"/>
    <wangtile tileid="2229" wangid="0,8,0,8,0,0,0,0"/>
    <wangtile tileid="2230" wangid="0,0,0,0,0,8,0,8"/>
    <wangtile tileid="2231" wangid="0,9,0,0,0,0,0,0"/>
    <wangtile tileid="2232" wangid="0,9,0,9,0,0,0,9"/>
    <wangtile tileid="2233" wangid="0,9,0,0,0,9,0,9"/>
    <wangtile tileid="2234" wangid="0,0,0,0,0,0,0,9"/>
    <wangtile tileid="2235" wangid="0,9,0,9,0,0,0,0"/>
    <wangtile tileid="2236" wangid="0,0,0,0,0,9,0,9"/>
    <wangtile tileid="2243" wangid="0,10,0,10,0,0,0,10"/>
    <wangtile tileid="2244" wangid="0,10,0,0,0,0,0,0"/>
    <wangtile tileid="2245" wangid="0,10,0,0,0,0,0,10"/>
    <wangtile tileid="2246" wangid="0,0,0,0,0,0,0,10"/>
    <wangtile tileid="2247" wangid="0,10,0,0,0,10,0,10"/>
    <wangtile tileid="2249" wangid="0,11,0,11,0,0,0,11"/>
    <wangtile tileid="2250" wangid="0,11,0,0,0,0,0,0"/>
    <wangtile tileid="2251" wangid="0,11,0,0,0,0,0,11"/>
    <wangtile tileid="2252" wangid="0,0,0,0,0,0,0,11"/>
    <wangtile tileid="2253" wangid="0,11,0,0,0,11,0,11"/>
    <wangtile tileid="2281" wangid="0,8,0,0,0,0,0,0"/>
    <wangtile tileid="2282" wangid="0,0,0,0,0,0,0,8"/>
    <wangtile tileid="2284" wangid="0,8,0,8,0,0,0,0"/>
    <wangtile tileid="2285" wangid="0,0,0,0,0,8,0,8"/>
    <wangtile tileid="2287" wangid="0,9,0,0,0,0,0,0"/>
    <wangtile tileid="2288" wangid="0,0,0,0,0,0,0,9"/>
    <wangtile tileid="2290" wangid="0,9,0,9,0,0,0,0"/>
    <wangtile tileid="2291" wangid="0,0,0,0,0,9,0,9"/>
    <wangtile tileid="2298" wangid="0,10,0,10,0,10,0,0"/>
    <wangtile tileid="2299" wangid="0,10,0,10,0,10,0,0"/>
    <wangtile tileid="2300" wangid="0,10,0,10,0,0,0,10"/>
    <wangtile tileid="2301" wangid="0,10,0,0,0,10,0,10"/>
    <wangtile tileid="2302" wangid="0,0,0,10,0,10,0,10"/>
    <wangtile tileid="2304" wangid="0,11,0,11,0,11,0,0"/>
    <wangtile tileid="2305" wangid="0,11,0,11,0,11,0,0"/>
    <wangtile tileid="2306" wangid="0,11,0,11,0,0,0,11"/>
    <wangtile tileid="2307" wangid="0,11,0,0,0,11,0,11"/>
    <wangtile tileid="2308" wangid="0,0,0,11,0,11,0,11"/>
    <wangtile tileid="2335" wangid="0,8,0,8,0,8,0,8"/>
    <wangtile tileid="2336" wangid="0,8,0,8,0,8,0,8"/>
    <wangtile tileid="2337" wangid="0,8,0,8,0,8,0,8"/>
    <wangtile tileid="2338" wangid="0,8,0,8,0,8,0,8"/>
    <wangtile tileid="2339" wangid="0,8,0,8,0,8,0,8"/>
    <wangtile tileid="2340" wangid="0,8,0,8,0,8,0,8"/>
    <wangtile tileid="2341" wangid="0,9,0,9,0,9,0,9"/>
    <wangtile tileid="2342" wangid="0,9,0,9,0,9,0,9"/>
    <wangtile tileid="2343" wangid="0,9,0,9,0,9,0,9"/>
    <wangtile tileid="2344" wangid="0,9,0,9,0,9,0,9"/>
    <wangtile tileid="2345" wangid="0,9,0,9,0,9,0,9"/>
    <wangtile tileid="2346" wangid="0,9,0,9,0,9,0,9"/>
    <wangtile tileid="2353" wangid="0,0,0,10,0,10,0,0"/>
    <wangtile tileid="2354" wangid="0,0,0,10,0,10,0,0"/>
    <wangtile tileid="2355" wangid="0,0,0,10,0,10,0,0"/>
    <wangtile tileid="2356" wangid="0,0,0,10,0,10,0,0"/>
    <wangtile tileid="2357" wangid="0,0,0,10,0,10,0,10"/>
    <wangtile tileid="2359" wangid="0,0,0,11,0,11,0,0"/>
    <wangtile tileid="2360" wangid="0,0,0,11,0,11,0,0"/>
    <wangtile tileid="2361" wangid="0,0,0,11,0,11,0,0"/>
    <wangtile tileid="2362" wangid="0,0,0,11,0,11,0,0"/>
    <wangtile tileid="2363" wangid="0,0,0,11,0,11,0,11"/>
    <wangtile tileid="2390" wangid="0,8,0,8,0,8,0,8"/>
    <wangtile tileid="2391" wangid="0,8,0,8,0,8,0,8"/>
    <wangtile tileid="2392" wangid="0,8,0,8,0,8,0,8"/>
    <wangtile tileid="2393" wangid="0,8,0,8,0,8,0,8"/>
    <wangtile tileid="2394" wangid="0,8,0,8,0,8,0,8"/>
    <wangtile tileid="2395" wangid="0,8,0,8,0,8,0,8"/>
    <wangtile tileid="2396" wangid="0,9,0,9,0,9,0,9"/>
    <wangtile tileid="2397" wangid="0,9,0,9,0,9,0,9"/>
    <wangtile tileid="2398" wangid="0,9,0,9,0,9,0,9"/>
    <wangtile tileid="2399" wangid="0,9,0,9,0,9,0,9"/>
    <wangtile tileid="2400" wangid="0,9,0,9,0,9,0,9"/>
    <wangtile tileid="2401" wangid="0,9,0,9,0,9,0,9"/>
    <wangtile tileid="2403" wangid="0,0,0,13,0,0,0,0"/>
    <wangtile tileid="2404" wangid="0,0,0,13,0,13,0,0"/>
    <wangtile tileid="2405" wangid="0,0,0,0,0,13,0,0"/>
    <wangtile tileid="2408" wangid="0,10,0,0,0,0,0,10"/>
    <wangtile tileid="2409" wangid="0,10,0,0,0,0,0,10"/>
    <wangtile tileid="2410" wangid="0,10,0,0,0,0,0,10"/>
    <wangtile tileid="2411" wangid="0,10,0,0,0,0,0,10"/>
    <wangtile tileid="2412" wangid="0,10,0,10,0,0,0,0"/>
    <wangtile tileid="2413" wangid="0,0,0,0,0,10,0,10"/>
    <wangtile tileid="2414" wangid="0,11,0,0,0,0,0,11"/>
    <wangtile tileid="2415" wangid="0,11,0,0,0,0,0,11"/>
    <wangtile tileid="2416" wangid="0,11,0,0,0,0,0,11"/>
    <wangtile tileid="2417" wangid="0,11,0,0,0,0,0,11"/>
    <wangtile tileid="2418" wangid="0,11,0,11,0,0,0,0"/>
    <wangtile tileid="2419" wangid="0,0,0,0,0,11,0,11"/>
    <wangtile tileid="2445" wangid="0,8,0,8,0,8,0,8"/>
    <wangtile tileid="2446" wangid="0,8,0,8,0,8,0,8"/>
    <wangtile tileid="2447" wangid="0,8,0,8,0,8,0,8"/>
    <wangtile tileid="2448" wangid="0,8,0,8,0,8,0,8"/>
    <wangtile tileid="2449" wangid="0,8,0,8,0,8,0,8"/>
    <wangtile tileid="2451" wangid="0,9,0,9,0,9,0,9"/>
    <wangtile tileid="2452" wangid="0,9,0,9,0,9,0,9"/>
    <wangtile tileid="2453" wangid="0,9,0,9,0,9,0,9"/>
    <wangtile tileid="2454" wangid="0,9,0,9,0,9,0,9"/>
    <wangtile tileid="2455" wangid="0,9,0,9,0,9,0,9"/>
    <wangtile tileid="2457" wangid="0,0,0,13,0,0,0,0"/>
    <wangtile tileid="2458" wangid="0,13,0,13,0,13,0,0"/>
    <wangtile tileid="2459" wangid="0,13,0,13,0,13,0,13"/>
    <wangtile tileid="2460" wangid="0,0,0,13,0,13,0,13"/>
    <wangtile tileid="2461" wangid="0,0,0,0,0,13,0,0"/>
    <wangtile tileid="2463" wangid="0,10,0,0,0,0,0,0"/>
    <wangtile tileid="2464" wangid="0,0,0,0,0,0,0,10"/>
    <wangtile tileid="2465" wangid="0,0,0,10,0,0,0,0"/>
    <wangtile tileid="2466" wangid="0,0,0,0,0,10,0,0"/>
    <wangtile tileid="2467" wangid="0,10,0,10,0,0,0,0"/>
    <wangtile tileid="2468" wangid="0,0,0,0,0,10,0,10"/>
    <wangtile tileid="2469" wangid="0,11,0,0,0,0,0,0"/>
    <wangtile tileid="2470" wangid="0,0,0,0,0,0,0,11"/>
    <wangtile tileid="2471" wangid="0,0,0,11,0,0,0,0"/>
    <wangtile tileid="2472" wangid="0,0,0,0,0,11,0,0"/>
    <wangtile tileid="2473" wangid="0,11,0,11,0,0,0,0"/>
    <wangtile tileid="2474" wangid="0,0,0,0,0,11,0,11"/>
    <wangtile tileid="2512" wangid="0,13,0,13,0,0,0,0"/>
    <wangtile tileid="2513" wangid="0,13,0,13,0,13,0,13"/>
    <wangtile tileid="2514" wangid="0,13,0,13,0,13,0,13"/>
    <wangtile tileid="2515" wangid="0,13,0,13,0,13,0,13"/>
    <wangtile tileid="2516" wangid="0,0,0,0,0,13,0,13"/>
    <wangtile tileid="2518" wangid="0,10,0,0,0,0,0,0"/>
    <wangtile tileid="2519" wangid="0,0,0,0,0,0,0,10"/>
    <wangtile tileid="2520" wangid="0,0,0,10,0,0,0,0"/>
    <wangtile tileid="2521" wangid="0,0,0,0,0,10,0,0"/>
    <wangtile tileid="2522" wangid="0,10,0,10,0,0,0,0"/>
    <wangtile tileid="2523" wangid="0,0,0,0,0,10,0,10"/>
    <wangtile tileid="2524" wangid="0,11,0,0,0,0,0,0"/>
    <wangtile tileid="2525" wangid="0,0,0,0,0,0,0,11"/>
    <wangtile tileid="2526" wangid="0,0,0,11,0,0,0,0"/>
    <wangtile tileid="2527" wangid="0,0,0,0,0,11,0,0"/>
    <wangtile tileid="2528" wangid="0,11,0,11,0,0,0,0"/>
    <wangtile tileid="2529" wangid="0,0,0,0,0,11,0,11"/>
    <wangtile tileid="2567" wangid="0,13,0,0,0,0,0,0"/>
    <wangtile tileid="2568" wangid="0,13,0,13,0,0,0,13"/>
    <wangtile tileid="2569" wangid="0,13,0,13,0,13,0,13"/>
    <wangtile tileid="2570" wangid="0,13,0,0,0,13,0,13"/>
    <wangtile tileid="2571" wangid="0,0,0,0,0,0,0,13"/>
    <wangtile tileid="2573" wangid="0,10,0,0,0,0,0,0"/>
    <wangtile tileid="2574" wangid="0,0,0,0,0,0,0,10"/>
    <wangtile tileid="2575" wangid="0,0,0,10,0,0,0,0"/>
    <wangtile tileid="2576" wangid="0,0,0,0,0,10,0,0"/>
    <wangtile tileid="2577" wangid="0,10,0,10,0,0,0,0"/>
    <wangtile tileid="2578" wangid="0,0,0,0,0,10,0,10"/>
    <wangtile tileid="2579" wangid="0,11,0,0,0,0,0,0"/>
    <wangtile tileid="2580" wangid="0,0,0,0,0,0,0,11"/>
    <wangtile tileid="2581" wangid="0,0,0,11,0,0,0,0"/>
    <wangtile tileid="2582" wangid="0,0,0,0,0,11,0,0"/>
    <wangtile tileid="2583" wangid="0,11,0,11,0,0,0,0"/>
    <wangtile tileid="2584" wangid="0,0,0,0,0,11,0,11"/>
    <wangtile tileid="2623" wangid="0,13,0,0,0,0,0,0"/>
    <wangtile tileid="2624" wangid="0,13,0,0,0,0,0,13"/>
    <wangtile tileid="2625" wangid="0,0,0,0,0,0,0,13"/>
    <wangtile tileid="2626" wangid="0,13,0,13,0,0,0,0"/>
    <wangtile tileid="2627" wangid="0,0,0,0,0,13,0,13"/>
    <wangtile tileid="2628" wangid="0,10,0,10,0,10,0,10"/>
    <wangtile tileid="2629" wangid="0,10,0,10,0,10,0,10"/>
    <wangtile tileid="2630" wangid="0,10,0,10,0,10,0,10"/>
    <wangtile tileid="2631" wangid="0,10,0,10,0,10,0,10"/>
    <wangtile tileid="2632" wangid="0,10,0,10,0,10,0,10"/>
    <wangtile tileid="2633" wangid="0,10,0,10,0,10,0,10"/>
    <wangtile tileid="2634" wangid="0,11,0,11,0,11,0,11"/>
    <wangtile tileid="2635" wangid="0,11,0,11,0,11,0,11"/>
    <wangtile tileid="2636" wangid="0,11,0,11,0,11,0,11"/>
    <wangtile tileid="2637" wangid="0,11,0,11,0,11,0,11"/>
    <wangtile tileid="2638" wangid="0,11,0,11,0,11,0,11"/>
    <wangtile tileid="2639" wangid="0,11,0,11,0,11,0,11"/>
    <wangtile tileid="2677" wangid="0,0,0,13,0,13,0,0"/>
    <wangtile tileid="2678" wangid="0,0,0,13,0,13,0,0"/>
    <wangtile tileid="2679" wangid="0,0,0,13,0,13,0,0"/>
    <wangtile tileid="2681" wangid="0,13,0,13,0,0,0,0"/>
    <wangtile tileid="2682" wangid="0,0,0,0,0,13,0,13"/>
    <wangtile tileid="2683" wangid="0,10,0,10,0,10,0,10"/>
    <wangtile tileid="2684" wangid="0,10,0,10,0,10,0,10"/>
    <wangtile tileid="2685" wangid="0,10,0,10,0,10,0,10"/>
    <wangtile tileid="2686" wangid="0,10,0,10,0,10,0,10"/>
    <wangtile tileid="2687" wangid="0,10,0,10,0,10,0,10"/>
    <wangtile tileid="2688" wangid="0,10,0,10,0,10,0,10"/>
    <wangtile tileid="2689" wangid="0,11,0,11,0,11,0,11"/>
    <wangtile tileid="2690" wangid="0,11,0,11,0,11,0,11"/>
    <wangtile tileid="2691" wangid="0,11,0,11,0,11,0,11"/>
    <wangtile tileid="2692" wangid="0,11,0,11,0,11,0,11"/>
    <wangtile tileid="2693" wangid="0,11,0,11,0,11,0,11"/>
    <wangtile tileid="2694" wangid="0,11,0,11,0,11,0,11"/>
    <wangtile tileid="2732" wangid="0,13,0,0,0,0,0,13"/>
    <wangtile tileid="2733" wangid="0,13,0,0,0,0,0,13"/>
    <wangtile tileid="2734" wangid="0,13,0,0,0,0,0,13"/>
    <wangtile tileid="2738" wangid="0,10,0,10,0,10,0,10"/>
    <wangtile tileid="2739" wangid="0,10,0,10,0,10,0,10"/>
    <wangtile tileid="2740" wangid="0,10,0,10,0,10,0,10"/>
    <wangtile tileid="2741" wangid="0,10,0,10,0,10,0,10"/>
    <wangtile tileid="2742" wangid="0,10,0,10,0,10,0,10"/>
    <wangtile tileid="2743" wangid="0,10,0,10,0,10,0,10"/>
    <wangtile tileid="2744" wangid="0,11,0,11,0,11,0,11"/>
    <wangtile tileid="2745" wangid="0,11,0,11,0,11,0,11"/>
    <wangtile tileid="2746" wangid="0,11,0,11,0,11,0,11"/>
    <wangtile tileid="2747" wangid="0,11,0,11,0,11,0,11"/>
    <wangtile tileid="2748" wangid="0,11,0,11,0,11,0,11"/>
    <wangtile tileid="2749" wangid="0,11,0,11,0,11,0,11"/>
    <wangtile tileid="2793" wangid="0,10,0,10,0,10,0,10"/>
    <wangtile tileid="2794" wangid="0,10,0,10,0,10,0,10"/>
    <wangtile tileid="2795" wangid="0,10,0,10,0,10,0,10"/>
    <wangtile tileid="2796" wangid="0,10,0,10,0,10,0,10"/>
    <wangtile tileid="2797" wangid="0,10,0,10,0,10,0,10"/>
    <wangtile tileid="2798" wangid="0,10,0,10,0,10,0,10"/>
    <wangtile tileid="2799" wangid="0,11,0,11,0,11,0,11"/>
    <wangtile tileid="2800" wangid="0,11,0,11,0,11,0,11"/>
    <wangtile tileid="2801" wangid="0,11,0,11,0,11,0,11"/>
    <wangtile tileid="2802" wangid="0,11,0,11,0,11,0,11"/>
    <wangtile tileid="2803" wangid="0,11,0,11,0,11,0,11"/>
    <wangtile tileid="2804" wangid="0,11,0,11,0,11,0,11"/>
    <wangtile tileid="2848" wangid="0,10,0,10,0,10,0,10"/>
    <wangtile tileid="2849" wangid="0,10,0,10,0,10,0,10"/>
    <wangtile tileid="2850" wangid="0,10,0,10,0,10,0,10"/>
    <wangtile tileid="2851" wangid="0,10,0,10,0,10,0,10"/>
    <wangtile tileid="2854" wangid="0,11,0,11,0,11,0,11"/>
    <wangtile tileid="2855" wangid="0,11,0,11,0,11,0,11"/>
    <wangtile tileid="2856" wangid="0,11,0,11,0,11,0,11"/>
    <wangtile tileid="2857" wangid="0,11,0,11,0,11,0,11"/>
   </wangset>
  </wangsets>
 </tileset>
 <layer id="1" name="Camada de Blocos 1" width="40" height="40">
  <data encoding="csv">
0,0,0,0,0,0,0,0,0,0,0,0,0,0,0,0,0,0,0,0,0,0,0,0,0,0,0,0,0,0,0,0,0,0,0,0,0,0,0,0,
0,0,0,0,0,0,0,0,0,0,0,0,0,0,0,0,0,0,0,0,0,0,0,0,0,0,0,0,0,0,0,0,0,0,0,0,0,0,0,0,
0,0,0,0,0,0,0,0,0,0,0,0,0,0,0,0,0,0,0,0,0,0,0,0,0,0,0,0,0,0,0,0,0,0,0,0,0,0,0,0,
0,0,0,0,0,0,0,0,0,0,0,0,0,0,0,0,0,0,0,0,0,0,0,0,0,0,0,0,0,0,0,0,0,0,0,0,0,0,0,0,
0,0,0,0,0,0,0,0,0,0,0,0,0,0,0,0,0,0,0,0,0,0,0,0,0,0,0,0,0,0,0,0,0,0,0,0,0,0,0,0,
0,0,0,0,0,0,0,0,0,0,0,0,0,0,0,0,0,0,0,0,0,0,0,0,0,0,0,0,0,0,0,0,0,0,0,0,0,0,0,0,
0,0,0,0,0,0,0,0,0,0,0,0,0,0,0,0,0,0,0,0,0,0,0,0,0,0,0,0,0,0,0,0,0,0,0,0,0,0,0,0,
0,0,0,0,0,0,0,0,0,0,0,0,0,0,0,0,0,0,0,0,0,0,0,0,0,0,0,0,0,0,0,0,0,0,0,0,0,0,0,0,
0,0,0,0,0,0,0,0,0,0,0,0,0,0,0,0,0,0,0,0,0,0,0,0,0,0,0,0,0,0,0,0,0,0,0,0,0,0,0,0,
0,0,0,0,0,0,0,0,0,0,0,0,0,0,0,0,0,0,0,0,0,0,0,0,0,0,0,0,0,0,0,0,0,0,0,0,0,0,0,0,
0,0,0,0,0,0,0,0,0,0,0,0,0,0,0,0,0,0,0,0,0,0,0,0,0,0,0,0,0,0,0,0,0,0,0,0,0,0,0,0,
0,0,0,0,0,0,0,0,0,0,0,0,0,0,0,0,0,0,0,0,0,0,0,0,0,0,0,0,0,0,0,0,0,0,0,0,0,0,0,0,
0,0,0,0,0,0,0,0,0,0,0,0,0,0,0,0,0,0,0,0,0,0,0,0,0,0,0,0,0,0,0,0,0,0,0,0,0,0,0,0,
0,0,0,0,0,0,0,0,0,0,0,0,0,0,0,0,0,0,0,0,0,0,0,0,0,0,0,0,0,0,0,0,0,0,0,0,0,0,0,0,
0,0,0,0,0,0,0,0,0,0,0,0,0,0,0,0,0,0,0,0,0,0,0,0,0,0,0,0,0,0,0,0,0,0,0,0,0,0,0,0,
0,0,0,0,0,0,0,0,0,0,0,0,0,0,0,0,0,0,0,0,0,0,0,0,0,0,0,0,0,0,0,0,0,0,0,0,0,0,0,0,
0,0,0,0,0,0,0,0,0,0,0,0,0,0,0,0,0,0,0,0,0,0,0,0,0,0,0,0,0,0,0,0,0,0,0,0,0,0,0,0,
0,0,0,0,0,0,0,0,0,0,0,0,0,0,0,0,0,0,0,0,0,0,0,0,0,0,0,0,0,0,0,0,0,0,0,0,0,0,0,0,
0,0,0,0,0,0,0,0,0,0,0,0,0,0,0,0,0,0,0,0,0,0,0,0,0,0,0,0,0,0,0,0,0,0,0,0,0,0,0,0,
0,0,0,0,0,0,0,0,0,0,0,0,0,0,0,0,0,0,0,0,0,0,0,0,0,0,0,0,0,0,0,0,0,0,0,0,0,0,0,0,
0,0,0,0,0,0,0,0,0,0,0,0,0,0,0,0,0,0,0,0,0,0,0,0,0,0,0,0,0,0,0,0,0,0,0,0,0,0,0,0,
0,0,0,0,0,0,0,0,0,0,0,0,0,0,0,0,0,0,0,0,0,0,0,0,0,0,0,0,0,0,0,0,0,0,0,0,0,0,0,0,
0,0,0,0,0,0,0,0,0,0,0,0,0,0,0,0,0,0,0,0,0,0,0,0,0,0,0,0,0,0,0,0,0,0,0,0,0,0,0,0,
0,0,0,0,0,0,0,0,0,0,0,0,0,0,0,0,0,0,0,0,0,0,0,0,0,0,0,0,0,0,0,0,0,0,0,0,0,0,0,0,
0,0,0,0,0,0,0,0,0,0,0,0,0,0,0,0,0,0,0,0,0,0,0,0,0,0,0,0,0,0,0,0,0,0,0,0,0,0,0,0,
0,0,0,0,0,0,0,0,0,0,0,0,0,0,0,0,0,0,0,0,0,0,0,0,0,0,0,0,0,0,0,0,0,0,0,0,0,0,0,0,
0,0,0,0,0,0,0,0,0,0,0,0,0,0,0,0,0,0,0,0,0,0,0,0,0,0,0,0,0,0,0,0,0,0,0,0,0,0,0,0,
0,0,0,0,0,0,0,0,0,0,0,0,0,0,0,0,0,0,0,0,0,0,0,0,0,0,0,0,0,0,0,0,0,0,0,0,0,0,0,0,
0,0,0,0,0,0,0,0,0,0,0,0,0,0,0,0,0,0,0,0,0,0,0,0,0,0,0,0,0,0,0,0,0,0,0,0,0,0,0,0,
0,0,0,0,0,0,0,0,0,0,0,0,0,0,0,0,0,0,0,0,0,0,0,0,0,0,0,0,0,0,0,0,0,0,0,0,0,0,0,0,
0,0,0,0,0,0,0,0,0,0,0,0,0,0,0,0,0,0,0,0,0,0,0,0,0,0,0,0,0,0,0,0,0,0,0,0,0,0,0,0,
0,0,0,0,0,0,0,0,0,0,0,0,0,0,0,0,0,0,0,0,0,0,0,0,0,0,0,0,0,0,0,0,0,0,0,0,0,0,0,0,
0,0,0,0,0,0,0,0,0,0,0,0,0,0,0,0,0,0,0,0,0,0,0,0,0,0,0,0,0,0,0,0,0,0,0,0,0,0,0,0,
0,0,0,0,0,0,0,0,0,0,0,0,0,0,0,0,0,0,0,0,0,0,0,0,0,0,0,0,0,0,0,0,0,0,0,0,0,0,0,0,
0,0,0,0,0,0,0,0,0,0,0,0,0,0,0,0,0,0,0,0,0,0,0,0,0,0,0,0,0,0,0,0,0,0,0,0,0,0,0,0,
0,0,0,0,0,0,0,0,0,0,0,0,0,0,0,0,0,0,0,0,0,0,0,0,0,0,0,0,0,0,0,0,0,0,0,0,0,0,0,0,
0,0,0,0,0,0,0,0,0,0,0,0,0,0,0,0,0,0,0,0,0,0,0,0,0,0,0,0,0,0,0,0,0,0,0,0,0,0,0,0,
0,0,0,0,0,0,0,0,0,0,0,0,0,0,0,0,0,0,0,0,0,0,0,0,0,0,0,0,0,0,0,0,0,0,0,0,0,0,0,0,
0,0,0,0,0,0,0,0,0,0,0,0,0,0,0,0,0,0,0,0,0,0,0,0,0,0,0,0,0,0,0,0,0,0,0,0,0,0,0,0,
0,0,0,0,0,0,0,0,0,0,0,0,0,0,0,0,0,0,0,0,0,0,0,0,0,0,0,0,0,0,0,0,0,0,0,0,0,0,0,0
</data>
 </layer>
 <layer id="2" name="Grama" width="40" height="40">
  <data encoding="csv">
11201,11203,11201,11202,11205,11146,11147,11092,11093,11094,11145,11146,11202,11146,11150,11205,11092,11203,11201,11202,11149,11090,11091,11149,11145,11146,11149,11036,11091,11202,11093,11091,11202,11202,11205,11146,11146,11149,11090,11038,
11145,11149,11145,11203,11201,11205,11202,11146,11146,11093,11091,11092,11092,11260,11146,11147,11202,11093,11035,11201,11149,11145,11092,11093,11091,11150,11093,11091,11150,11146,11205,11146,11092,11092,11146,11148,11205,11093,11091,11149,
11145,11149,11145,11093,11091,11150,11202,11202,11260,11150,11146,11202,11092,11260,11150,11092,11260,11147,11093,11091,11093,11091,11260,11092,11202,11148,11260,11203,11201,11146,11148,11147,11205,11092,11260,11148,11150,11203,11201,11149,
11145,11149,11145,11260,11146,11147,11205,11146,11092,11147,11205,11150,11148,11148,11205,11150,11147,11202,11146,11150,11150,11260,11205,11205,11148,11203,11201,11149,11145,11205,11147,11092,11147,11203,11201,11092,11202,11093,11091,11149,
11145,11149,11145,11205,11260,11092,11148,11148,11146,11147,11148,11092,11146,11147,11202,11260,11150,11205,11205,11260,11147,11148,11092,11092,11260,11149,11145,11149,11145,11205,11260,11202,11150,11093,11091,11205,11147,11205,11150,11149,
11145,11149,11145,11148,11147,11150,11148,11150,11146,11147,11205,11092,11146,11205,11150,11147,11146,11260,11147,11205,11260,11260,11202,11148,11260,11149,11145,11093,11091,11205,11205,11146,11146,11260,11147,11202,11092,11147,11092,11149,
11145,11149,11145,11150,11148,11205,11146,8736,8684,11092,11092,11148,11150,11150,11148,11202,11147,11147,11205,11150,11203,11201,11148,11150,11260,11149,11145,11148,11260,11260,11205,11150,11150,11147,8736,8740,8682,8740,11202,11149,
11145,11149,11145,8682,8683,8683,8683,8737,8739,8740,11202,11150,11260,11148,11260,11146,11092,11203,11201,11146,11093,11035,11201,11146,11092,11093,11091,11202,11148,11146,11092,11205,11092,8682,8737,8739,8737,8739,8683,8684,
11145,11093,8736,8737,8792,8738,8848,8793,8738,8795,11202,11260,11260,11148,11147,11146,11092,11149,11145,11202,11092,11149,11145,11092,11147,11092,11150,11092,11205,11146,11203,11201,11146,8791,8794,8793,8793,8848,8794,8795,
11145,8736,8737,8848,8792,8792,8792,8794,8793,8795,11092,11205,11205,11205,11202,11146,11205,11093,11091,11150,11146,11149,11145,11260,11150,11150,11148,11148,11260,11260,11149,11145,11147,8791,8848,8848,8794,8794,8793,8795,
11145,8791,8793,8738,8794,8794,8848,8792,8792,8795,11092,11202,11092,11147,11148,11205,11260,11205,11150,11205,11260,11093,11035,11201,11147,11205,11146,11150,11260,11203,11039,11091,11146,8791,8848,8738,8738,8794,8738,8795,
11145,8791,8738,8793,8738,8848,8848,8738,8849,8850,11148,11150,11260,11146,11147,11146,11260,11148,10283,10287,11205,11147,11149,11145,11146,11146,11205,11260,11150,11149,11145,11203,11201,8791,8738,8792,8794,8794,8793,8795,
11145,8791,8794,8794,8792,8794,8793,8848,8795,11148,11092,11147,11148,11205,11092,11205,10229,10288,10284,10342,11202,11150,11093,11091,11150,11205,11202,11146,11203,11204,11145,11149,11145,8791,8848,8738,8794,8794,8738,8795,
11145,8846,8847,8738,8792,8738,8738,8849,8850,11203,11201,11146,11202,11150,11150,11148,10338,10285,10339,10453,11146,11150,11146,11150,11202,11202,11147,11146,11093,11038,11145,11149,8682,8737,8738,8794,8738,8738,8848,8795,
11145,11202,8846,8903,8903,8903,8903,8850,11260,11149,11145,11205,11260,11092,11205,11092,10338,10395,10285,10453,11146,11260,11092,11092,11146,11260,11202,11092,11146,11149,11145,11149,8902,8847,8848,8793,8848,8792,8793,8795,
11091,11205,11147,11260,11146,11205,11205,11092,11150,11149,11145,11205,11092,11150,11148,11148,10338,10340,10339,10286,10287,11092,11150,11147,11148,11260,11148,11092,11146,11093,11091,11149,11145,8791,8793,8793,8792,8738,8848,8795,
11203,11201,11146,11148,11092,11150,11092,11202,11092,11149,11145,11146,11147,11092,11092,10229,10284,10340,10395,10341,10286,10230,10230,10288,10231,11148,11148,11203,11201,11148,11148,11093,11091,8791,8793,8792,8794,8794,8794,8795,
11149,11145,11092,11092,11150,11146,11150,11147,11202,11149,11145,11092,11202,11092,11203,10338,10339,10339,10341,10340,10339,10341,10339,10341,10342,11147,11205,11149,11145,11148,11092,11202,11202,8902,8903,8847,8738,8792,8793,8795,
11149,11145,11150,11146,11202,11260,11202,11202,11146,11149,11145,11092,11202,11147,11093,10338,10341,10341,10285,10395,10341,10285,10340,10285,10453,10283,10230,10288,10231,11150,11147,11148,11260,11147,11202,8902,8847,8793,8849,8904,
11149,11145,11092,11148,11203,11201,11147,11148,11148,11149,11145,11203,11201,11147,11148,10338,10339,10341,10339,10340,10285,10285,10341,10341,10286,10284,10339,10339,10342,11148,11260,11092,11205,11147,11146,11148,8902,8903,8850,11093,
11149,11145,11260,11146,11149,11256,11201,11092,11203,11039,11091,11093,11091,11260,11260,10398,10340,10341,10341,10340,10341,10395,10340,10339,10341,10339,10285,10395,10286,10288,10287,11147,11260,11148,11092,11092,11205,11092,11148,11092,
11039,11091,11202,11260,11093,11038,11145,11202,11093,11091,11092,11148,11203,11201,11260,10398,10341,10285,10395,10339,10339,10285,10339,10340,10341,10341,10395,10341,10340,10396,10397,11092,11205,11147,11146,11205,11092,11147,11202,11147,
11145,11202,11203,11257,11201,11093,11091,11146,11148,11148,11146,11205,11149,11145,11205,10398,10395,10395,10341,10395,10340,10339,10340,10285,10395,10341,10341,10341,10396,10451,11147,11092,11150,11260,11202,11092,11202,11205,11150,11260,
11145,11205,11149,11090,11091,11150,11260,11092,11260,11205,11203,11201,11149,11145,11147,10338,10285,10339,10341,10339,10339,10339,10340,10339,10339,10341,10285,10285,10342,11091,11260,11205,11146,11205,11148,11260,11203,11201,11205,11203,
11091,11148,11149,11145,11148,11148,11150,11202,11146,11092,11149,11145,11149,11200,11201,10449,10394,10395,10339,10340,10340,10339,10341,10395,10341,10339,10340,10395,10286,10230,10231,11092,11260,11148,11150,11146,11093,11091,11260,11149,
11203,11201,11093,11091,11148,11260,11148,11148,11150,11148,11149,11145,11149,11090,11091,11146,10398,10395,10341,10339,10339,10341,10285,10285,10341,10285,10339,10395,10395,10396,10451,11202,11146,11202,11147,11092,11260,11205,11205,11149,
11093,11091,11205,11203,11201,11147,11148,11092,11150,11148,11149,11145,11093,11091,11092,11148,10338,10341,10395,10395,10341,10395,10395,10339,10339,10340,10341,10285,10285,10342,11150,11146,11203,11201,11148,11092,11146,11148,11203,11204,
11202,11205,11260,11093,11091,11260,11146,11092,11205,11205,11149,11145,11202,11147,11205,11092,10449,10450,10394,10285,10339,10395,10395,10395,10285,10285,10340,10341,10339,10453,11202,11203,11039,11091,11202,11147,11146,11148,11093,11037,
11202,11202,11202,11202,11092,11260,11146,11202,11150,11260,11149,11145,11202,11092,11150,11148,11149,11145,10393,10450,10450,10343,10394,10339,10396,10394,10339,10339,10396,10397,11092,11093,11091,11203,11201,11148,11147,11150,11148,11147,
11147,11260,11092,11092,11147,11147,11205,11260,11260,11092,11149,11145,11260,11260,11147,11205,11149,11145,11149,11145,11093,11091,10393,10343,10397,10393,10343,10343,10451,11257,11201,11092,11203,11204,11145,11148,11202,11148,11150,11147,
11148,11202,11202,11202,11260,11260,11203,11201,11148,11147,11093,11091,11147,11260,11205,11146,11149,11145,11093,11091,11205,11260,11260,11202,11148,11205,11205,11147,11093,11037,11091,11147,11093,11037,11091,11260,11203,11201,11146,11203,
11202,11205,11260,11146,11260,11260,11149,11145,11205,11147,11202,11202,11148,11150,11147,11147,11149,11145,11203,11201,11147,11260,11205,11092,11148,11146,11146,11202,11092,11092,11148,11260,11150,11147,11150,11260,11093,11091,11202,11149,
11203,11201,11203,11201,11092,11148,11149,11145,11148,11202,11150,11202,11202,11202,11202,11205,11093,11091,11093,11091,11148,11150,11260,11202,11260,11203,11201,11150,11146,11147,11148,11260,11147,11146,11092,11205,11202,11260,11260,11149,
11093,11091,11093,11091,11205,11260,11093,11091,11205,11203,11257,11201,11150,11148,11148,11150,11205,11260,11202,11146,11146,11205,11150,11150,11147,11093,11091,11148,11092,11150,11205,11205,11205,11150,11202,11202,11146,11260,11147,11093,
11257,11201,11203,11201,11203,11201,11148,11148,11148,11093,11037,11091,11148,11205,11203,11257,11257,11257,11257,11257,11257,11257,11257,11257,11201,11146,11205,11148,11203,11201,11146,11148,11150,11205,11150,11148,11260,11148,11146,11092,
9943,11145,11149,11145,11149,11200,11201,11202,11148,11203,11257,11201,11147,11203,11258,9943,9887,9889,9887,9888,9889,9888,9888,9888,11200,11257,11257,11201,11149,11145,11260,11202,11147,11202,11092,11148,11092,11260,11146,11148,
9887,11145,11149,11145,11149,9887,11145,11146,11205,11093,11094,11145,11203,11258,9943,9943,9943,9833,9943,9889,9943,9943,9888,9887,9888,9833,9833,11145,11149,11200,11257,11257,11257,11257,11257,11257,11257,11257,11201,11260,
9887,11200,11204,11256,11258,9943,11200,11201,11205,11150,11093,11091,11149,9943,9943,9889,9888,9943,9889,9943,9943,9889,9943,9887,9889,9833,9889,11200,11258,9889,9833,9889,4849,9833,9887,9887,9889,9887,11145,11203,
4813,4783,4818,9889,9888,9887,9888,11256,11257,11257,11257,11257,11258,9889,9943,9889,9888,9887,9888,9887,9943,9888,9889,9943,9889,9943,9943,9833,9888,9889,9889,9888,4784,4849,9888,9833,9888,9833,11200,11258,
4816,4819,9887,9833,9833,9943,9943,9943,9943,9943,9889,9833,9943,9943,9943,9889,9943,9889,9888,9889,9889,9888,9833,9889,9887,9888,9833,9833,9889,9887,9887,9889,9943,4819,4819,4787,4820,4851,4849,4846
</data>
 </layer>
 <layer id="7" name="Obj_feios" width="40" height="40">
  <data encoding="csv">
0,0,0,0,0,0,0,0,0,0,0,0,0,0,0,0,0,0,0,0,0,0,0,0,0,0,1016,1017,1018,1019,1020,1021,1022,0,0,0,0,0,0,0,
0,0,0,0,0,0,0,0,0,0,0,0,0,0,0,0,0,0,0,0,0,0,0,0,0,0,1080,1081,1082,1083,1084,1085,1086,0,0,0,0,0,0,0,
0,0,0,0,0,0,0,0,0,0,0,0,0,0,0,0,0,0,0,0,0,0,0,0,0,0,1144,1145,1146,1147,1148,1149,1150,0,0,0,0,0,0,0,
0,0,0,0,0,7115,0,0,0,0,0,8293,0,0,0,0,0,0,0,0,0,0,0,0,0,0,1208,1209,1210,1211,1212,1213,1214,0,0,0,0,0,0,0,
0,0,0,0,0,0,0,0,0,0,0,0,0,0,0,0,0,0,0,0,0,7117,0,0,0,8298,1272,1273,1274,1275,1276,1277,1278,8397,0,0,0,0,0,0,
0,0,0,0,0,0,0,0,0,0,0,0,0,0,0,0,0,0,0,0,8397,0,0,0,0,0,1336,1337,1338,1339,1340,1341,1342,0,0,0,7848,7848,0,0,
0,0,0,0,0,7848,0,7848,0,0,0,0,0,0,0,0,8287,0,0,0,0,6995,0,0,0,0,0,0,0,0,0,0,0,0,0,0,0,0,8387,0,
0,0,0,0,0,0,0,0,0,0,6910,0,0,0,0,0,0,0,0,0,0,0,0,0,0,0,0,0,0,0,0,0,0,0,8387,0,0,0,0,0,
0,0,8352,0,0,8355,0,0,0,7839,0,0,0,0,0,0,0,0,0,0,0,0,0,0,0,0,8387,0,0,0,0,0,8351,0,0,0,0,0,8355,0,
0,0,0,8316,0,0,8355,0,0,7839,0,0,0,0,0,0,0,0,0,0,0,0,0,0,0,0,0,0,0,0,0,0,0,0,0,8359,0,0,0,0,
0,0,0,0,0,8355,0,0,0,7839,0,0,0,0,0,7292,0,0,0,0,0,0,0,0,0,0,0,0,0,0,0,0,0,0,0,0,0,0,0,0,
0,0,0,8281,0,8355,0,0,0,0,0,0,0,0,0,0,0,0,0,0,0,0,7307,0,0,7145,0,0,0,0,0,0,0,0,8281,0,0,0,0,0,
0,0,0,0,0,0,8355,0,0,0,0,0,0,0,0,0,0,0,0,0,0,0,0,0,0,0,0,0,0,0,0,8351,0,0,0,0,8359,0,0,0,
7735,0,0,0,0,0,0,0,0,0,0,0,0,0,0,0,0,0,0,0,0,0,0,0,0,0,0,0,0,0,0,0,0,0,0,0,0,0,0,0,
0,0,0,0,0,0,0,0,0,0,0,0,0,0,0,8352,0,0,0,0,0,0,0,0,0,0,0,0,0,0,0,0,0,0,0,0,8316,0,0,0,
0,0,0,7880,0,0,0,0,0,0,0,0,0,0,0,0,0,0,0,0,0,0,0,0,0,0,0,0,0,0,0,0,0,0,0,0,0,0,8355,0,
0,0,0,0,8387,0,0,0,0,0,0,7307,0,0,0,7848,0,0,7804,0,0,0,7839,7839,0,0,0,0,0,0,0,0,0,0,0,8359,0,0,0,0,
0,0,0,0,0,0,0,0,0,0,0,0,0,0,0,0,0,0,0,0,0,0,0,0,7839,0,0,0,0,0,0,0,0,8351,0,0,0,0,0,0,
0,0,0,0,0,0,0,0,0,0,0,0,0,0,0,0,0,0,0,0,0,0,0,0,0,0,0,0,0,0,0,0,0,0,0,0,0,0,0,0,
0,0,0,0,0,0,0,0,7292,0,0,0,0,0,0,0,8287,0,0,0,0,0,0,0,7839,0,0,0,0,0,0,7307,0,0,0,0,0,7880,0,0,
0,0,0,0,0,0,0,0,0,0,0,0,0,0,0,0,0,0,0,0,0,0,0,0,0,0,0,7735,0,0,0,0,0,0,0,7145,0,0,0,0,
0,0,0,0,0,0,0,0,0,0,0,0,0,0,8352,0,0,0,0,0,0,8339,0,0,0,0,0,0,0,0,0,0,0,0,0,0,0,0,0,0,
0,0,0,0,0,0,0,0,0,0,0,0,0,0,0,0,0,0,0,0,0,0,0,0,0,0,0,0,0,0,0,0,0,7145,0,0,0,0,0,0,
0,0,0,0,0,0,0,0,0,0,0,0,0,0,0,7848,0,0,0,8316,0,0,0,0,0,0,0,0,0,0,0,0,0,0,0,0,0,0,0,0,
0,0,0,0,0,0,0,0,0,0,0,0,0,0,0,0,0,0,0,0,0,0,0,0,0,8287,0,0,0,0,0,0,0,0,0,0,8387,0,0,0,
0,0,0,8387,0,0,7145,0,0,0,0,0,0,0,0,0,0,0,0,0,0,0,0,0,0,0,0,0,0,7839,0,0,8387,0,0,0,0,0,0,0,
0,0,0,0,0,0,0,0,0,0,8387,0,0,0,312,313,314,315,316,317,318,319,0,0,0,0,0,0,0,7839,0,0,0,0,0,0,0,0,0,0,
0,0,0,0,0,0,0,0,0,0,0,0,0,0,376,377,378,379,380,381,382,383,0,8316,0,0,0,0,0,7839,0,0,0,0,0,0,0,0,0,0,
0,0,0,0,0,0,0,0,0,0,0,0,7292,0,440,441,442,443,444,445,446,447,0,0,0,0,0,0,0,0,0,0,0,0,0,0,0,0,0,0,
0,0,0,7292,0,0,0,0,0,0,0,0,0,0,504,505,506,507,508,509,510,511,0,7880,0,0,7880,0,0,0,0,0,0,0,0,0,0,0,0,0,
0,0,0,0,0,0,0,0,0,0,0,0,0,0,568,569,570,571,572,573,574,575,0,0,0,0,0,0,0,0,0,0,0,0,0,0,0,0,0,0,
0,0,0,0,0,0,0,0,0,0,0,0,0,0,8394,633,634,635,636,637,638,639,0,0,0,0,0,0,0,0,0,0,0,0,0,0,0,0,0,0,
0,0,0,0,0,0,0,0,0,0,0,0,0,0,8314,697,698,699,700,701,702,8293,0,0,0,0,0,0,0,0,0,0,0,0,0,0,0,0,0,0,
0,0,0,0,0,0,0,0,0,0,0,0,0,0,760,761,762,763,764,765,766,767,0,0,0,0,0,0,0,0,0,0,0,0,0,0,0,0,0,0,
0,0,0,0,0,0,0,0,0,0,0,0,0,0,0,0,0,0,0,0,0,0,0,0,0,0,0,0,0,0,0,0,0,0,0,0,0,0,0,0,
0,0,0,0,0,0,0,0,0,0,0,0,0,0,0,0,0,0,0,0,0,0,0,0,0,0,0,0,0,0,0,0,0,0,0,0,0,0,0,0,
0,0,0,0,0,0,0,0,0,0,0,0,0,0,0,0,0,0,0,0,0,0,0,0,0,0,0,0,0,0,0,0,0,0,0,0,0,0,0,0,
0,0,0,0,0,0,0,0,0,0,0,0,0,0,0,0,0,0,0,0,0,0,0,0,0,0,0,0,0,0,0,0,0,0,0,0,0,0,0,0,
0,0,0,0,0,0,0,0,0,0,0,0,0,0,0,0,0,0,0,0,0,0,0,0,0,0,0,0,0,0,0,0,0,0,0,0,0,0,0,0,
0,0,0,0,0,0,0,0,0,0,0,0,0,0,0,0,0,0,0,0,0,0,0,0,0,0,0,0,0,0,0,0,0,0,0,0,0,0,0,0
</data>
 </layer>
 <layer id="3" name="Obj_Cidade_0" width="40" height="40" visible="0">
  <data encoding="csv">
0,0,0,0,0,0,0,0,0,0,0,0,0,0,0,0,0,0,0,0,0,0,0,0,0,0,0,0,0,0,0,0,0,0,0,0,0,0,0,0,
0,0,0,0,0,0,0,0,0,0,0,0,0,0,0,0,0,0,0,0,0,0,0,0,0,0,0,0,0,0,0,0,0,0,0,0,0,0,0,0,
0,0,0,0,0,0,0,0,0,0,0,0,0,0,0,0,0,0,0,0,0,0,0,0,0,0,0,0,0,0,0,0,0,0,0,0,0,0,0,0,
0,0,0,0,0,0,0,0,0,0,0,0,0,0,0,0,0,0,0,0,0,0,0,0,0,0,0,0,0,0,0,0,0,0,0,0,0,0,0,0,
0,0,0,0,0,0,0,0,0,0,0,0,0,0,0,0,0,0,0,0,0,0,0,0,0,0,0,0,0,0,0,0,0,0,0,0,0,0,0,0,
0,0,0,0,0,0,0,0,0,0,0,0,0,0,0,0,0,0,0,0,0,0,0,8374,0,0,0,0,0,0,0,0,0,0,0,0,0,0,0,0,
0,0,0,0,0,0,0,0,0,0,0,0,0,0,0,0,0,0,0,0,0,0,0,0,0,0,0,0,0,0,0,0,0,0,0,0,0,0,0,0,
0,0,0,0,0,0,0,0,0,0,8373,0,0,0,0,0,0,0,0,0,0,0,0,0,0,0,0,0,0,0,0,0,0,0,0,0,0,0,0,0,
0,0,0,0,0,0,0,0,0,0,0,0,0,0,0,0,0,0,0,0,0,0,0,0,0,0,0,0,0,0,0,0,0,0,0,0,0,0,0,0,
0,0,0,0,0,0,0,0,0,0,0,0,0,0,0,0,0,0,0,0,0,0,0,0,0,0,0,0,0,0,0,0,0,0,0,0,0,0,0,0,
0,0,0,0,0,0,0,0,0,0,0,0,0,0,0,0,0,0,0,0,0,0,0,0,0,0,0,0,0,0,0,0,0,0,0,0,0,0,0,0,
0,0,0,0,0,0,0,0,0,0,0,0,0,0,0,0,0,0,0,0,0,0,0,0,0,0,0,0,0,0,0,0,0,0,0,0,0,0,0,0,
0,0,0,0,0,0,0,0,0,0,0,0,0,0,0,0,0,0,0,0,0,0,0,0,0,0,0,0,0,0,0,0,0,0,0,0,0,0,0,0,
0,0,0,0,0,0,0,0,0,0,0,0,0,0,0,0,0,0,0,0,0,0,0,0,0,0,0,0,0,0,0,0,0,0,0,0,0,0,0,0,
0,0,0,0,0,0,0,0,0,0,0,0,7953,7952,0,7951,0,0,7952,0,7953,7953,7952,7952,7953,7953,7952,0,0,0,0,0,0,0,0,0,0,0,0,0,
0,0,0,0,0,0,0,0,0,0,0,0,0,0,0,0,0,0,0,0,0,0,0,0,0,0,0,0,0,0,0,0,0,0,0,0,0,0,0,0,
0,0,0,0,0,0,0,0,0,0,0,0,0,0,0,0,0,0,0,0,0,0,0,0,0,0,0,0,0,0,0,0,0,0,0,0,0,0,0,0,
0,0,0,0,0,0,0,0,0,0,0,0,0,0,0,0,0,0,0,0,0,0,0,0,0,0,0,0,0,0,0,0,0,0,0,0,0,0,0,0,
0,0,0,0,0,0,0,0,0,0,0,0,0,0,0,0,0,0,0,0,0,0,0,0,0,0,0,0,0,0,0,0,0,0,0,0,0,0,0,0,
0,0,0,0,0,0,0,0,0,0,0,0,0,0,0,0,0,0,0,0,0,0,0,0,0,0,0,0,0,0,0,0,0,0,0,0,0,0,0,0,
0,0,0,0,0,0,0,0,0,0,0,0,0,0,0,0,0,0,0,0,0,0,0,0,0,0,0,0,0,0,0,0,0,0,0,0,0,0,0,0,
0,0,0,0,0,0,0,0,0,0,0,0,0,0,0,0,0,0,0,0,0,0,0,0,0,0,0,0,0,0,0,0,0,0,0,0,0,0,0,0,
0,0,0,0,0,0,0,0,0,0,0,0,0,0,0,0,0,0,0,0,0,0,0,0,0,0,0,0,0,0,0,0,0,0,0,0,0,0,0,0,
0,0,0,0,0,0,0,0,0,0,0,0,0,0,0,0,0,0,0,0,0,0,0,0,0,0,0,0,0,0,0,0,0,0,0,0,0,0,0,0,
0,0,0,0,0,0,0,0,0,0,0,0,0,0,0,0,0,0,0,0,0,0,0,0,0,0,0,0,0,0,0,0,0,0,0,0,0,0,0,0,
0,0,0,0,0,7954,7958,7957,0,7957,7954,7955,0,0,0,0,0,0,0,0,0,0,0,0,0,0,0,0,0,0,0,0,0,0,0,0,0,0,0,0,
0,0,0,0,0,0,0,0,0,0,0,0,0,0,0,0,0,0,0,0,0,0,0,0,0,0,0,0,0,0,0,0,0,0,0,0,0,0,0,0,
0,0,0,0,0,0,0,0,0,0,0,0,0,0,0,0,0,0,0,0,0,0,0,0,0,0,0,0,0,0,0,0,0,0,0,0,0,0,0,0,
0,0,0,0,7960,0,0,0,0,0,0,0,0,0,0,0,0,0,0,0,0,0,0,0,0,0,0,0,0,0,0,0,0,0,0,0,0,0,0,0,
0,0,0,0,0,0,0,0,0,0,0,0,0,0,0,0,0,0,0,0,0,0,0,0,0,0,0,0,0,0,0,0,0,0,0,0,0,0,0,0,
0,0,0,0,0,0,0,0,0,0,0,0,0,0,0,0,0,0,0,0,0,0,0,0,0,0,0,0,0,0,0,0,0,0,0,0,0,0,0,0,
0,0,0,0,0,0,0,0,0,0,0,0,0,0,0,0,0,0,0,0,0,0,0,0,0,0,0,0,0,0,0,0,0,0,0,0,0,0,0,0,
0,0,0,0,0,0,0,0,0,0,0,0,0,0,0,0,0,0,0,0,0,0,0,0,0,0,0,0,0,0,0,0,0,0,0,0,0,0,0,0,
0,0,0,0,0,0,0,0,0,0,0,0,0,0,0,0,0,0,0,0,0,0,0,0,0,0,0,0,0,0,0,0,0,0,0,0,0,0,0,0,
0,0,0,0,0,0,0,0,0,0,0,0,0,0,0,0,0,0,0,0,0,0,0,0,0,0,0,0,0,0,0,0,0,0,0,0,0,0,0,0,
0,0,0,0,0,0,0,0,0,0,0,0,0,0,0,0,0,0,0,0,0,0,0,0,0,0,0,0,0,0,0,0,0,0,0,0,0,0,0,0,
0,0,0,0,0,0,0,0,0,0,0,0,0,0,0,0,0,0,0,0,0,0,0,0,0,0,0,0,0,0,0,0,0,0,0,0,0,0,0,0,
0,0,0,0,0,0,0,0,0,0,0,0,0,0,0,0,0,0,0,0,0,0,0,0,0,0,0,0,0,0,0,0,0,0,0,0,0,0,0,0,
0,0,0,0,0,0,0,0,0,0,0,0,0,0,0,0,0,0,0,0,0,0,0,0,0,0,0,0,0,0,0,0,0,0,0,0,0,0,0,0,
0,0,0,0,0,0,0,0,0,0,0,0,0,0,0,0,0,0,0,0,0,0,0,0,0,0,0,0,0,0,0,0,0,0,0,0,0,0,0,0
</data>
 </layer>
 <layer id="4" name="Obj_Cidade" width="40" height="40" visible="0">
  <data encoding="csv">
0,0,0,0,0,0,0,0,0,0,0,0,144,145,146,147,148,149,150,151,152,153,154,155,0,0,0,0,0,0,0,0,0,0,0,0,0,0,0,0,
0,0,0,0,0,0,0,0,0,0,0,0,208,209,210,211,212,213,214,215,216,217,218,219,0,0,28,29,30,31,32,33,34,35,36,37,38,39,40,41,
0,0,0,0,0,0,0,0,0,0,0,0,272,273,274,275,276,277,278,279,280,281,282,283,0,0,92,93,94,95,96,97,98,99,100,101,102,103,104,105,
67,68,69,70,71,72,73,74,75,76,77,78,336,337,338,339,340,341,342,343,344,345,346,347,0,0,156,157,158,159,160,161,162,163,164,165,166,167,168,169,
131,132,133,134,135,136,137,138,139,140,141,142,400,401,402,403,404,405,406,407,408,409,410,411,0,0,220,221,222,223,224,225,226,227,228,229,230,231,232,233,
195,196,197,198,199,200,201,202,203,204,205,206,464,465,466,467,468,469,470,471,472,473,474,475,0,0,284,285,286,287,288,289,290,291,292,293,294,295,296,297,
259,260,261,262,263,264,265,266,267,268,269,270,528,529,530,531,532,533,534,535,536,537,538,539,0,0,348,349,350,351,352,353,354,355,356,357,358,359,360,361,
323,324,325,326,327,328,329,330,331,332,333,334,592,593,594,595,596,597,598,599,600,601,602,603,0,0,412,413,414,415,416,417,418,419,420,421,422,423,424,425,
387,388,389,390,391,392,393,394,395,396,397,398,656,657,658,659,660,661,662,663,664,665,666,667,0,0,476,477,478,479,480,481,482,483,484,485,486,487,488,489,
451,452,453,454,455,456,457,458,459,460,461,462,720,721,722,723,724,725,726,727,728,729,730,731,0,0,540,541,542,543,544,545,546,547,548,549,550,551,552,553,
515,516,517,518,519,520,521,522,523,524,525,526,784,785,786,787,788,789,790,791,792,793,794,795,0,0,604,605,606,607,608,609,610,611,612,613,614,615,616,617,
579,580,581,582,583,584,585,586,587,588,589,590,0,0,0,0,0,0,0,0,0,0,0,0,0,0,668,669,670,671,672,673,674,675,676,677,678,679,680,681,
643,644,645,646,647,648,649,650,651,652,653,654,0,0,0,0,0,0,0,0,0,0,0,0,0,0,732,733,734,735,736,737,738,739,740,741,742,743,744,745,
707,708,709,710,711,712,713,714,715,716,717,718,0,0,0,0,0,0,0,0,0,0,0,0,0,0,796,797,798,799,800,801,802,803,804,805,806,807,808,809,
771,772,773,774,775,776,777,778,779,780,781,782,0,0,0,0,0,0,0,0,0,0,0,0,0,0,0,0,0,0,0,0,0,106,107,108,109,110,111,112,
0,0,0,0,0,0,0,0,0,0,0,8139,0,0,0,8141,0,0,8140,0,0,0,8145,0,0,0,0,0,0,0,0,0,0,170,171,172,173,174,175,176,
0,0,0,0,0,0,0,0,0,0,0,0,0,0,0,0,0,0,0,0,0,0,0,0,0,0,0,0,0,0,0,0,0,234,235,236,237,238,239,240,
0,0,0,0,0,0,0,0,0,0,0,0,0,0,0,0,0,0,0,0,0,0,0,0,0,0,0,0,0,0,0,0,0,298,299,300,301,302,303,304,
0,0,0,0,0,0,0,0,0,0,0,0,0,0,0,0,0,0,0,0,0,0,0,0,0,0,0,0,0,0,0,0,0,362,363,364,365,366,367,368,
0,0,0,0,0,0,8143,0,0,0,0,0,0,0,0,0,0,0,0,0,0,0,0,0,0,0,0,0,0,0,0,0,0,426,427,428,429,430,431,432,
0,0,0,0,0,0,0,0,0,0,0,0,0,0,0,0,0,0,0,0,0,0,0,0,0,0,0,0,0,0,0,0,0,490,491,492,493,494,495,496,
0,0,0,0,0,0,0,0,0,0,0,0,0,0,0,0,0,0,0,0,0,0,0,0,0,0,0,0,0,0,0,0,0,554,555,556,557,558,559,560,
0,0,0,0,0,0,0,0,0,0,0,0,0,0,0,0,0,0,0,0,0,0,0,0,0,0,0,0,0,0,0,0,0,618,619,620,621,622,623,624,
0,0,0,0,0,0,0,0,0,0,0,0,4175,0,0,0,0,0,0,0,0,0,0,0,0,0,0,0,0,0,0,0,0,682,683,684,685,686,687,688,
0,0,0,0,0,0,0,0,0,0,0,0,0,0,0,0,0,0,0,0,0,0,0,0,0,0,0,0,0,0,0,0,0,746,747,748,749,750,751,752,
0,0,0,0,0,0,0,0,0,0,0,0,0,2084,0,2086,0,2088,2089,2090,0,2092,2093,2094,2095,2096,2097,2098,2099,2100,2101,2102,0,810,811,812,813,814,815,816,
0,0,0,0,8140,0,0,0,8145,0,0,0,0,2148,2149,2150,2151,2152,2153,2154,2155,2156,2157,2158,2159,2160,2161,2162,2163,2164,2165,2166,0,874,875,876,877,878,879,880,
0,0,0,0,0,0,0,0,0,0,0,0,0,2212,2213,2214,2215,2216,2217,2218,2219,2220,2221,2222,2223,2224,2225,2226,2227,2228,2229,2230,0,0,0,0,0,0,0,0,
0,0,0,0,0,0,0,0,0,0,0,0,0,2276,2277,2278,2279,2280,2281,2282,2283,2284,2285,2286,2287,2288,2289,2290,2291,2292,2293,2294,0,0,0,0,0,0,0,0,
0,0,0,0,0,0,0,0,0,0,0,0,0,2340,2341,2342,2343,2344,2345,2346,2347,2348,2349,2350,2351,2352,2353,2354,2355,2356,2357,2358,0,0,0,0,0,0,0,0,
0,0,0,0,0,0,0,0,0,0,0,0,0,2404,2405,2406,2407,2408,2409,2410,2411,2412,2413,2414,2415,2416,2417,2418,2419,2420,2421,2422,0,0,0,0,0,0,0,0,
0,0,0,0,0,0,0,0,0,0,0,0,0,2468,2469,2470,2471,2472,2473,2474,2475,2476,2477,2478,2479,2480,2481,2482,2483,2484,2485,2486,0,0,0,0,0,0,0,0,
0,0,0,0,0,0,0,0,0,0,0,0,0,2532,2533,2534,2535,2536,2537,2538,2539,2540,2541,2542,2543,2544,2545,2546,2547,2548,2549,2550,0,0,0,0,0,0,0,0,
0,0,0,0,0,0,0,0,0,0,0,0,0,2596,2597,2598,2599,2600,2601,2602,2603,2604,2605,2606,2607,2608,2609,2610,2611,2612,2613,2614,0,0,0,0,0,0,0,0,
0,0,0,0,0,0,0,0,0,0,0,0,0,2660,2661,2662,2663,2664,2665,2666,2667,2668,2669,2670,2671,2672,2673,2674,2675,2676,2677,2678,0,0,0,0,0,0,0,0,
0,0,0,0,0,0,0,0,0,0,0,0,0,2724,2725,2726,2727,2728,2729,2730,2731,2732,2733,2734,2735,2736,2737,2738,2739,2740,2741,2742,0,0,0,0,0,0,0,0,
0,0,0,0,0,0,0,0,0,0,0,0,0,2788,2789,2790,2791,2792,2793,2794,2795,2796,2797,2798,2799,2800,2801,2802,2803,2804,2805,2806,0,0,0,0,0,0,0,0,
0,0,0,0,0,0,0,0,0,0,0,0,0,2852,2853,2854,2855,2856,2857,2858,2859,2860,2861,2862,2863,2864,2865,2866,2867,2868,2869,2870,0,0,0,0,0,0,0,0,
0,0,0,0,0,0,0,0,0,0,0,0,0,2916,2917,2918,2919,2920,2921,2922,2923,2924,2925,2926,2927,2928,2929,2930,2931,2932,2933,2934,0,0,0,0,0,0,0,0,
0,0,0,0,0,0,0,0,0,0,0,0,0,2980,2981,2982,2983,2984,2985,2986,2987,2988,2989,2990,2991,2992,2993,2994,2995,2996,2997,2998,0,0,0,0,0,0,0,0
</data>
 </layer>
 <layer id="5" name="Obj_Cidade_2" width="40" height="40" visible="0">
  <data encoding="csv">
0,0,0,0,0,0,0,0,0,0,0,0,0,0,0,0,0,0,0,0,0,0,0,0,0,0,0,0,0,0,0,0,0,0,0,0,0,0,0,0,
0,0,0,0,0,0,0,0,0,0,0,0,0,0,0,0,0,0,0,0,0,0,0,0,0,0,0,0,0,0,0,0,0,0,0,0,0,0,0,0,
0,0,0,0,0,0,0,0,0,0,0,0,0,0,0,0,0,0,0,0,0,0,0,0,0,0,0,0,0,0,0,0,0,0,0,0,0,0,0,0,
0,0,0,0,0,0,0,0,0,0,0,0,0,0,0,0,0,0,0,0,0,0,0,0,0,0,0,0,0,0,0,0,0,0,0,0,0,0,0,0,
0,0,0,0,0,0,0,0,0,0,0,0,0,0,0,0,0,0,0,0,0,0,0,0,0,0,0,0,0,0,0,0,0,0,0,0,0,0,0,0,
0,0,0,0,0,0,0,0,0,0,0,0,0,0,0,0,0,0,0,0,0,0,0,0,0,0,0,0,0,0,0,0,0,0,0,0,0,0,0,0,
0,0,0,0,0,0,0,0,0,0,0,0,0,0,0,0,0,0,0,0,0,0,0,0,0,0,0,0,0,0,0,0,0,0,0,0,0,0,0,0,
0,0,0,0,0,0,0,0,0,0,0,0,0,0,0,0,0,0,0,0,0,0,0,0,0,0,0,0,0,0,0,0,0,0,0,0,0,0,0,0,
0,0,0,0,0,0,0,0,0,0,0,0,0,0,0,0,0,0,0,0,0,0,0,0,0,0,0,0,0,0,0,0,0,0,0,0,0,0,0,0,
0,0,0,0,0,0,0,0,0,0,0,0,0,0,0,0,0,0,0,0,0,0,0,0,0,0,0,0,0,0,0,0,0,0,0,0,0,0,0,0,
0,0,0,0,0,0,0,0,0,0,0,0,0,0,0,0,0,0,0,0,0,0,0,0,0,0,0,0,0,0,0,0,0,0,0,0,0,0,0,0,
0,0,0,0,0,0,0,0,0,0,0,0,0,0,0,8283,0,0,0,8368,0,0,0,0,0,0,0,0,0,0,0,0,0,0,0,0,0,0,0,0,
0,0,0,0,0,0,0,0,0,0,0,0,0,0,0,0,0,0,0,0,0,0,0,0,0,0,0,0,0,0,0,0,0,0,0,0,0,0,0,0,
0,8338,0,0,0,0,0,0,0,0,0,0,0,0,0,0,0,0,0,0,0,0,0,0,0,0,0,0,8326,2147491974,0,8368,0,0,8322,0,0,0,0,0,
0,0,0,0,0,0,8368,8450,0,0,0,0,0,0,0,0,0,0,0,0,0,0,0,0,0,0,0,0,0,0,0,0,0,0,0,0,0,0,0,0,
0,0,0,0,0,0,0,0,0,0,0,7903,8017,0,8021,7900,0,7905,8019,7904,8020,0,8021,0,0,0,0,0,0,0,0,0,0,0,0,0,0,0,0,0,
0,0,0,0,0,0,0,0,0,0,0,0,0,0,0,0,0,0,0,0,0,0,0,0,0,0,0,0,0,0,0,0,0,0,0,0,0,0,0,0,
0,0,0,0,0,0,0,0,0,0,0,0,0,0,0,0,0,0,0,0,0,0,0,0,0,0,0,0,0,0,0,0,0,0,0,0,0,0,0,0,
0,0,0,0,0,0,0,7947,7947,0,0,0,0,0,0,0,0,0,0,0,0,0,0,0,0,0,0,0,0,0,0,0,0,0,0,0,0,0,0,0,
0,0,0,0,0,0,7946,0,0,0,7947,0,0,0,0,0,0,0,0,0,0,0,0,0,0,0,0,0,0,0,0,0,0,0,0,0,0,0,0,0,
0,0,0,0,0,0,0,0,0,0,0,0,0,0,0,0,0,0,0,0,0,0,0,0,0,0,0,0,0,0,0,0,0,0,0,0,0,0,0,0,
0,0,0,0,0,0,0,0,0,0,0,0,0,0,0,0,0,0,0,0,0,0,0,0,0,0,0,0,0,0,0,0,0,0,0,0,0,0,0,0,
0,0,0,0,0,0,0,0,0,0,0,0,0,0,0,0,0,0,0,0,0,0,0,0,0,0,0,0,0,0,0,0,0,0,0,0,0,0,0,0,
0,0,0,0,0,0,0,0,0,0,0,0,0,0,0,0,0,0,0,0,0,0,0,0,0,0,0,0,0,0,0,0,0,0,0,0,0,0,0,0,
0,0,0,0,0,0,0,0,0,0,0,0,0,0,0,0,0,0,0,0,0,0,0,0,0,0,0,0,0,0,0,0,0,0,0,0,0,0,0,0,
0,0,0,0,7957,0,0,0,0,0,0,0,0,7958,0,0,0,0,0,0,0,0,0,0,0,0,0,0,0,0,0,0,0,0,0,0,0,0,0,0,
0,0,0,0,7955,8055,8056,0,8057,8055,0,8055,8056,7955,0,0,0,0,0,0,0,0,0,0,0,0,0,0,0,0,0,0,0,0,0,0,0,0,0,0,
0,0,0,0,0,0,0,0,0,0,0,0,0,0,0,0,0,0,0,0,0,0,0,0,0,0,0,0,0,0,0,0,8324,0,0,0,0,0,0,0,
0,0,0,0,0,0,0,0,0,0,0,0,0,0,0,0,0,0,0,0,0,0,0,0,0,0,0,0,0,0,0,0,0,0,0,0,0,0,0,0,
0,0,0,0,0,0,0,0,0,0,0,0,0,0,0,0,0,0,0,0,0,0,0,0,0,0,0,0,0,0,0,0,0,0,0,0,0,0,0,0,
0,0,0,0,0,0,0,0,0,0,0,0,0,0,0,0,0,0,0,0,0,0,0,0,0,0,0,0,0,0,0,0,0,0,0,0,0,0,0,0,
0,0,0,0,0,0,0,0,0,0,0,0,0,0,0,0,0,0,0,0,0,0,0,0,0,0,0,0,0,0,0,0,0,0,0,0,0,0,0,0,
0,0,0,0,0,0,0,0,0,0,0,0,0,0,0,0,0,0,0,0,0,0,0,0,0,0,0,0,0,0,0,0,0,0,0,0,0,0,0,0,
0,0,0,0,0,0,0,0,0,0,0,0,0,0,0,0,0,0,0,0,0,0,0,0,0,0,0,0,0,0,0,0,0,0,0,0,0,0,0,0,
0,0,0,0,0,0,0,0,0,0,0,0,0,0,0,0,0,0,0,0,0,0,0,0,0,0,0,0,0,0,0,0,0,0,0,0,0,0,0,0,
0,0,0,0,0,0,0,0,0,0,0,0,0,0,0,0,0,0,0,0,0,0,0,0,0,0,0,0,0,0,0,0,0,0,0,0,0,0,0,0,
0,0,0,0,0,0,0,0,0,0,0,0,0,0,0,0,0,0,0,0,0,0,0,0,0,0,0,0,0,0,0,0,0,0,0,0,0,0,0,0,
0,0,0,0,0,0,0,0,0,0,0,0,0,0,0,0,8455,0,0,0,0,0,0,0,0,0,0,0,0,0,0,0,0,0,0,0,0,0,0,0,
0,0,0,0,0,0,0,0,0,0,0,0,0,0,0,0,0,0,0,0,8340,0,0,0,0,0,0,0,0,0,0,0,0,0,0,0,0,0,0,0,
0,0,0,0,0,0,0,0,0,0,0,0,0,0,0,0,0,0,0,0,0,0,0,0,0,0,0,0,0,0,0,0,0,0,0,0,0,0,0,0
</data>
 </layer>
 <layer id="6" name="Obj_Cidade_3" width="40" height="40" visible="0">
  <data encoding="csv">
0,0,0,0,0,0,0,0,0,0,0,0,0,0,0,0,0,0,0,0,0,0,0,0,0,0,0,0,0,0,0,0,0,0,0,0,0,0,0,0,
0,0,0,0,0,0,0,0,0,0,0,0,0,0,0,0,0,0,0,0,0,0,0,0,0,0,0,0,0,0,0,0,0,0,0,0,0,0,0,0,
0,0,0,0,0,0,0,0,0,0,0,0,0,0,0,0,0,0,0,0,0,0,0,0,0,0,0,0,0,0,0,0,0,0,0,0,0,0,0,0,
0,0,0,0,0,0,0,0,0,0,0,0,0,0,0,0,0,0,0,0,0,0,0,0,0,0,0,0,0,0,0,0,0,0,0,0,0,0,0,0,
0,0,0,0,0,0,0,0,0,0,0,0,0,0,0,0,0,0,0,0,0,0,0,0,0,0,0,0,0,0,0,0,0,0,0,0,0,0,0,0,
0,0,0,0,0,0,0,0,0,0,0,0,0,0,0,0,0,0,0,0,0,0,0,0,0,0,0,0,0,0,0,0,0,0,0,0,0,0,0,0,
0,0,0,0,0,0,0,0,0,0,0,0,0,0,0,0,0,0,0,0,0,0,0,0,0,0,0,0,0,0,0,0,0,0,0,0,0,0,0,0,
0,0,0,0,0,0,0,0,0,0,0,0,0,0,0,0,0,0,0,0,0,0,0,0,0,0,0,0,0,0,0,0,0,0,0,0,0,0,0,0,
0,0,0,0,0,0,0,0,0,0,0,0,0,0,0,0,0,0,0,0,0,0,0,0,0,0,0,0,0,0,0,0,0,0,0,0,0,0,0,0,
0,0,0,0,0,0,0,0,0,0,0,0,0,0,0,0,0,0,0,0,0,0,0,0,0,0,0,0,0,0,0,0,0,0,0,0,0,0,0,0,
0,0,0,0,0,0,0,0,0,0,0,0,0,0,0,0,0,0,0,0,0,0,0,0,0,0,0,0,0,0,0,0,0,0,0,0,0,0,0,0,
0,0,0,0,0,0,0,0,0,0,0,0,0,0,0,0,0,0,0,0,0,0,0,0,0,0,0,0,0,0,0,0,0,0,0,0,0,0,0,0,
0,0,0,0,0,0,0,0,0,0,0,0,0,0,0,0,0,0,0,0,0,0,0,0,0,0,0,0,0,0,0,0,0,0,0,0,0,0,0,0,
0,0,0,0,0,0,0,0,0,0,0,0,0,0,0,0,0,0,0,0,0,0,0,0,0,0,0,0,0,0,0,0,0,0,0,0,0,0,0,0,
0,0,0,0,0,0,0,0,0,0,0,0,0,0,0,0,0,0,0,0,0,0,0,0,0,0,0,0,0,0,0,0,0,0,0,0,0,0,0,0,
0,0,0,0,0,0,0,0,0,0,0,0,0,0,0,0,0,0,0,0,0,0,0,0,0,0,0,0,0,0,0,0,0,0,0,0,0,0,0,0,
0,0,0,0,0,0,0,0,0,0,0,0,0,0,0,0,0,0,0,0,0,0,0,0,0,0,0,0,0,0,0,0,0,0,0,0,0,0,0,0,
0,0,0,0,0,0,0,0,0,0,0,0,0,0,0,0,0,0,0,0,0,0,0,0,0,0,0,0,0,0,0,0,0,0,0,0,0,0,0,0,
0,0,0,0,0,0,0,0,0,0,0,0,0,0,0,0,0,0,0,0,0,0,0,0,0,0,0,0,0,0,0,0,0,0,0,0,0,0,0,0,
0,0,0,0,0,0,0,0,0,0,0,0,0,0,0,0,0,0,0,0,0,0,7799,0,0,0,0,0,0,0,0,0,0,0,0,0,0,0,0,0,
0,0,0,0,0,0,0,0,0,0,0,0,0,0,0,0,0,0,0,0,0,0,0,0,0,0,0,0,0,0,0,0,0,0,0,0,0,0,0,0,
0,0,0,0,0,0,0,0,0,0,0,0,0,0,0,0,0,0,0,0,0,0,0,0,0,0,0,0,0,0,0,0,0,0,0,0,0,0,0,0,
0,0,0,0,0,0,0,0,0,0,0,0,0,0,0,0,0,0,0,0,0,0,0,0,0,0,0,0,0,0,0,0,0,0,0,0,0,0,0,0,
0,0,0,0,0,0,0,0,0,0,0,0,0,0,0,0,0,0,0,0,0,0,0,0,0,0,0,7661,0,0,0,0,0,0,0,0,0,0,0,0,
0,0,0,0,0,0,0,0,0,0,0,0,0,0,0,0,0,0,0,0,0,0,0,0,0,0,0,0,0,0,0,0,0,0,0,0,0,0,0,0,
0,0,0,0,0,0,0,0,0,0,0,0,0,0,0,0,0,0,0,0,0,7316,0,0,0,0,0,0,0,0,0,0,0,0,0,0,0,0,0,0,
0,0,0,0,0,0,0,0,0,0,0,0,0,0,0,0,0,0,0,0,0,0,0,0,0,0,0,0,0,0,0,0,0,0,0,0,0,0,0,0,
0,0,0,0,0,0,0,0,0,0,0,0,0,0,0,0,0,0,0,0,0,0,0,0,0,0,0,0,0,0,0,0,0,0,0,0,0,0,0,0,
0,0,0,0,0,0,0,0,0,0,0,0,0,0,0,0,0,0,0,0,0,0,0,0,0,0,0,0,0,0,0,0,0,0,0,0,0,0,0,0,
0,0,0,0,0,0,0,0,0,0,0,0,0,0,0,0,0,0,0,0,0,0,0,0,0,0,0,0,0,0,0,0,0,0,0,0,0,0,0,0,
0,0,0,0,0,0,0,0,0,0,0,0,0,0,0,0,0,0,0,0,0,0,0,0,0,0,0,0,0,0,0,0,0,0,0,0,0,0,0,0,
0,0,0,0,0,0,0,0,0,0,0,0,0,0,0,0,0,0,0,0,0,0,0,0,0,0,0,0,0,0,0,0,0,0,0,0,0,0,0,0,
0,0,0,0,0,0,0,0,0,0,0,0,0,0,0,0,0,0,0,0,0,0,0,0,0,0,0,0,0,0,0,0,0,0,0,0,0,0,0,0,
0,0,0,0,0,0,0,0,0,0,0,0,0,0,0,0,0,0,0,0,0,0,0,0,0,0,0,0,0,0,0,0,0,0,0,0,0,0,0,0,
0,0,0,0,0,0,0,0,0,0,0,0,0,0,0,0,0,0,0,0,0,0,0,0,0,0,0,0,0,0,0,0,0,0,0,0,0,0,0,0,
0,0,0,0,0,0,0,0,0,0,0,0,0,0,0,0,0,0,0,0,0,0,0,0,0,0,0,0,0,0,0,0,0,0,0,0,0,0,0,0,
0,0,0,0,0,0,0,0,0,0,0,0,0,0,0,0,0,0,0,0,0,0,0,0,0,0,0,0,0,0,0,0,0,0,0,0,0,0,0,0,
0,0,0,0,0,0,0,0,0,0,0,0,0,0,0,0,0,0,0,0,0,0,0,0,0,0,0,0,0,0,0,0,0,0,0,0,0,0,0,0,
0,0,0,0,0,0,0,0,0,0,0,0,0,0,0,0,0,0,0,0,0,0,0,0,0,0,0,0,0,0,0,0,0,0,0,0,0,0,0,0,
0,0,0,0,0,0,0,0,0,0,0,0,0,0,0,0,0,0,0,0,0,0,0,0,0,0,0,0,0,0,0,0,0,0,0,0,0,0,0,0
</data>
 </layer>
</map>
